;FLAVOR:Marlin
;TIME:15354
;Filament used: 13.2343m
;Layer height: 0.2
;Generated with Cura_SteamEngine 3.6.0
M140 S50
M105
M190 S50
M104 S205
M105
M109 S205
M82 ;absolute extrusion mode
; Ender 3 Custom Start G-code
G28 ; Home all axes
G92 E0 ; Reset Extruder
G1 Z2.0 F3000 ; Move Z Axis up little to prevent scratching of Heat Bed
G1 X0.1 Y20 Z0.3 F5000.0 ; Move to start position
G1 X0.1 Y200.0 Z0.3 F1500.0 E15 ; Draw the first line
G1 X0.4 Y200.0 Z0.3 F5000.0 ; Move to side a little
G1 X0.4 Y20 Z0.3 F1500.0 E30 ; Draw the second line
G92 E0 ; Reset Extruder
G1 Z2.0 F3000 ; Move Z Axis up little to prevent scratching of Heat Bed
; End of custom start GCode
G92 E0
G1 F2400 E-5
;LAYER_COUNT:161
;LAYER:0
M107
M204 S5000
M205 X30 Y30
G0 F3600 X53.754 Y56.028 Z0.2
M204 S500
M205 X20 Y20
;TYPE:SKIRT
G1 F2400 E0
G1 F1800 X54.33 Y55.543 E0.02504
G1 X55.147 Y54.958 E0.05847
G1 X55.797 Y54.566 E0.08371
G1 X56.671 Y54.127 E0.11624
G1 X57.37 Y53.84 E0.14137
G1 X58.046 Y53.605 E0.16518
G1 X58.508 Y53.492 E0.181
G1 X59.579 Y53.271 E0.21737
G1 X60.286 Y53.166 E0.24114
G1 X60.87 Y53.139 E0.26059
G1 X173.753 Y53.111 E4.01509
G1 X174.375 Y53.141 E4.0358
G1 X175.104 Y53.212 E4.06016
G1 X176.034 Y53.373 E4.09156
G1 X176.759 Y53.554 E4.11641
G1 X177.654 Y53.848 E4.14774
G1 X178.341 Y54.132 E4.17247
G1 X179.21 Y54.572 E4.20486
G1 X179.879 Y54.977 E4.23088
G1 X180.708 Y55.574 E4.26485
G1 X181.285 Y56.064 E4.29003
G1 X181.803 Y56.556 E4.31379
G1 X182.204 Y57.026 E4.33434
G1 X182.939 Y57.976 E4.37429
G1 X183.344 Y58.565 E4.39807
G1 X183.764 Y59.38 E4.42856
G1 X184.209 Y60.423 E4.46628
G1 X184.452 Y61.096 E4.49008
G1 X184.655 Y62.011 E4.52125
G1 X184.824 Y63.169 E4.56017
G1 X184.891 Y64.093 E4.59098
G1 X184.889 Y107.5 E6.03471
G1 X184.866 Y108.043 E6.05278
G1 X184.63 Y110.819 E6.14545
G1 X184.405 Y116.144 E6.32271
G1 X184.48 Y121.438 E6.49881
G1 X184.874 Y127.048 E6.68586
G1 X184.89 Y127.502 E6.70097
G1 X184.851 Y171.45 E8.16269
G1 X184.81 Y172.164 E8.18647
G1 X184.629 Y173.114 E8.21864
G1 X184.326 Y174.235 E8.25726
G1 X184.101 Y174.914 E8.28105
G1 X183.845 Y175.48 E8.30171
G1 X183.517 Y176.121 E8.32566
G1 X183.013 Y176.947 E8.35785
G1 X182.642 Y177.462 E8.37896
G1 X182.037 Y178.183 E8.41026
G1 X181.507 Y178.728 E8.43555
G1 X180.771 Y179.377 E8.46818
G1 X180.215 Y179.796 E8.49134
G1 X179.391 Y180.324 E8.52389
G1 X178.674 Y180.709 E8.55096
G1 X177.758 Y181.111 E8.58423
G1 X177.063 Y181.354 E8.60872
G1 X176.376 Y181.552 E8.6325
G1 X175.853 Y181.649 E8.65019
G1 X174.673 Y181.817 E8.68983
G1 X173.771 Y181.881 E8.71991
G1 X61.13 Y181.884 E12.46636
G1 X60.381 Y181.84 E12.49132
G1 X59.668 Y181.756 E12.5152
G1 X58.734 Y181.575 E12.54684
G1 X58 Y181.375 E12.57214
G1 X57.09 Y181.051 E12.60427
G1 X56.377 Y180.735 E12.63021
G1 X55.52 Y180.274 E12.66257
G1 X54.917 Y179.888 E12.68639
G1 X54.132 Y179.296 E12.71909
G1 X53.552 Y178.784 E12.74482
G1 X53.043 Y178.281 E12.76862
G1 X52.586 Y177.715 E12.79282
G1 X51.801 Y176.62 E12.83763
G1 X51.417 Y176.016 E12.86144
G1 X51.072 Y175.299 E12.8879
G1 X50.776 Y174.57 E12.91407
G1 X50.545 Y173.893 E12.93786
G1 X50.387 Y173.175 E12.96231
G1 X50.191 Y171.952 E13.00351
G1 X50.11 Y170.937 E13.03738
G1 X50.15 Y63.545 E16.60925
G1 X50.19 Y62.83 E16.63307
G1 X50.253 Y62.401 E16.64749
G1 X50.326 Y62 E16.66104
G1 X50.512 Y61.244 E16.68694
G1 X50.705 Y60.624 E16.70854
G1 X50.956 Y59.954 E16.73233
G1 X51.225 Y59.412 E16.75246
G1 X51.822 Y58.34 E16.79327
G1 X52.204 Y57.736 E16.81704
G1 X52.593 Y57.243 E16.83793
G1 X53.056 Y56.713 E16.86133
G1 X53.754 Y56.028 E16.89386
M204 S5000
M205 X30 Y30
G0 F3600 X54.011 Y56.334
M204 S500
M205 X20 Y20
G1 F1800 X54.587 Y55.849 E16.9189
G1 X55.353 Y55.301 E16.95023
G1 X56.003 Y54.909 E16.97548
G1 X56.823 Y54.497 E17.006
G1 X57.522 Y54.21 E17.03113
G1 X58.177 Y53.984 E17.05418
G1 X58.588 Y53.884 E17.06825
G1 X59.659 Y53.663 E17.10462
G1 X60.345 Y53.562 E17.12768
G1 X60.871 Y53.539 E17.14519
G1 X173.754 Y53.511 E20.8997
G1 X174.337 Y53.539 E20.91911
G1 X175.066 Y53.61 E20.94347
G1 X175.937 Y53.761 E20.97287
G1 X176.662 Y53.942 E20.99773
G1 X177.501 Y54.218 E21.0271
G1 X178.188 Y54.502 E21.05183
G1 X179.003 Y54.914 E21.0822
G1 X179.672 Y55.319 E21.10821
G1 X180.449 Y55.879 E21.14007
G1 X181.026 Y56.369 E21.16524
G1 X181.527 Y56.847 E21.18828
G1 X181.888 Y57.27 E21.20677
G1 X182.623 Y58.22 E21.24672
G1 X183.014 Y58.792 E21.26977
G1 X183.396 Y59.537 E21.29761
G1 X183.841 Y60.58 E21.33533
G1 X184.075 Y61.232 E21.35837
G1 X184.259 Y62.069 E21.38687
G1 X184.428 Y63.227 E21.4258
G1 X184.491 Y64.093 E21.45467
G1 X184.489 Y107.5 E22.8984
G1 X184.467 Y108.009 E22.91534
G1 X184.232 Y110.767 E23.00741
G1 X184.005 Y116.151 E23.18664
G1 X184.081 Y121.454 E23.36303
G1 X184.475 Y127.076 E23.55048
G1 X184.49 Y127.501 E23.56463
G1 X184.451 Y171.449 E25.02634
G1 X184.41 Y172.141 E25.0494
G1 X184.243 Y173.01 E25.07883
G1 X183.94 Y174.131 E25.11745
G1 X183.721 Y174.788 E25.14049
G1 X183.489 Y175.298 E25.15912
G1 X183.161 Y175.939 E25.18307
G1 X182.688 Y176.713 E25.21324
G1 X182.317 Y177.228 E25.23435
G1 X181.75 Y177.904 E25.2637
G1 X181.22 Y178.449 E25.28898
G1 X180.53 Y179.058 E25.31959
G1 X179.974 Y179.477 E25.34275
G1 X179.201 Y179.971 E25.37326
G1 X178.484 Y180.356 E25.40033
G1 X177.626 Y180.734 E25.43151
G1 X176.931 Y180.977 E25.456
G1 X176.265 Y181.167 E25.47904
G1 X175.797 Y181.253 E25.49486
G1 X174.617 Y181.421 E25.5345
G1 X173.771 Y181.481 E25.56271
G1 X61.13 Y181.484 E29.30917
G1 X60.428 Y181.443 E29.33256
G1 X59.715 Y181.359 E29.35643
G1 X58.84 Y181.189 E29.38608
G1 X58.106 Y180.989 E29.41138
G1 X57.252 Y180.685 E29.44153
G1 X56.539 Y180.369 E29.46747
G1 X55.735 Y179.937 E29.49783
G1 X55.132 Y179.551 E29.52164
G1 X54.396 Y178.996 E29.5523
G1 X53.816 Y178.484 E29.57804
G1 X53.324 Y177.997 E29.60106
G1 X52.911 Y177.482 E29.62302
G1 X52.126 Y176.387 E29.66783
G1 X51.755 Y175.802 E29.69087
G1 X51.443 Y175.148 E29.71497
G1 X51.147 Y174.419 E29.74114
G1 X50.924 Y173.764 E29.76415
G1 X50.782 Y173.111 E29.78638
G1 X50.586 Y171.888 E29.82757
G1 X50.51 Y170.937 E29.85931
G1 X50.55 Y63.545 E33.43118
G1 X50.59 Y62.853 E33.45423
G1 X50.647 Y62.472 E33.46705
G1 X50.72 Y62.071 E33.4806
G1 X50.894 Y61.363 E33.50485
G1 X51.087 Y60.743 E33.52645
G1 X51.331 Y60.094 E33.54951
G1 X51.574 Y59.607 E33.56761
G1 X52.171 Y58.535 E33.60842
G1 X52.542 Y57.95 E33.63146
G1 X52.894 Y57.507 E33.65028
G1 X53.357 Y56.977 E33.67369
G1 X54.011 Y56.334 E33.70419
M204 S5000
M205 X30 Y30
G0 F3600 X54.269 Y56.64
M204 S500
M205 X20 Y20
G1 F1800 X54.845 Y56.155 E33.72924
G1 X55.56 Y55.644 E33.75847
G1 X56.21 Y55.252 E33.78371
G1 X56.975 Y54.867 E33.8122
G1 X57.674 Y54.58 E33.83733
G1 X58.307 Y54.363 E33.85959
G1 X58.669 Y54.276 E33.87197
G1 X59.74 Y54.055 E33.90834
G1 X60.402 Y53.959 E33.93059
G1 X60.871 Y53.939 E33.9462
G1 X173.754 Y53.911 E37.70071
G1 X174.298 Y53.937 E37.71882
G1 X175.027 Y54.008 E37.74318
G1 X175.84 Y54.149 E37.77063
G1 X176.565 Y54.33 E37.79548
G1 X177.348 Y54.588 E37.8229
G1 X178.035 Y54.872 E37.84763
G1 X178.796 Y55.256 E37.87598
G1 X179.465 Y55.661 E37.90199
G1 X180.19 Y56.183 E37.9317
G1 X180.767 Y56.673 E37.95688
G1 X181.25 Y57.136 E37.97913
G1 X181.571 Y57.515 E37.99565
G1 X182.306 Y58.465 E38.0356
G1 X182.683 Y59.018 E38.05786
G1 X183.028 Y59.694 E38.08311
G1 X183.473 Y60.737 E38.12082
G1 X183.698 Y61.367 E38.14307
G1 X183.863 Y62.126 E38.16891
G1 X184.032 Y63.284 E38.20783
G1 X184.091 Y64.093 E38.23481
G1 X184.089 Y107.5 E39.67853
G1 X184.069 Y107.975 E39.69434
G1 X183.832 Y110.763 E39.78741
G1 X183.604 Y116.14 E39.96641
G1 X183.681 Y121.47 E40.1437
G1 X184.076 Y127.104 E40.33155
G1 X184.09 Y127.501 E40.34476
G1 X184.051 Y171.449 E41.80648
G1 X184.01 Y172.117 E41.82874
G1 X183.857 Y172.905 E41.85544
G1 X183.554 Y174.026 E41.89406
G1 X183.341 Y174.66 E41.9163
G1 X183.133 Y175.116 E41.93297
G1 X182.805 Y175.757 E41.95692
G1 X182.364 Y176.479 E41.98506
G1 X181.993 Y176.994 E42.00617
G1 X181.464 Y177.625 E42.03356
G1 X180.934 Y178.17 E42.05884
G1 X180.289 Y178.738 E42.08743
G1 X179.733 Y179.157 E42.11059
G1 X179.012 Y179.619 E42.13907
G1 X178.295 Y180.004 E42.16614
G1 X177.494 Y180.356 E42.19524
G1 X176.799 Y180.599 E42.21972
G1 X176.156 Y180.782 E42.24196
G1 X175.74 Y180.857 E42.25602
G1 X174.56 Y181.025 E42.29566
G1 X173.771 Y181.081 E42.32197
G1 X61.13 Y181.084 E46.06842
G1 X60.475 Y181.046 E46.09025
G1 X59.762 Y180.962 E46.11412
G1 X58.945 Y180.803 E46.14181
G1 X58.211 Y180.603 E46.16711
G1 X57.414 Y180.32 E46.19524
G1 X56.701 Y180.004 E46.22118
G1 X55.951 Y179.6 E46.24951
G1 X55.348 Y179.214 E46.27333
G1 X54.661 Y178.696 E46.30194
G1 X54.081 Y178.184 E46.32768
G1 X53.607 Y177.712 E46.34992
G1 X53.236 Y177.249 E46.36966
G1 X52.451 Y176.154 E46.41447
G1 X52.094 Y175.588 E46.43673
G1 X51.813 Y174.998 E46.45846
G1 X51.517 Y174.269 E46.48463
G1 X51.303 Y173.635 E46.50689
G1 X51.177 Y173.048 E46.52686
G1 X50.981 Y171.825 E46.56805
G1 X50.91 Y170.937 E46.59768
G1 X50.95 Y63.545 E50.16955
G1 X50.99 Y62.877 E50.19181
G1 X51.041 Y62.544 E50.20302
G1 X51.114 Y62.143 E50.21657
G1 X51.276 Y61.482 E50.23921
G1 X51.469 Y60.862 E50.26081
G1 X51.706 Y60.236 E50.28307
G1 X51.924 Y59.801 E50.29925
G1 X52.521 Y58.729 E50.34006
G1 X52.88 Y58.165 E50.3623
G1 X53.196 Y57.77 E50.37912
G1 X53.659 Y57.24 E50.40253
G1 X54.269 Y56.64 E50.43099
M204 S5000
M205 X30 Y30
G0 F3600 X54.527 Y56.946
M204 S500
M205 X20 Y20
G1 F1800 X55.103 Y56.461 E50.45603
G1 X55.767 Y55.986 E50.48319
G1 X56.417 Y55.594 E50.50843
G1 X57.127 Y55.237 E50.53487
G1 X57.826 Y54.95 E50.56
G1 X58.436 Y54.742 E50.58143
G1 X58.75 Y54.667 E50.59217
G1 X59.821 Y54.446 E50.62854
G1 X60.459 Y54.355 E50.64998
G1 X60.871 Y54.339 E50.66369
G1 X173.754 Y54.311 E54.4182
G1 X174.259 Y54.335 E54.43501
G1 X174.988 Y54.406 E54.45937
G1 X175.744 Y54.537 E54.48489
G1 X176.469 Y54.718 E54.50975
G1 X177.196 Y54.957 E54.5352
G1 X177.883 Y55.241 E54.55992
G1 X178.589 Y55.599 E54.58625
G1 X179.258 Y56.004 E54.61226
G1 X179.931 Y56.488 E54.63983
G1 X180.508 Y56.978 E54.66501
G1 X180.973 Y57.425 E54.68646
G1 X181.255 Y57.76 E54.70103
G1 X181.99 Y58.71 E54.74098
G1 X182.352 Y59.243 E54.76241
G1 X182.66 Y59.851 E54.78508
G1 X183.105 Y60.894 E54.82279
G1 X183.321 Y61.502 E54.84425
G1 X183.467 Y62.184 E54.86745
G1 X183.636 Y63.342 E54.90637
G1 X183.691 Y64.093 E54.93142
G1 X183.689 Y107.5 E56.37514
G1 X183.67 Y107.941 E56.38982
G1 X183.432 Y110.735 E56.48309
G1 X183.204 Y116.129 E56.66265
G1 X183.281 Y121.486 E56.84085
G1 X183.677 Y127.132 E57.0291
G1 X183.69 Y127.501 E57.04138
G1 X183.651 Y171.449 E58.50309
G1 X183.61 Y172.092 E58.52452
G1 X183.471 Y172.801 E58.54855
G1 X183.168 Y173.922 E58.58718
G1 X182.961 Y174.533 E58.60863
G1 X182.777 Y174.934 E58.62331
G1 X182.449 Y175.575 E58.64726
G1 X182.039 Y176.245 E58.67338
G1 X181.668 Y176.76 E58.69449
G1 X181.177 Y177.346 E58.71992
G1 X180.647 Y177.891 E58.7452
G1 X180.049 Y178.419 E58.77174
G1 X179.493 Y178.838 E58.79489
G1 X178.823 Y179.266 E58.82134
G1 X178.106 Y179.651 E58.8484
G1 X177.362 Y179.979 E58.87545
G1 X176.667 Y180.222 E58.89994
G1 X176.047 Y180.396 E58.92135
G1 X175.684 Y180.461 E58.93362
G1 X174.504 Y180.629 E58.97326
G1 X173.771 Y180.681 E58.9977
G1 X61.13 Y180.684 E62.74416
G1 X60.522 Y180.648 E62.76442
G1 X59.809 Y180.564 E62.78829
G1 X59.05 Y180.417 E62.81401
G1 X58.316 Y180.217 E62.83931
G1 X57.576 Y179.954 E62.86543
G1 X56.863 Y179.638 E62.89137
G1 X56.167 Y179.264 E62.91765
G1 X55.564 Y178.878 E62.94146
G1 X54.926 Y178.396 E62.96806
G1 X54.346 Y177.884 E62.99379
G1 X53.89 Y177.429 E63.01521
G1 X53.561 Y177.016 E63.03278
G1 X52.776 Y175.921 E63.07759
G1 X52.433 Y175.375 E63.09903
G1 X52.184 Y174.847 E63.11845
G1 X51.888 Y174.118 E63.14462
G1 X51.683 Y173.507 E63.16606
G1 X51.572 Y172.985 E63.18381
G1 X51.376 Y171.762 E63.225
G1 X51.31 Y170.937 E63.25253
G1 X51.35 Y63.545 E66.8244
G1 X51.434 Y62.616 E66.85543
G1 X51.507 Y62.215 E66.86898
G1 X51.658 Y61.6 E66.89005
G1 X51.851 Y60.98 E66.91164
G1 X52.08 Y60.378 E66.93307
G1 X52.273 Y59.996 E66.9473
G1 X52.87 Y58.924 E66.98811
G1 X53.218 Y58.381 E67.00956
G1 X53.497 Y58.033 E67.0244
G1 X53.96 Y57.503 E67.0478
G1 X54.527 Y56.946 E67.07424
M204 S5000
M205 X30 Y30
G1 F2400 E62.07424
;MESH:WiringHubCaseV2_Join.stl
G0 F3600 X60.942 Y58.851
G0 X61.402 Y60.119
G0 X159.83 Y106.83
G0 X159.9 Y106.9
M204 S500
M205 X20 Y20
;TYPE:WALL-INNER
G1 F2400 E67.07424
G1 F1800 X159.9 Y128.1 E67.77935
G1 X177.7 Y128.1 E68.37139
G1 X177.9 Y128.1 E68.37804
G1 X177.9 Y128.3 E68.38234
G1 X177.896 Y171.021 E69.80325
G1 X177.87 Y171.328 E69.8135
G1 X177.819 Y171.638 E69.82395
G1 X177.739 Y171.956 E69.83485
G1 X177.642 Y172.239 E69.8448
G1 X177.508 Y172.548 E69.85601
G1 X177.359 Y172.826 E69.8665
G1 X177.193 Y173.083 E69.87667
G1 X176.989 Y173.351 E69.88787
G1 X176.766 Y173.597 E69.89892
G1 X176.539 Y173.814 E69.90936
G1 X176.281 Y174.023 E69.92041
G1 X176.007 Y174.212 E69.93148
G1 X175.729 Y174.374 E69.94218
G1 X175.411 Y174.528 E69.95393
G1 X175.113 Y174.646 E69.96459
G1 X174.786 Y174.747 E69.97597
G1 X174.475 Y174.818 E69.98658
G1 X174.103 Y174.874 E69.9991
G1 X173.976 Y174.886 E70.00334
G1 X173.598 Y174.9 E70.01592
G1 X61.299 Y174.899 E73.751
G1 X60.96 Y174.88 E73.76229
G1 X60.631 Y174.837 E73.77333
G1 X60.276 Y174.763 E73.78539
G1 X59.976 Y174.676 E73.79578
G1 X59.659 Y174.558 E73.80703
G1 X59.343 Y174.412 E73.81861
G1 X59.059 Y174.254 E73.82942
G1 X58.79 Y174.076 E73.84014
G1 X58.526 Y173.87 E73.85128
G1 X58.289 Y173.653 E73.86197
G1 X58.053 Y173.401 E73.87345
G1 X57.859 Y173.156 E73.88385
G1 X57.68 Y172.89 E73.89451
G1 X57.529 Y172.622 E73.90474
G1 X57.386 Y172.31 E73.91616
G1 X57.283 Y172.028 E73.92614
G1 X57.199 Y171.721 E73.93673
G1 X57.14 Y171.404 E73.94745
G1 X57.107 Y171.087 E73.95805
G1 X57.101 Y170.936 E73.96308
G1 X57.104 Y63.979 E77.52048
G1 X57.13 Y63.672 E77.53073
G1 X57.181 Y63.362 E77.54118
G1 X57.262 Y63.039 E77.55226
G1 X57.358 Y62.762 E77.56201
G1 X57.494 Y62.447 E77.57342
G1 X57.64 Y62.176 E77.58366
G1 X57.807 Y61.917 E77.59391
G1 X58.011 Y61.649 E77.60511
G1 X58.234 Y61.403 E77.61615
G1 X58.463 Y61.184 E77.62669
G1 X58.719 Y60.977 E77.63764
G1 X58.993 Y60.788 E77.64871
G1 X59.271 Y60.626 E77.65941
G1 X59.594 Y60.469 E77.67136
G1 X59.882 Y60.356 E77.68165
G1 X60.214 Y60.253 E77.69321
G1 X60.538 Y60.179 E77.70426
G1 X60.881 Y60.127 E77.7158
G1 X61.022 Y60.114 E77.72051
G1 X61.402 Y60.1 E77.73316
G1 X173.7 Y60.1 E81.46821
G1 X174.039 Y60.119 E81.4795
G1 X174.368 Y60.162 E81.49054
G1 X174.723 Y60.236 E81.5026
G1 X175.023 Y60.323 E81.51299
G1 X175.341 Y60.442 E81.52428
G1 X175.657 Y60.588 E81.53586
G1 X175.941 Y60.746 E81.54667
G1 X176.21 Y60.924 E81.55739
G1 X176.472 Y61.128 E81.56844
G1 X176.711 Y61.347 E81.57922
G1 X176.947 Y61.599 E81.5907
G1 X177.141 Y61.844 E81.6011
G1 X177.32 Y62.11 E81.61176
G1 X177.474 Y62.383 E81.62219
G1 X177.606 Y62.67 E81.63269
G1 X177.716 Y62.969 E81.64329
G1 X177.801 Y63.277 E81.65392
G1 X177.86 Y63.595 E81.66467
G1 X177.892 Y63.902 E81.67494
G1 X177.899 Y64.065 E81.68037
G1 X177.9 Y106.7 E83.09841
G1 X177.9 Y106.9 E83.10506
G1 X177.7 Y106.9 E83.10937
G1 X159.9 Y106.9 E83.7014
M204 S5000
M205 X30 Y30
G0 F3600 X160.3 Y107.3
M204 S500
M205 X20 Y20
;TYPE:WALL-OUTER
G1 F1800 X160.3 Y127.7 E84.37991
G1 X178.1 Y127.7 E84.97194
G1 X178.3 Y127.7 E84.97859
G1 X178.3 Y127.9 E84.9829
G1 X178.296 Y171.042 E86.41781
G1 X178.268 Y171.379 E86.42905
G1 X178.212 Y171.716 E86.44042
G1 X178.124 Y172.065 E86.45239
G1 X178.014 Y172.386 E86.46367
G1 X177.868 Y172.722 E86.47586
G1 X177.704 Y173.029 E86.48743
G1 X177.519 Y173.316 E86.49879
G1 X177.298 Y173.605 E86.51089
G1 X177.057 Y173.872 E86.52286
G1 X176.797 Y174.12 E86.53481
G1 X176.527 Y174.339 E86.54637
G1 X176.217 Y174.553 E86.5589
G1 X175.916 Y174.728 E86.57048
G1 X175.576 Y174.893 E86.58305
G1 X175.244 Y175.024 E86.59492
G1 X174.893 Y175.133 E86.60714
G1 X174.54 Y175.213 E86.61918
G1 X174.163 Y175.27 E86.63186
G1 X173.994 Y175.286 E86.63751
G1 X173.613 Y175.3 E86.65019
G1 X61.295 Y175.299 E90.3859
G1 X60.913 Y175.278 E90.39863
G1 X60.563 Y175.232 E90.41037
G1 X60.189 Y175.154 E90.42307
G1 X59.843 Y175.054 E90.43505
G1 X59.508 Y174.929 E90.44695
G1 X59.164 Y174.77 E90.45955
G1 X58.852 Y174.596 E90.47143
