;FLAVOR:Marlin
;TIME:4067
;Filament used: 2.12017m
;Layer height: 0.2
;MINX:94
;MINY:92
;MINZ:0.2
;MAXX:141
;MAXY:143
;MAXZ:41.4
;Generated with Cura_SteamEngine master
M140 S60
M105
M190 S60
M104 S210
M105
M109 S210
M82 ;absolute extrusion mode
; Ender 3 Custom Start G-code
G92 E0 ; Reset Extruder
G28 ; Home all axes
G1 Z2.0 F3000 ; Move Z Axis up little to prevent scratching of Heat Bed
G1 X0.1 Y20 Z0.3 F5000.0 ; Move to start position
G1 X0.1 Y200.0 Z0.3 F1500.0 E15 ; Draw the first line
G1 X0.4 Y200.0 Z0.3 F5000.0 ; Move to side a little
G1 X0.4 Y20 Z0.3 F1500.0 E30 ; Draw the second line
G92 E0 ; Reset Extruder
G1 Z2.0 F3000 ; Move Z Axis up little to prevent scratching of Heat Bed
G1 X5 Y20 Z0.3 F5000.0 ; Move over to prevent blob squish
G92 E0
G92 E0
G1 F2700 E-5
;LAYER_COUNT:207
;LAYER:0
M107
G0 F6000 X101.957 Y95.511 Z0.2
;TYPE:SKIRT
G1 F2700 E0
G1 F1200 X102.625 Y94.853 E0.03119
G1 X103.347 Y94.254 E0.06239
G1 X104.117 Y93.718 E0.09359
G1 X104.93 Y93.25 E0.12479
G1 X105.78 Y92.853 E0.156
G1 X106.66 Y92.53 E0.18717
G1 X107.565 Y92.283 E0.21838
G1 X108.487 Y92.114 E0.24955
G1 X109.701 Y92.013 E0.29007
G1 X110.025 Y92.004 E0.30085
G1 X110.33 Y92 E0.311
G1 X124.293 Y92 E0.77541
G1 X125.151 Y92.011 E0.80395
G1 X126.087 Y92.064 E0.83513
G1 X127.016 Y92.197 E0.86634
G1 X127.929 Y92.409 E0.89752
G1 X128.822 Y92.697 E0.92872
G1 X129.686 Y93.061 E0.95991
G1 X130.517 Y93.497 E0.99112
G1 X131.307 Y94.002 E1.0223
G1 X132.051 Y94.572 E1.05348
G1 X132.744 Y95.204 E1.08467
G1 X133.381 Y95.893 E1.11588
G1 X133.741 Y96.34 E1.13497
G1 X134.453 Y97.274 E1.17403
G1 X136.524 Y99.891 E1.28503
G1 X136.744 Y100.16 E1.29659
G1 X137.475 Y101.165 E1.33792
G1 X137.941 Y101.891 E1.36662
G1 X138.642 Y103.009 E1.41051
G1 X138.916 Y103.428 E1.42716
G1 X139.262 Y103.97 E1.44855
G1 X139.732 Y104.781 E1.47972
G1 X140.132 Y105.63 E1.51094
G1 X140.458 Y106.509 E1.54212
G1 X140.708 Y107.413 E1.57331
G1 X140.88 Y108.335 E1.60451
G1 X140.987 Y109.619 E1.64736
G1 X140.997 Y110.026 E1.6609
G1 X141 Y110.296 E1.66988
G1 X140.999 Y131.3 E2.36848
G1 X140.989 Y132.029 E2.39273
G1 X140.936 Y132.965 E2.42391
G1 X140.804 Y133.894 E2.45512
G1 X140.593 Y134.808 E2.48632
G1 X140.305 Y135.7 E2.5175
G1 X139.942 Y136.565 E2.5487
G1 X139.506 Y137.396 E2.57991
G1 X139.002 Y138.186 E2.61108
G1 X138.431 Y138.931 E2.6423
G1 X137.768 Y139.656 E2.67497
G1 X137.656 Y139.768 E2.68024
G1 X136.965 Y140.402 E2.71143
G1 X136.223 Y140.976 E2.74263
G1 X135.434 Y141.483 E2.77383
G1 X134.606 Y141.922 E2.805
G1 X133.742 Y142.289 E2.83622
G1 X132.851 Y142.581 E2.8674
G1 X131.938 Y142.795 E2.89859
G1 X131.01 Y142.932 E2.92979
G1 X130.249 Y142.984 E2.95516
G1 X129.864 Y142.994 E2.96797
G1 X129.321 Y143 E2.98603
G1 X105.667 Y142.999 E3.77277
G1 X104.965 Y142.989 E3.79612
G1 X104.029 Y142.936 E3.8273
G1 X103.101 Y142.803 E3.85848
G1 X102.187 Y142.591 E3.88969
G1 X101.294 Y142.303 E3.9209
G1 X100.43 Y141.939 E3.95208
G1 X99.599 Y141.503 E3.98329
G1 X98.809 Y140.998 E4.01448
G1 X98.065 Y140.428 E4.04565
G1 X97.083 Y139.498 E4.09063
G1 X96.97 Y139.377 E4.09614
G1 X96.359 Y138.665 E4.12735
G1 X95.812 Y137.903 E4.15854
G1 X95.331 Y137.098 E4.18973
G1 X94.921 Y136.254 E4.22094
G1 X94.584 Y135.379 E4.25213
G1 X94.323 Y134.478 E4.28333
G1 X94.14 Y133.559 E4.31449
G1 X94.014 Y132.185 E4.36039
G1 X94.006 Y131.852 E4.37146
G1 X94 Y131.276 E4.39062
G1 X94.004 Y110.428 E5.08403
G1 X94.014 Y109.731 E5.10722
G1 X94.068 Y108.795 E5.1384
G1 X94.201 Y107.866 E5.16961
G1 X94.412 Y106.953 E5.20078
G1 X94.701 Y106.06 E5.232
G1 X95.064 Y105.196 E5.26317
G1 X95.5 Y104.366 E5.29435
G1 X95.816 Y103.855 E5.31433
G1 X95.928 Y103.685 E5.3211
G1 X97.411 Y101.348 E5.41316
G1 X97.646 Y100.993 E5.42732
G1 X97.791 Y100.783 E5.43581
G1 X98.285 Y100.122 E5.46326
G1 X99.825 Y98.215 E5.54478
G1 X101.127 Y96.506 E5.61624
G1 X101.348 Y96.224 E5.62816
G1 X101.957 Y95.511 E5.65935
G0 F6000 X102.262 Y95.771
G1 F1200 X102.919 Y95.127 E5.68994
G1 X103.63 Y94.541 E5.72059
G1 X104.388 Y94.02 E5.75118
G1 X105.19 Y93.566 E5.78183
G1 X106.027 Y93.184 E5.81243
G1 X106.895 Y92.876 E5.84307
G1 X107.786 Y92.644 E5.87369
G1 X108.693 Y92.491 E5.90428
G1 X109.712 Y92.413 E5.93828
G1 X110.036 Y92.404 E5.94906
G1 X110.33 Y92.4 E5.95883
G1 X124.293 Y92.4 E6.42325
G1 X125.145 Y92.411 E6.45159
G1 X126.064 Y92.464 E6.4822
G1 X126.975 Y92.597 E6.51282
G1 X127.871 Y92.808 E6.54344
G1 X128.746 Y93.096 E6.57408
G1 X129.592 Y93.459 E6.6047
G1 X130.403 Y93.894 E6.63531
G1 X131.174 Y94.398 E6.66594
G1 X131.898 Y94.967 E6.69657
G1 X132.57 Y95.596 E6.72718
G1 X133.423 Y96.583 E6.77057
G1 X134.134 Y97.516 E6.80959
G1 X136.213 Y100.143 E6.92101
G1 X136.434 Y100.413 E6.93262
G1 X137.139 Y101.382 E6.97248
G1 X137.603 Y102.103 E7.00099
G1 X138.329 Y103.262 E7.04648
G1 X138.579 Y103.643 E7.06164
G1 X138.925 Y104.185 E7.08302
G1 X139.386 Y104.982 E7.11365
G1 X139.776 Y105.816 E7.14427
G1 X140.093 Y106.68 E7.17488
G1 X140.333 Y107.569 E7.20551
G1 X140.495 Y108.475 E7.23612
G1 X140.587 Y109.629 E7.27462
G1 X140.597 Y110.036 E7.28816
G1 X140.6 Y110.296 E7.29681
G1 X140.599 Y131.294 E7.99521
G1 X140.589 Y132.023 E8.01946
G1 X140.536 Y132.943 E8.05011
G1 X140.404 Y133.854 E8.08072
G1 X140.194 Y134.75 E8.11133
G1 X139.906 Y135.624 E8.14194
G1 X139.543 Y136.471 E8.17259
G1 X139.109 Y137.282 E8.20318
G1 X138.605 Y138.053 E8.23382
G1 X138.037 Y138.778 E8.26445
G1 X137.485 Y139.373 E8.29144
G1 X137.373 Y139.485 E8.29671
G1 X136.695 Y140.107 E8.32732
G1 X135.965 Y140.668 E8.35794
G1 X135.189 Y141.164 E8.38857
G1 X134.373 Y141.59 E8.41918
G1 X133.523 Y141.944 E8.44981
G1 X132.645 Y142.222 E8.48044
G1 X131.747 Y142.424 E8.51105
G1 X130.834 Y142.547 E8.5417
G1 X130.236 Y142.584 E8.56162
G1 X129.86 Y142.594 E8.57413
G1 X129.321 Y142.6 E8.59206
G1 X105.673 Y142.599 E9.3786
G1 X104.971 Y142.589 E9.40195
G1 X104.052 Y142.536 E9.43257
G1 X103.141 Y142.403 E9.46319
G1 X102.245 Y142.192 E9.4938
G1 X101.37 Y141.904 E9.52444
G1 X100.524 Y141.541 E9.55506
G1 X99.713 Y141.106 E9.58567
G1 X98.942 Y140.602 E9.61631
G1 X98.218 Y140.034 E9.64691
G1 X97.375 Y139.225 E9.68577
G1 X97.262 Y139.104 E9.69128
G1 X96.663 Y138.404 E9.72192
G1 X96.128 Y137.656 E9.75251
G1 X95.659 Y136.863 E9.78315
G1 X95.261 Y136.033 E9.81377
G1 X94.937 Y135.171 E9.8444
G1 X94.688 Y134.285 E9.87501
G1 X94.517 Y133.38 E9.90564
G1 X94.413 Y132.174 E9.9459
G1 X94.406 Y131.847 E9.95678
G1 X94.4 Y131.276 E9.97577
G1 X94.404 Y110.434 E10.66898
G1 X94.414 Y109.737 E10.69216
G1 X94.467 Y108.818 E10.72278
G1 X94.6 Y107.907 E10.7534
G1 X94.811 Y107.011 E10.78402
G1 X95.099 Y106.136 E10.81466
G1 X95.463 Y105.29 E10.84529
G1 X95.898 Y104.479 E10.8759
G1 X96.15 Y104.074 E10.89176
G1 X96.287 Y103.865 E10.90007
G1 X97.749 Y101.562 E10.9908
G1 X97.975 Y101.22 E11.00444
G1 X98.12 Y101.01 E11.01293
G1 X98.596 Y100.374 E11.03935
G1 X100.143 Y98.458 E11.12125
G1 X101.442 Y96.753 E11.19255
G1 X101.663 Y96.471 E11.20446
G1 X102.262 Y95.771 E11.2351
G0 F6000 X102.566 Y96.032
G1 F1200 X103.212 Y95.401 E11.26514
G1 X103.912 Y94.83 E11.29518
G1 X104.659 Y94.323 E11.32521
G1 X105.448 Y93.884 E11.35524
G1 X106.273 Y93.517 E11.38528
G1 X107.127 Y93.224 E11.4153
G1 X108.004 Y93.007 E11.44535
G1 X108.897 Y92.869 E11.47541
G1 X109.723 Y92.813 E11.50294
G1 X110.047 Y92.804 E11.51372
G1 X110.33 Y92.8 E11.52314
G1 X124.293 Y92.8 E11.98755
G1 X125.139 Y92.811 E12.01569
G1 X126.041 Y92.864 E12.04574
G1 X126.934 Y92.996 E12.07577
G1 X127.813 Y93.207 E12.10583
G1 X128.669 Y93.495 E12.13587
G1 X129.496 Y93.857 E12.1659
G1 X130.288 Y94.291 E12.19593
G1 X131.038 Y94.794 E12.22597
G1 X131.741 Y95.361 E12.25601
G1 X132.391 Y95.987 E12.28602
G1 X133.105 Y96.825 E12.32264
G1 X133.83 Y97.776 E12.36241
G1 X135.903 Y100.395 E12.47351
G1 X136.125 Y100.667 E12.48519
G1 X136.803 Y101.599 E12.52352
G1 X137.264 Y102.316 E12.55187
G1 X137.982 Y103.462 E12.59685
G1 X138.242 Y103.859 E12.61263
G1 X138.588 Y104.401 E12.63402
G1 X139.039 Y105.183 E12.66405
G1 X139.42 Y106.001 E12.69406
G1 X139.727 Y106.851 E12.72412
G1 X139.958 Y107.724 E12.75415
G1 X140.11 Y108.614 E12.78418
G1 X140.187 Y109.638 E12.81834
G1 X140.197 Y110.045 E12.83188
G1 X140.2 Y110.296 E12.84023
G1 X140.199 Y131.289 E13.53846
G1 X140.189 Y132.018 E13.56271
G1 X140.137 Y132.919 E13.59272
G1 X140.005 Y133.813 E13.62278
G1 X139.794 Y134.691 E13.65281
G1 X139.507 Y135.547 E13.68284
G1 X139.145 Y136.375 E13.7129
G1 X138.712 Y137.167 E13.74292
G1 X138.21 Y137.918 E13.77297
G1 X137.643 Y138.621 E13.803
G1 X137.202 Y139.09 E13.82442
G1 X137.09 Y139.202 E13.82968
G1 X136.424 Y139.812 E13.85972
G1 X135.707 Y140.361 E13.88976
G1 X134.943 Y140.843 E13.9198
G1 X134.14 Y141.257 E13.94985
G1 X133.304 Y141.597 E13.97987
G1 X132.441 Y141.863 E14.00991
G1 X131.558 Y142.051 E14.03993
G1 X130.222 Y142.184 E14.08459
G1 X129.855 Y142.194 E14.0968
G1 X129.321 Y142.2 E14.11456
G1 X105.679 Y142.199 E14.9009
G1 X104.977 Y142.189 E14.92425
G1 X104.075 Y142.136 E14.9543
G1 X103.182 Y142.004 E14.98432
G1 X102.304 Y141.793 E15.01436
G1 X101.448 Y141.505 E15.0444
G1 X100.62 Y141.143 E15.07445
G1 X99.828 Y140.709 E15.10449
G1 X99.078 Y140.206 E15.13453
G1 X98.375 Y139.64 E15.16454
G1 X97.667 Y138.952 E15.19738
G1 X97.554 Y138.831 E15.20289
G1 X96.968 Y138.144 E15.23292
G1 X96.444 Y137.408 E15.26297
G1 X95.988 Y136.629 E15.29299
G1 X95.602 Y135.812 E15.32305
G1 X95.29 Y134.965 E15.35307
G1 X95.054 Y134.093 E15.38311
G1 X94.897 Y133.204 E15.41314
G1 X94.813 Y132.162 E15.44791
G1 X94.806 Y131.843 E15.45852
G1 X94.8 Y131.277 E15.47735
G1 X94.804 Y110.44 E16.17039
G1 X94.814 Y109.743 E16.19357
G1 X94.867 Y108.841 E16.22363
G1 X94.999 Y107.948 E16.25365
G1 X95.21 Y107.07 E16.28368
G1 X95.498 Y106.214 E16.31372
G1 X95.861 Y105.386 E16.34379
G1 X96.485 Y104.293 E16.38565
G1 X96.606 Y104.109 E16.39298
G1 X98.086 Y101.777 E16.48484
G1 X98.304 Y101.447 E16.498
G1 X98.449 Y101.237 E16.50648
G1 X98.907 Y100.625 E16.53191
G1 X100.456 Y98.706 E16.61393
G1 X101.757 Y96.999 E16.68532
G1 X101.978 Y96.717 E16.69723
G1 X102.566 Y96.032 E16.72726
G1 F2700 E11.72726
G0 F6000 X108.802 Y114.135
G0 X108.802 Y114.508
G1 F2700 E16.72726
G1 F1200 X108.849 Y114.521 E16.72888
G1 X109.622 Y114.6 E16.75473
G1 X125.377 Y114.6 E17.27874
G1 X125.927 Y114.56 E17.29708
G1 X126.2 Y114.5 E17.30638
G1 X126.2 Y128.2 E17.76204
G1 X108.801 Y128.2 E18.34074
G1 X108.802 Y114.508 E18.79613
G0 F6000 X109.041 Y114.15
G1 F1200 X109.622 Y114.2 E18.81553
G1 X125.377 Y114.2 E19.33954
G1 X125.897 Y114.16 E19.35689
G1 X126.404 Y114.041 E19.37421
G1 X126.6 Y113.962 E19.38124
G1 X126.6 Y128.6 E19.8681
G1 X108.4 Y128.6 E20.47343
G1 X108.402 Y113.965 E20.9602
G1 X108.536 Y114.022 E20.96504
G1 X109.041 Y114.15 E20.98237
G0 F6000 X108.749 Y113.67
G1 F1200 X109.227 Y113.774 E20.99864
G1 X109.622 Y113.8 E21.0118
G1 X125.377 Y113.8 E21.53582
G1 X125.865 Y113.76 E21.5521
G1 X126.34 Y113.641 E21.56839
G1 X126.789 Y113.447 E21.58466
G1 X127 Y113.311 E21.59301
G1 X127 Y129 E22.11483
G1 X108 Y129 E22.74677
G1 X108.003 Y113.315 E23.26845
G1 X108.294 Y113.49 E23.27975
G1 X108.749 Y113.67 E23.29602
G0 F6000 X108.956 Y113.313
G1 F1200 X109.622 Y113.4 E23.31836
G1 X125.377 Y113.4 E23.84237
G1 X125.831 Y113.36 E23.85753
G1 X126.271 Y113.242 E23.87268
G1 X126.683 Y113.048 E23.88783
G1 X127.215 Y112.638 E23.91017
G1 X127.4 Y112.453 E23.91887
G1 X127.4 Y129.4 E24.48253
G1 X107.6 Y129.4 E25.14108
G1 X107.603 Y112.457 E25.70461
G1 X107.784 Y112.638 E25.71312
G1 X108.133 Y112.931 E25.72828
G1 X108.528 Y113.158 E25.74343
G1 X108.956 Y113.313 E25.75857
G0 F6000 X109.157 Y112.95
G1 F1200 X109.622 Y113 E25.77413
G1 X125.377 Y113 E26.29814
G1 X125.794 Y112.96 E26.31207
G1 X126.196 Y112.842 E26.32601
G1 X126.568 Y112.649 E26.33995
G1 X126.933 Y112.356 E26.35551
G1 X127.519 Y111.77 E26.38308
G1 X127.785 Y111.446 E26.39702
G1 X127.8 Y111.419 E26.39805
G1 X127.8 Y129.8 E27.0094
G1 X107.2 Y129.8 E27.69456
G1 X107.203 Y111.426 E28.30568
G1 X107.48 Y111.77 E28.32037
G1 X108.066 Y112.356 E28.34794
G1 X108.39 Y112.622 E28.36188
G1 X108.757 Y112.823 E28.3758
G1 X109.157 Y112.95 E28.38975
G0 F6000 X109.348 Y112.579
G1 F1200 X109.622 Y112.6 E28.39889
G1 X125.377 Y112.6 E28.92291
G1 X125.754 Y112.56 E28.93552
G1 X126.114 Y112.442 E28.94812
G1 X126.441 Y112.252 E28.9607
G1 X126.65 Y112.073 E28.96985
G1 X127.236 Y111.487 E28.99741
G1 X127.474 Y111.192 E29.01002
G1 X127.645 Y110.854 E29.02262
G1 X127.763 Y110.902 E29.02686
G1 X128.2 Y111.085 E29.04261
G1 X128.2 Y130.2 E29.67838
G1 X106.8 Y130.2 E30.39015
G1 X106.803 Y111.088 E31.02582
G1 X107.233 Y110.91 E31.04129
G1 X107.358 Y110.841 E31.04604
G1 X107.394 Y110.95 E31.04986
G1 X107.584 Y111.278 E31.06247
G1 X107.763 Y111.487 E31.07162
G1 X108.349 Y112.073 E31.09918
G1 X108.644 Y112.311 E31.11179
G1 X108.982 Y112.482 E31.12439
G1 X109.348 Y112.579 E31.13698
G0 F6000 X109.199 Y112.135
G1 F1200 X109.622 Y112.2 E31.15122
G1 X125.377 Y112.2 E31.67523
G1 X125.709 Y112.16 E31.68635
G1 X126.021 Y112.043 E31.69744
G1 X126.367 Y111.79 E31.71169
G1 X126.953 Y111.204 E31.73926
G1 X127.159 Y110.941 E31.75037
G1 X127.298 Y110.637 E31.76149
G1 X127.363 Y110.214 E31.77572
G1 X127.363 Y110.1 E31.77951
G1 X127.509 Y110.271 E31.78699
G1 X127.917 Y110.533 E31.80312
G1 X128.6 Y110.819 E31.82774
G1 X128.6 Y130.6 E32.48566
G1 X106.4 Y130.6 E33.22404
G1 X106.403 Y110.821 E33.88189
G1 X107.08 Y110.54 E33.90627
G1 X107.371 Y110.376 E33.91738
G1 X107.636 Y110.098 E33.93015
G1 X107.636 Y110.214 E33.93401
G1 X107.676 Y110.545 E33.9451
G1 X107.793 Y110.858 E33.95622
G1 X108.046 Y111.204 E33.97047
G1 X108.632 Y111.79 E33.99804
G1 X108.895 Y111.996 E34.00915
G1 X109.199 Y112.135 E34.02026
G0 F6000 X109.405 Y111.776
G1 F1200 X109.622 Y111.8 E34.02753
G1 X125.377 Y111.8 E34.55154
G1 X125.656 Y111.76 E34.56091
G1 X125.913 Y111.644 E34.57029
G1 X126.084 Y111.507 E34.57758
G1 X126.67 Y110.921 E34.60514
G1 X126.839 Y110.695 E34.61453
G1 X126.939 Y110.431 E34.62392
G1 X126.963 Y110.214 E34.63118
G1 X126.964 Y108 E34.70482
G1 X127.236 Y108 E34.71387
G1 X127.236 Y108.909 E34.7441
G1 X127.276 Y109.188 E34.75347
G1 X127.404 Y109.463 E34.76356
G1 X127.625 Y109.795 E34.77683
G1 X127.812 Y110.006 E34.7862
G1 X128.071 Y110.164 E34.7963
G1 X129 Y110.552 E34.82978
G1 X129 Y131 E35.50988
G1 X106 Y131 E36.27487
G1 X106.003 Y110.554 E36.9549
G1 X106.926 Y110.171 E36.98814
G1 X107.169 Y110.027 E36.99754
G1 X107.375 Y109.802 E37.00768
G1 X107.596 Y109.471 E37.02092
G1 X107.718 Y109.217 E37.03029
G1 X107.764 Y108.916 E37.04042
G1 X107.764 Y108 E37.07089
G1 X108.037 Y108 E37.07997
G1 X108.036 Y110.214 E37.1536
G1 X108.076 Y110.493 E37.16298
G1 X108.192 Y110.75 E37.17236
G1 X108.329 Y110.921 E37.17964
G1 X108.915 Y111.507 E37.20721
G1 X109.141 Y111.676 E37.21659
G1 X109.405 Y111.776 E37.22598
G0 F6000 X109.377 Y111.348
G1 F1200 X109.622 Y111.4 E37.23431
G1 X125.377 Y111.4 E37.75833
G1 X125.592 Y111.36 E37.7656
G1 X125.801 Y111.224 E37.77389
G1 X126.387 Y110.638 E37.80146
G1 X126.511 Y110.459 E37.8087
G1 X126.563 Y110.214 E37.81703
G1 X126.564 Y107.6 E37.90397
G1 X127.636 Y107.6 E37.93963
G1 X127.636 Y108.909 E37.98316
G1 X127.737 Y109.241 E37.99471
G1 X127.958 Y109.573 E38.00797
G1 X128.226 Y109.795 E38.01955
G1 X129.4 Y110.286 E38.06187
G1 X129.4 Y131.4 E38.76413
G1 X105.6 Y131.4 E39.55572
G1 X105.603 Y110.286 E40.25797
G1 X106.773 Y109.801 E40.3001
G1 X107.042 Y109.58 E40.31168
G1 X107.263 Y109.249 E40.32491
G1 X107.364 Y108.916 E40.33649
G1 X107.364 Y107.6 E40.38026
G1 X108.437 Y107.6 E40.41595
G1 X108.436 Y110.214 E40.50289
G1 X108.476 Y110.428 E40.51013
G1 X108.612 Y110.638 E40.51845
G1 X109.198 Y111.224 E40.54601
G1 X109.377 Y111.348 E40.55326
G0 F6000 X109.622 Y111
G1 F1200 X125.377 Y111 E41.07727
G1 X125.518 Y110.941 E41.08235
G1 X126.104 Y110.355 E41.10992
G1 X126.163 Y110.214 E41.115
G1 X126.164 Y107.2 E41.21525
G1 X128.036 Y107.2 E41.27751
G1 X128.036 Y108.909 E41.33435
G1 X128.07 Y109.02 E41.33821
G1 X128.291 Y109.352 E41.35148
G1 X128.38 Y109.426 E41.35533
G1 X129.8 Y110.02 E41.40652
G1 X129.8 Y131.8 E42.13093
G1 X105.2 Y131.8 E42.94913
G1 X105.203 Y110.02 E43.67353
G1 X106.62 Y109.432 E43.72456
G1 X106.709 Y109.358 E43.72841
G1 X106.93 Y109.027 E43.74165
G1 X106.964 Y108.916 E43.74551
