;FLAVOR:Marlin
;TIME:1615
;Filament used: 0.932364m
;Layer height: 0.2
;Generated with Cura_SteamEngine 3.6.0
M140 S50
M105
M190 S50
M104 S205
M105
M109 S205
M82 ;absolute extrusion mode
; Ender 3 Custom Start G-code
G28 ; Home all axes
G92 E0 ; Reset Extruder
G1 Z2.0 F3000 ; Move Z Axis up little to prevent scratching of Heat Bed
G1 X0.1 Y20 Z0.3 F5000.0 ; Move to start position
G1 X0.1 Y200.0 Z0.3 F1500.0 E15 ; Draw the first line
G1 X0.4 Y200.0 Z0.3 F5000.0 ; Move to side a little
G1 X0.4 Y20 Z0.3 F1500.0 E30 ; Draw the second line
G92 E0 ; Reset Extruder
G1 Z2.0 F3000 ; Move Z Axis up little to prevent scratching of Heat Bed
; End of custom start GCode
G92 E0
G1 F2400 E-5
;LAYER_COUNT:56
;LAYER:0
M107
M204 S5000
M205 X30 Y30
G0 F3600 X91.035 Y102.567 Z0.2
M204 S500
M205 X20 Y20
;TYPE:SKIRT
G1 F2400 E0
G1 F1350 X91.617 Y102.151 E0.02379
G1 X92.242 Y101.803 E0.04759
G1 X92.902 Y101.527 E0.07138
G1 X93.588 Y101.326 E0.09516
G1 X94.293 Y101.204 E0.11895
G1 X95.038 Y101.16 E0.14377
G1 X139.841 Y101.16 E1.63393
G1 X140.555 Y101.2 E1.65771
G1 X141.26 Y101.319 E1.68149
G1 X141.948 Y101.517 E1.70531
G1 X142.609 Y101.79 E1.72909
G1 X143.236 Y102.134 E1.75288
G1 X143.82 Y102.547 E1.77667
G1 X144.182 Y102.857 E1.79252
G1 X144.26 Y102.929 E1.79605
G1 X144.502 Y103.165 E1.80729
G1 X144.655 Y103.322 E1.81459
G1 X145.125 Y103.862 E1.8384
G1 X145.532 Y104.45 E1.86218
G1 X145.87 Y105.08 E1.88596
G1 X146.137 Y105.744 E1.90976
G1 X146.327 Y106.434 E1.93357
G1 X146.439 Y107.14 E1.95734
G1 X146.472 Y107.864 E1.98145
G1 X146.39 Y114.82 E2.21282
G1 X146.341 Y115.534 E2.23662
G1 X146.213 Y116.238 E2.26042
G1 X146.008 Y116.923 E2.28421
G1 X145.727 Y117.581 E2.308
G1 X145.375 Y118.203 E2.33177
G1 X144.956 Y118.783 E2.35557
G1 X144.474 Y119.312 E2.37937
G1 X143.936 Y119.783 E2.40316
G1 X143.169 Y120.3 E2.43392
G1 X139.747 Y122.259 E2.56507
G1 X135.268 Y125.109 E2.74164
G1 X130.915 Y128.239 E2.91997
G1 X128.472 Y130.122 E3.02255
G1 X127.781 Y130.586 E3.05024
G1 X126.176 Y131.519 E3.11199
G1 X125.509 Y131.857 E3.13686
G1 X124.613 Y132.246 E3.16934
G1 X124.027 Y132.466 E3.19016
G1 X122.55 Y132.942 E3.24178
G1 X121.918 Y133.111 E3.26353
G1 X120.874 Y133.333 E3.29903
G1 X120.338 Y133.423 E3.31711
G1 X119.387 Y133.542 E3.34899
G1 X118.813 Y133.588 E3.36814
G1 X117.484 Y133.634 E3.41237
G1 X116.879 Y133.626 E3.43249
G1 X115.799 Y133.561 E3.46848
G1 X115.196 Y133.496 E3.48865
G1 X113.972 Y133.305 E3.52986
G1 X113.195 Y133.134 E3.55632
G1 X111.399 Y132.619 E3.61846
G1 X110.52 Y132.296 E3.64961
G1 X108.912 Y131.567 E3.70833
G1 X108.215 Y131.197 E3.73458
G1 X107.084 Y130.505 E3.77867
G1 X106.516 Y130.114 E3.80161
G1 X104.137 Y128.279 E3.90154
G1 X99.722 Y125.099 E4.08251
G1 X97.608 Y123.708 E4.16668
G1 X91.756 Y120.253 E4.39271
G1 X91.162 Y119.856 E4.41647
G1 X90.615 Y119.394 E4.44028
G1 X90.123 Y118.875 E4.46407
G1 X89.693 Y118.304 E4.48784
G1 X89.329 Y117.688 E4.51164
G1 X89.035 Y117.036 E4.53543
G1 X88.817 Y116.355 E4.55921
G1 X88.675 Y115.654 E4.583
G1 X88.616 Y115.014 E4.60438
G1 X88.427 Y110.573 E4.75222
G1 X88.421 Y110.329 E4.76034
G1 X88.41 Y107.817 E4.84389
G1 X88.447 Y107.103 E4.86767
G1 X88.563 Y106.397 E4.89146
G1 X88.758 Y105.709 E4.91525
G1 X89.027 Y105.046 E4.93904
G1 X89.37 Y104.418 E4.96284
G1 X89.78 Y103.832 E4.98663
G1 X90.275 Y103.273 E5.01147
G1 X90.503 Y103.044 E5.02221
G1 X91.035 Y102.567 E5.04598
M204 S5000
M205 X30 Y30
G0 F3600 X91.302 Y102.865
M204 S500
M205 X20 Y20
G1 F1350 X91.868 Y102.466 E5.06901
G1 X92.476 Y102.134 E5.09205
G1 X93.118 Y101.875 E5.11508
G1 X93.786 Y101.692 E5.13811
G1 X94.471 Y101.587 E5.16116
G1 X95.038 Y101.56 E5.18004
G1 X139.841 Y101.56 E6.6702
G1 X140.532 Y101.6 E6.69322
G1 X141.215 Y101.719 E6.71628
G1 X141.878 Y101.917 E6.73929
G1 X142.515 Y102.189 E6.76233
G1 X143.116 Y102.533 E6.78536
G1 X143.911 Y103.151 E6.81885
G1 X143.989 Y103.223 E6.82238
G1 X144.216 Y103.444 E6.83292
G1 X144.369 Y103.601 E6.84021
G1 X144.823 Y104.124 E6.86325
G1 X145.214 Y104.696 E6.88629
G1 X145.536 Y105.309 E6.90932
G1 X145.785 Y105.955 E6.93235
G1 X145.958 Y106.626 E6.95539
G1 X146.053 Y107.312 E6.97843
G1 X146.072 Y107.86 E6.99667
G1 X145.99 Y114.816 E7.22804
G1 X145.941 Y115.507 E7.25108
G1 X145.814 Y116.187 E7.27409
G1 X145.609 Y116.849 E7.29714
G1 X145.329 Y117.482 E7.32016
G1 X144.978 Y118.079 E7.34319
G1 X144.561 Y118.632 E7.36623
G1 X144.082 Y119.133 E7.38928
G1 X143.55 Y119.575 E7.41229
G1 X142.97 Y119.952 E7.4353
G1 X139.561 Y121.903 E7.56594
G1 X135.042 Y124.779 E7.7441
G1 X130.673 Y127.921 E7.92308
G1 X128.228 Y129.805 E8.02575
G1 X127.58 Y130.24 E8.05171
G1 X125.975 Y131.173 E8.11345
G1 X125.349 Y131.49 E8.13679
G1 X124.453 Y131.879 E8.16928
G1 X123.904 Y132.086 E8.18879
G1 X122.427 Y132.562 E8.24041
G1 X121.835 Y132.72 E8.26079
G1 X120.791 Y132.942 E8.29629
G1 X120.288 Y133.027 E8.31325
G1 X119.337 Y133.146 E8.34513
G1 X118.8 Y133.188 E8.36305
G1 X117.471 Y133.234 E8.40727
G1 X116.903 Y133.227 E8.42617
G1 X115.823 Y133.162 E8.46215
G1 X115.258 Y133.101 E8.48105
G1 X114.034 Y132.91 E8.52226
G1 X113.305 Y132.75 E8.54708
G1 X111.509 Y132.235 E8.60922
G1 X110.686 Y131.932 E8.63839
G1 X109.078 Y131.203 E8.69712
G1 X108.424 Y130.856 E8.72174
G1 X107.293 Y130.164 E8.76584
G1 X106.76 Y129.798 E8.78734
G1 X104.345 Y127.936 E8.88877
G1 X99.96 Y124.777 E9.06852
G1 X97.82 Y123.368 E9.15374
G1 X91.96 Y119.909 E9.38007
G1 X91.385 Y119.523 E9.4031
G1 X90.858 Y119.073 E9.42615
G1 X90.386 Y118.566 E9.44919
G1 X89.977 Y118.008 E9.4722
G1 X89.634 Y117.406 E9.49524
G1 X89.363 Y116.769 E9.51827
G1 X89.167 Y116.105 E9.54129
G1 X89.049 Y115.422 E9.56435
G1 X89.015 Y114.997 E9.57853
G1 X88.826 Y110.556 E9.72637
G1 X88.821 Y110.327 E9.73399
G1 X88.81 Y107.815 E9.81754
G1 X88.847 Y107.124 E9.84056
G1 X88.963 Y106.441 E9.8636
G1 X89.158 Y105.776 E9.88665
G1 X89.427 Y105.138 E9.90968
G1 X89.768 Y104.536 E9.93269
G1 X90.177 Y103.977 E9.95572
G1 X90.558 Y103.556 E9.97461
G1 X90.786 Y103.327 E9.98536
G1 X91.302 Y102.865 E10.00839
M204 S5000
M205 X30 Y30
G0 F3600 X91.569 Y103.164
M204 S500
M205 X20 Y20
G1 F1350 X92.118 Y102.781 E10.03066
G1 X92.709 Y102.467 E10.05292
G1 X93.333 Y102.226 E10.07517
G1 X93.981 Y102.061 E10.09741
G1 X94.644 Y101.974 E10.11965
G1 X95.038 Y101.96 E10.13276
G1 X139.841 Y101.96 E11.62291
G1 X140.509 Y102 E11.64517
G1 X141.167 Y102.119 E11.66741
G1 X141.807 Y102.316 E11.68968
G1 X142.418 Y102.588 E11.71193
G1 X142.992 Y102.931 E11.73417
G1 X143.639 Y103.445 E11.76165
G1 X143.717 Y103.517 E11.76518
G1 X143.93 Y103.724 E11.77506
G1 X144.083 Y103.881 E11.78235
G1 X144.52 Y104.387 E11.80459
G1 X144.894 Y104.942 E11.82685
G1 X145.199 Y105.537 E11.84909
G1 X145.431 Y106.164 E11.87132
G1 X145.587 Y106.815 E11.89359
G1 X145.663 Y107.48 E11.91585
G1 X145.672 Y107.855 E11.92833
G1 X145.59 Y114.811 E12.1597
G1 X145.542 Y115.478 E12.18194
G1 X145.415 Y116.135 E12.2042
G1 X145.21 Y116.772 E12.22645
G1 X144.931 Y117.38 E12.2487
G1 X144.582 Y117.951 E12.27096
G1 X144.167 Y118.475 E12.29319
G1 X143.692 Y118.947 E12.31547
G1 X143.164 Y119.358 E12.33772
G1 X142.772 Y119.605 E12.35313
G1 X139.344 Y121.567 E12.4845
G1 X134.823 Y124.444 E12.66274
G1 X130.425 Y127.607 E12.84291
G1 X127.984 Y129.488 E12.94541
G1 X127.379 Y129.894 E12.96964
G1 X125.774 Y130.827 E13.03139
G1 X125.19 Y131.123 E13.05317
G1 X124.294 Y131.512 E13.08566
G1 X123.782 Y131.705 E13.10386
G1 X122.305 Y132.181 E13.15547
G1 X121.752 Y132.329 E13.17451
G1 X120.708 Y132.551 E13.21001
G1 X120.238 Y132.63 E13.22586
G1 X119.287 Y132.749 E13.25774
G1 X118.786 Y132.789 E13.27445
G1 X117.457 Y132.835 E13.31868
G1 X116.927 Y132.828 E13.33631
G1 X115.847 Y132.763 E13.3723
G1 X115.32 Y132.706 E13.38993
G1 X114.096 Y132.515 E13.43113
G1 X113.415 Y132.365 E13.45432
G1 X111.619 Y131.85 E13.51647
G1 X110.851 Y131.567 E13.54369
G1 X109.243 Y130.838 E13.60241
G1 X108.632 Y130.515 E13.6254
G1 X107.501 Y129.823 E13.6695
G1 X107.005 Y129.481 E13.68954
G1 X104.608 Y127.633 E13.7902
G1 X100.192 Y124.451 E13.97124
G1 X98.016 Y123.019 E14.05788
G1 X92.163 Y119.564 E14.28394
G1 X91.608 Y119.19 E14.3062
G1 X91.102 Y118.753 E14.32843
G1 X90.652 Y118.258 E14.35068
G1 X90.263 Y117.713 E14.37295
G1 X89.943 Y117.126 E14.39519
G1 X89.695 Y116.505 E14.41743
G1 X89.522 Y115.858 E14.43971
G1 X89.415 Y114.98 E14.46913
G1 X89.226 Y110.539 E14.61697
G1 X89.221 Y110.326 E14.62405
G1 X89.21 Y107.814 E14.7076
G1 X89.247 Y107.146 E14.72986
G1 X89.364 Y106.487 E14.75212
G1 X89.558 Y105.846 E14.77439
G1 X89.827 Y105.234 E14.79663
G1 X90.167 Y104.658 E14.81887
G1 X90.574 Y104.127 E14.84113
G1 X90.842 Y103.838 E14.85423
G1 X91.07 Y103.609 E14.86498
G1 X91.569 Y103.164 E14.88722
M204 S5000
M205 X30 Y30
G0 F3600 X91.835 Y103.463
M204 S500
M205 X20 Y20
G1 F1350 X92.367 Y103.099 E14.90866
G1 X92.939 Y102.802 E14.9301
G1 X93.544 Y102.579 E14.95154
G1 X94.172 Y102.433 E14.97299
G1 X95.038 Y102.36 E15.00189
G1 X139.841 Y102.36 E16.49205
G1 X140.484 Y102.4 E16.51347
G1 X141.118 Y102.519 E16.53493
G1 X141.732 Y102.716 E16.55638
G1 X142.317 Y102.987 E16.57782
G1 X142.864 Y103.329 E16.59928
G1 X143.368 Y103.739 E16.62088
G1 X143.446 Y103.811 E16.62442
G1 X143.643 Y104.003 E16.63356
G1 X143.796 Y104.16 E16.64086
G1 X144.217 Y104.648 E16.66229
G1 X144.573 Y105.185 E16.68372
G1 X144.861 Y105.762 E16.70517
G1 X145.075 Y106.371 E16.72664
G1 X145.212 Y107 E16.74805
G1 X145.272 Y107.85 E16.77639
G1 X145.19 Y114.806 E17.00777
G1 X145.142 Y115.449 E17.02921
G1 X145.015 Y116.081 E17.05065
G1 X144.811 Y116.693 E17.07211
G1 X144.533 Y117.274 E17.09353
G1 X144.185 Y117.817 E17.11498
G1 X143.773 Y118.313 E17.13643
G1 X143.303 Y118.753 E17.15784
G1 X142.573 Y119.258 E17.18736
G1 X139.142 Y121.221 E17.31884
G1 X134.596 Y124.115 E17.49808
G1 X130.187 Y127.285 E17.67869
G1 X127.739 Y129.172 E17.78149
G1 X127.178 Y129.549 E17.80397
G1 X125.573 Y130.482 E17.86572
G1 X125.031 Y130.756 E17.88592
G1 X124.135 Y131.145 E17.91841
G1 X123.659 Y131.324 E17.93532
G1 X122.182 Y131.8 E17.98694
G1 X121.669 Y131.937 E18.0046
G1 X120.625 Y132.159 E18.0401
G1 X120.189 Y132.233 E18.0548
G1 X119.238 Y132.352 E18.08668
G1 X118.772 Y132.389 E18.10223
G1 X117.443 Y132.435 E18.14646
G1 X116.951 Y132.429 E18.16282
G1 X115.871 Y132.364 E18.19881
G1 X115.381 Y132.311 E18.2152
G1 X114.157 Y132.12 E18.25641
G1 X113.526 Y131.981 E18.2779
G1 X111.73 Y131.466 E18.34004
G1 X111.016 Y131.203 E18.36535
G1 X109.408 Y130.474 E18.42407
G1 X108.841 Y130.174 E18.4454
G1 X107.71 Y129.482 E18.4895
G1 X107.249 Y129.164 E18.50813
G1 X104.851 Y127.315 E18.60884
G1 X100.417 Y124.121 E18.7906
G1 X98.236 Y122.686 E18.87743
G1 X92.366 Y119.22 E19.10416
G1 X91.833 Y118.858 E19.12559
G1 X91.348 Y118.434 E19.14702
G1 X90.919 Y117.952 E19.16848
G1 X90.553 Y117.421 E19.18993
G1 X90.256 Y116.849 E19.21137
G1 X90.032 Y116.245 E19.23279
G1 X89.884 Y115.617 E19.25425
G1 X89.815 Y114.963 E19.27612
G1 X89.626 Y110.522 E19.42397
G1 X89.621 Y110.324 E19.43055
G1 X89.61 Y107.812 E19.5141
G1 X89.647 Y107.168 E19.53556
G1 X89.764 Y106.534 E19.557
G1 X89.958 Y105.919 E19.57845
G1 X90.226 Y105.333 E19.59988
G1 X90.565 Y104.785 E19.62132
G1 X91.125 Y104.12 E19.65023
G1 X91.353 Y103.891 E19.66098
G1 X91.835 Y103.463 E19.68242
M204 S5000
M205 X30 Y30
G0 F3600 X95.116 Y107.75
M204 S500
M205 X20 Y20
;TYPE:SUPPORT
G1 F1350 X114.884 Y107.75 E20.3399
G1 X115 Y107.866 E20.34536
G1 X115 Y111.85 E20.47787
G1 X103.9 Y111.85 E20.84706
G1 X103.9 Y110.494 E20.89216
G1 X103.256 Y109.85 E20.92245
G1 X95 Y109.85 E21.19705
G1 X95 Y107.866 E21.26303
G1 X95.116 Y107.75 E21.26849
M204 S5000
M205 X30 Y30
G0 F3600 X96.012 Y107.91
M204 S500
M205 X20 Y20
G1 F1350 X96.012 Y109.69 E21.32769
M204 S5000
M205 X30 Y30
G0 F3600 X95.16 Y109.347
M204 S500
M205 X20 Y20
G1 F1350 X114.84 Y109.347 E21.98225
M204 S5000
M205 X30 Y30
G0 F3600 X114.681 Y107.91
M204 S500
M205 X20 Y20
G1 F1350 X114.681 Y111.69 E22.10798
M204 S5000
M205 X30 Y30
G0 F3600 X112.014 Y111.69
M204 S500
M205 X20 Y20
G1 F1350 X112.014 Y107.91 E22.2337
M204 S5000
M205 X30 Y30
G0 F3600 X109.347 Y107.91
M204 S500
M205 X20 Y20
G1 F1350 X109.347 Y111.69 E22.35942
M204 S5000
M205 X30 Y30
G0 F3600 X106.68 Y111.69
M204 S500
M205 X20 Y20
G1 F1350 X106.68 Y107.91 E22.48515
M204 S5000
M205 X30 Y30
G0 F3600 X104.013 Y107.91
M204 S500
M205 X20 Y20
G1 F1350 X104.013 Y110.38 E22.5673
M204 S5000
M205 X30 Y30
G1 F2400 E17.5673
G0 F3600 X101.346 Y109.69
M204 S500
M205 X20 Y20
G1 F2400 E22.5673
G1 F1350 X101.346 Y107.91 E22.6265
M204 S5000
M205 X30 Y30
G0 F3600 X98.679 Y107.91
M204 S500
M205 X20 Y20
G1 F1350 X98.679 Y109.69 E22.6857
M204 S5000
M205 X30 Y30
G0 F3600 X120 Y107.866
M204 S500
M205 X20 Y20
G1 F1350 X120.116 Y107.75 E22.69116
G1 X139.765 Y107.75 E23.34469
G1 X139.881 Y107.866 E23.35014
G1 X139.881 Y109.849 E23.4161
G1 X131.625 Y109.849 E23.6907
G1 X130.981 Y110.493 E23.72099
G1 X130.981 Y111.85 E23.76612
G1 X120 Y111.85 E24.13135
G1 X120 Y107.866 E24.26386
M204 S5000
M205 X30 Y30
G0 F3600 X120.16 Y109.347
M204 S500
M205 X20 Y20
G1 F1350 X139.721 Y109.347 E24.91446
M204 S5000
M205 X30 Y30
G0 F3600 X138.684 Y109.689
M204 S500
M205 X20 Y20
G1 F1350 X138.684 Y107.91 E24.97363
M204 S5000
M205 X30 Y30
G0 F3600 X136.017 Y107.91
M204 S500
M205 X20 Y20
G1 F1350 X136.017 Y109.689 E25.0328
M204 S5000
M205 X30 Y30
G0 F3600 X133.35 Y109.689
M204 S500
M205 X20 Y20
G1 F1350 X133.35 Y107.91 E25.09197
M204 S5000
M205 X30 Y30
G0 F3600 X130.683 Y107.91
M204 S500
M205 X20 Y20
G1 F1350 X130.683 Y111.69 E25.21769
M204 S5000
M205 X30 Y30
G0 F3600 X128.016 Y111.69
M204 S500
M205 X20 Y20
G1 F1350 X128.016 Y107.91 E25.34342
M204 S5000
M205 X30 Y30
G0 F3600 X125.349 Y107.91
M204 S500
M205 X20 Y20
G1 F1350 X125.349 Y111.69 E25.46914
M204 S5000
M205 X30 Y30
G0 F3600 X122.682 Y111.69
M204 S500
M205 X20 Y20
G1 F1350 X122.682 Y107.91 E25.59486
M204 S5000
M205 X30 Y30
G1 F2400 E20.59486
;MESH:WheelCasing_test_join.stl
G0 F3600 X115.665 Y113.364
G0 X114.386 Y113.364
G0 X102.33 Y113.42
G0 X102.4 Y113.35
M204 S500
M205 X20 Y20
;TYPE:WALL-INNER
G1 F2400 E25.59486
G1 F1350 X114.4 Y113.35 E25.99398
G1 X114.4 Y114.15 E26.02059
G1 X95.6 Y114.15 E26.64588
G1 X95.6 Y111.35 E26.73901
G1 X102.4 Y111.35 E26.96518
G1 X102.4 Y113.35 E27.0317
M204 S5000
M205 X30 Y30
G0 F3600 X102.8 Y112.95
M204 S500
M205 X20 Y20
;TYPE:WALL-OUTER
G1 F1350 X114.8 Y112.95 E27.43082
G1 X114.8 Y114.55 E27.48404
G1 X95.2 Y114.55 E28.13594
G1 X95.2 Y110.95 E28.25567
G1 X102.8 Y110.95 E28.50845
G1 X102.8 Y112.95 E28.57497
M204 S5000
M205 X30 Y30
G0 F3600 X103 Y112.95
G0 X103 Y113.45
G0 X102.01 Y113.74
M204 S500
M205 X20 Y20
;TYPE:SKIN
G1 F1350 X114.01 Y113.74 E28.97409
G1 X114.01 Y113.76 E28.97476
G1 X95.99 Y113.76 E29.57411
G1 X95.99 Y111.74 E29.64129
G1 X102.01 Y111.74 E29.84152
G1 X102.01 Y113.74 E29.90804
M204 S5000
M205 X30 Y30
G0 F3600 X101.83 Y112.012
M204 S500
M205 X20 Y20
G1 F1350 X101.737 Y111.919 E29.91241
M204 S5000
M205 X30 Y30
G0 F3600 X101.171 Y111.919
M204 S500
M205 X20 Y20
G1 F1350 X101.83 Y112.578 E29.94341
M204 S5000
M205 X30 Y30
G0 F3600 X101.83 Y113.144
M204 S500
M205 X20 Y20
G1 F1350 X100.605 Y111.919 E30.00103
M204 S5000
M205 X30 Y30
G0 F3600 X100.04 Y111.919
M204 S500
M205 X20 Y20
G1 F1350 X101.699 Y113.579 E30.07909
M204 S5000
M205 X30 Y30
G0 F3600 X101.133 Y113.579
M204 S500
M205 X20 Y20
G1 F1350 X99.474 Y111.919 E30.15715
M204 S5000
M205 X30 Y30
G0 F3600 X98.908 Y111.919
M204 S500
M205 X20 Y20
G1 F1350 X100.568 Y113.579 E30.23523
M204 S5000
M205 X30 Y30
G0 F3600 X100.002 Y113.579
M204 S500
M205 X20 Y20
G1 F1350 X98.342 Y111.919 E30.31331
M204 S5000
M205 X30 Y30
G0 F3600 X97.777 Y111.919
M204 S500
M205 X20 Y20
G1 F1350 X99.436 Y113.579 E30.39137
M204 S5000
M205 X30 Y30
G0 F3600 X98.871 Y113.579
M204 S500
M205 X20 Y20
G1 F1350 X97.211 Y111.919 E30.46945
M204 S5000
M205 X30 Y30
G0 F3600 X96.645 Y111.919
M204 S500
M205 X20 Y20
G1 F1350 X98.305 Y113.579 E30.54753
M204 S5000
M205 X30 Y30
G0 F3600 X97.739 Y113.579
M204 S500
M205 X20 Y20
G1 F1350 X96.17 Y112.009 E30.62135
M204 S5000
M205 X30 Y30
G0 F3600 X96.17 Y112.574
M204 S500
M205 X20 Y20
G1 F1350 X97.174 Y113.579 E30.6686
M204 S5000
M205 X30 Y30
G0 F3600 X96.608 Y113.579
M204 S500
M205 X20 Y20
G1 F1350 X96.17 Y113.14 E30.68923
M204 S5000
M205 X30 Y30
