;FLAVOR:Marlin
;TIME:7145
;Filament used: 5.38613m
;Layer height: 0.2
;MINX:81
;MINY:39
;MINZ:0.2
;MAXX:139
;MAXY:181
;MAXZ:9
;Generated with Cura_SteamEngine 4.4.1
M140 S60
M105
M190 S60
M104 S200
M105
M109 S200
M82 ;absolute extrusion mode
M201 X500.00 Y500.00 Z100.00 E5000.00 ;Setup machine max acceleration
M203 X500.00 Y500.00 Z10.00 E50.00 ;Setup machine max feedrate
M204 P500.00 R1000.00 T500.00 ;Setup Print/Retract/Travel acceleration
M205 X8.00 Y8.00 Z0.40 E5.00 ;Setup Jerk
M220 S100 ;Reset Feedrate
M221 S100 ;Reset Flowrate

G28 ;Home

G92 E0 ;Reset Extruder
G1 Z2.0 F3000 ;Move Z Axis up
G1 X10.1 Y20 Z0.28 F5000.0 ;Move to start position
G1 X10.1 Y200.0 Z0.28 F1500.0 E15 ;Draw the first line
G1 X10.4 Y200.0 Z0.28 F5000.0 ;Move to side a little
G1 X10.4 Y20 Z0.28 F1500.0 E30 ;Draw the second line
G92 E0 ;Reset Extruder
G1 Z2.0 F3000 ;Move Z Axis up

G92 E0
G92 E0
G1 F1500 E-6.5
;LAYER_COUNT:45
;LAYER:0
M107
G0 F6000 X82.492 Y44.493 Z0.2
;TYPE:SKIRT
G1 F1500 E0
G1 F1200 X82.996 Y43.703 E0.03117
G1 X83.566 Y42.958 E0.06237
G1 X84.198 Y42.264 E0.09359
G1 X84.886 Y41.627 E0.12477
G1 X85.626 Y41.051 E0.15596
G1 X86.412 Y40.539 E0.18716
G1 X87.239 Y40.097 E0.21835
G1 X88.101 Y39.727 E0.24955
G1 X88.991 Y39.431 E0.28074
G1 X89.903 Y39.213 E0.31193
G1 X90.83 Y39.072 E0.34312
G1 X91.701 Y39.013 E0.37216
G1 X92.022 Y39.004 E0.38284
G1 X92.33 Y39 E0.39308
G1 X127.293 Y39 E1.55595
G1 X127.451 Y39.001 E1.56121
G1 X128.149 Y39.011 E1.58443
G1 X129.085 Y39.065 E1.61561
G1 X130.013 Y39.197 E1.64679
G1 X130.927 Y39.409 E1.67799
G1 X131.819 Y39.698 E1.70918
G1 X132.684 Y40.061 E1.74038
G1 X133.514 Y40.497 E1.77156
G1 X134.305 Y41.002 E1.80278
G1 X135.049 Y41.573 E1.83397
G1 X135.742 Y42.205 E1.86517
G1 X136.379 Y42.893 E1.89635
G1 X136.954 Y43.634 E1.92755
G1 X137.465 Y44.42 E1.95873
G1 X137.907 Y45.248 E1.98995
G1 X138.276 Y46.11 E2.02113
G1 X138.571 Y47 E2.05232
G1 X138.789 Y47.912 E2.08351
G1 X138.929 Y48.84 E2.11472
G1 X138.987 Y49.701 E2.14342
G1 X138.996 Y50.021 E2.15407
G1 X139 Y50.33 E2.16435
G1 X139 Y169.264 E6.12011
G1 X138.999 Y169.4 E6.12463
G1 X138.99 Y170.127 E6.14881
G1 X138.939 Y171.064 E6.18002
G1 X138.807 Y171.992 E6.2112
G1 X138.598 Y172.906 E6.24239
G1 X138.311 Y173.799 E6.27358
G1 X137.949 Y174.665 E6.3048
G1 X137.515 Y175.496 E6.33598
G1 X137.011 Y176.287 E6.36718
G1 X136.442 Y177.032 E6.39836
G1 X135.811 Y177.727 E6.42958
G1 X135.124 Y178.365 E6.46076
G1 X134.385 Y178.942 E6.49195
G1 X133.599 Y179.454 E6.52315
G1 X132.773 Y179.897 E6.55432
G1 X131.911 Y180.269 E6.58555
G1 X131.022 Y180.565 E6.61671
G1 X130.11 Y180.785 E6.64791
G1 X129.183 Y180.926 E6.6791
G1 X128.299 Y180.987 E6.70857
G1 X127.978 Y180.996 E6.71925
G1 X127.67 Y181 E6.7295
G1 X92.707 Y181 E7.89237
G1 X92.565 Y180.999 E7.8971
G1 X91.867 Y180.99 E7.92031
G1 X90.931 Y180.938 E7.95149
G1 X90.002 Y180.806 E7.9827
G1 X89.088 Y180.596 E8.01389
G1 X88.195 Y180.309 E8.04509
G1 X87.33 Y179.946 E8.07629
G1 X86.499 Y179.512 E8.10747
G1 X85.708 Y179.008 E8.13867
G1 X84.963 Y178.438 E8.16987
G1 X84.269 Y177.807 E8.20107
G1 X83.632 Y177.12 E8.23223
G1 X83.055 Y176.38 E8.26344
G1 X82.543 Y175.594 E8.29464
G1 X82.1 Y174.767 E8.32584
G1 X81.729 Y173.906 E8.35702
G1 X81.433 Y173.016 E8.38822
G1 X81.214 Y172.104 E8.41941
G1 X81.073 Y171.177 E8.4506
G1 X81.013 Y170.288 E8.48024
G1 X81.004 Y169.955 E8.49132
G1 X81 Y169.658 E8.50119
G1 X81 Y50.674 E12.45862
G1 X81.001 Y50.525 E12.46357
G1 X81.01 Y49.86 E12.48569
G1 X81.063 Y48.924 E12.51688
G1 X81.195 Y47.995 E12.54808
G1 X81.406 Y47.081 E12.57928
G1 X81.694 Y46.189 E12.61046
G1 X82.057 Y45.324 E12.64166
G1 X82.492 Y44.493 E12.67286
G0 F6000 X82.889 Y44.606
G1 F1200 X83.392 Y43.835 E12.70348
G1 X83.961 Y43.111 E12.7341
G1 X84.589 Y42.439 E12.76469
G1 X85.274 Y41.823 E12.79534
G1 X86.01 Y41.27 E12.82595
G1 X86.791 Y40.782 E12.85658
G1 X87.611 Y40.364 E12.8872
G1 X88.465 Y40.019 E12.91783
G1 X89.345 Y39.749 E12.94845
G1 X90.245 Y39.557 E12.97905
G1 X91.159 Y39.443 E13.00969
G1 X91.712 Y39.413 E13.02811
G1 X92.033 Y39.404 E13.03879
G1 X92.33 Y39.4 E13.04867
G1 X127.293 Y39.4 E14.21154
G1 X127.445 Y39.401 E14.2166
G1 X128.143 Y39.411 E14.23982
G1 X129.062 Y39.464 E14.27043
G1 X129.973 Y39.597 E14.30106
G1 X130.869 Y39.808 E14.33167
G1 X131.743 Y40.096 E14.36228
G1 X132.59 Y40.459 E14.39293
G1 X133.401 Y40.894 E14.42354
G1 X134.171 Y41.398 E14.45415
G1 X134.895 Y41.967 E14.48477
G1 X135.567 Y42.597 E14.51541
G1 X136.182 Y43.282 E14.54603
G1 X136.735 Y44.018 E14.57665
G1 X137.222 Y44.799 E14.60726
G1 X137.639 Y45.62 E14.63789
G1 X137.984 Y46.474 E14.66852
G1 X138.253 Y47.354 E14.69913
G1 X138.445 Y48.255 E14.72977
G1 X138.558 Y49.168 E14.76037
G1 X138.587 Y49.712 E14.77849
G1 X138.596 Y50.032 E14.78913
G1 X138.6 Y50.33 E14.79904
G1 X138.6 Y169.264 E18.75481
G1 X138.599 Y169.395 E18.75916
G1 X138.59 Y170.122 E18.78335
G1 X138.539 Y171.041 E18.81396
G1 X138.408 Y171.953 E18.8446
G1 X138.198 Y172.849 E18.87521
G1 X137.912 Y173.724 E18.90583
G1 X137.551 Y174.571 E18.93645
G1 X137.117 Y175.383 E18.96708
G1 X136.615 Y176.155 E18.9977
G1 X136.047 Y176.88 E19.02834
G1 X135.419 Y177.553 E19.05895
G1 X134.735 Y178.169 E19.08957
G1 X134 Y178.723 E19.12018
G1 X133.22 Y179.212 E19.1508
G1 X132.4 Y179.631 E19.18143
G1 X131.547 Y179.977 E19.21204
G1 X130.667 Y180.248 E19.24267
G1 X129.767 Y180.441 E19.27328
G1 X128.853 Y180.556 E19.30392
G1 X128.288 Y180.587 E19.32274
G1 X127.967 Y180.596 E19.33342
G1 X127.67 Y180.6 E19.3433
G1 X92.707 Y180.6 E20.50618
G1 X92.57 Y180.599 E20.51073
G1 X91.872 Y180.59 E20.53395
G1 X90.953 Y180.538 E20.56457
G1 X90.042 Y180.407 E20.59518
G1 X89.146 Y180.197 E20.62579
G1 X88.271 Y179.91 E20.65641
G1 X87.424 Y179.548 E20.68705
G1 X86.612 Y179.114 E20.71767
G1 X85.841 Y178.612 E20.74827
G1 X85.116 Y178.044 E20.77891
G1 X84.443 Y177.415 E20.80955
G1 X83.828 Y176.731 E20.84014
G1 X83.274 Y175.996 E20.87075
G1 X82.786 Y175.215 E20.90138
G1 X82.367 Y174.395 E20.93201
G1 X82.021 Y173.542 E20.96263
G1 X81.751 Y172.662 E20.99324
G1 X81.558 Y171.761 E21.02389
G1 X81.444 Y170.848 E21.05449
G1 X81.413 Y170.277 E21.07351
G1 X81.404 Y169.944 E21.08459
G1 X81.4 Y169.658 E21.0941
G1 X81.4 Y50.674 E25.05153
G1 X81.401 Y50.531 E25.05628
G1 X81.41 Y49.866 E25.0784
G1 X81.462 Y48.946 E25.10905
G1 X81.594 Y48.035 E25.13967
G1 X81.805 Y47.139 E25.17028
G1 X82.092 Y46.264 E25.20091
G1 X82.455 Y45.418 E25.23153
G1 X82.889 Y44.606 E25.26215
G0 F6000 X83.286 Y44.722
G1 F1200 X83.788 Y43.971 E25.2922
G1 X84.355 Y43.267 E25.32226
G1 X84.981 Y42.617 E25.35228
G1 X85.662 Y42.024 E25.38231
G1 X86.394 Y41.494 E25.41237
G1 X87.169 Y41.031 E25.4424
G1 X87.982 Y40.638 E25.47243
G1 X88.827 Y40.318 E25.50248
G1 X89.696 Y40.075 E25.5325
G1 X90.584 Y39.909 E25.56254
G1 X91.723 Y39.813 E25.60056
G1 X92.044 Y39.804 E25.61124
G1 X92.33 Y39.8 E25.62075
G1 X127.293 Y39.8 E26.78363
G1 X127.439 Y39.801 E26.78848
G1 X128.137 Y39.811 E26.8117
G1 X129.039 Y39.864 E26.84175
G1 X129.932 Y39.996 E26.87178
G1 X130.81 Y40.207 E26.90181
G1 X131.666 Y40.495 E26.93185
G1 X132.493 Y40.857 E26.96188
G1 X133.285 Y41.292 E26.99193
G1 X134.036 Y41.794 E27.02198
G1 X134.739 Y42.361 E27.05201
G1 X135.389 Y42.988 E27.08205
G1 X135.981 Y43.67 E27.11209
G1 X136.511 Y44.401 E27.14212
G1 X136.973 Y45.177 E27.17216
G1 X137.366 Y45.99 E27.20219
G1 X137.684 Y46.835 E27.23222
G1 X137.927 Y47.705 E27.26227
G1 X138.092 Y48.593 E27.29231
G1 X138.187 Y49.723 E27.33002
G1 X138.196 Y50.043 E27.34067
G1 X138.2 Y50.33 E27.35022
G1 X138.2 Y169.264 E31.30598
G1 X138.199 Y169.39 E31.31017
G1 X138.19 Y170.117 E31.33435
G1 X138.139 Y171.019 E31.3644
G1 X138.008 Y171.913 E31.39445
G1 X137.799 Y172.791 E31.42447
G1 X137.513 Y173.648 E31.45452
G1 X137.152 Y174.476 E31.48456
G1 X136.72 Y175.268 E31.51457
G1 X136.219 Y176.02 E31.54462
G1 X135.653 Y176.724 E31.57467
G1 X135.028 Y177.375 E31.60468
G1 X134.347 Y177.969 E31.63474
G1 X133.616 Y178.5 E31.66479
G1 X132.842 Y178.964 E31.6948
G1 X132.029 Y179.358 E31.72485
G1 X131.185 Y179.678 E31.75487
G1 X130.315 Y179.923 E31.78494
G1 X129.428 Y180.089 E31.81495
G1 X128.277 Y180.187 E31.85337
G1 X127.956 Y180.196 E31.86405
G1 X127.67 Y180.2 E31.87356
G1 X92.707 Y180.2 E33.03644
G1 X92.575 Y180.199 E33.04083
G1 X91.877 Y180.19 E33.06405
G1 X90.976 Y180.139 E33.09406
G1 X90.082 Y180.007 E33.12412
G1 X89.204 Y179.798 E33.15414
G1 X88.347 Y179.511 E33.1842
G1 X87.52 Y179.15 E33.21421
G1 X86.727 Y178.717 E33.24426
G1 X85.976 Y178.216 E33.27429
G1 X85.272 Y177.65 E33.30433
G1 X84.621 Y177.024 E33.33437
G1 X84.028 Y176.343 E33.3644
G1 X83.498 Y175.612 E33.39444
G1 X83.034 Y174.837 E33.42448
G1 X82.64 Y174.024 E33.45453
G1 X82.32 Y173.18 E33.48455
G1 X82.076 Y172.31 E33.5146
G1 X81.91 Y171.422 E33.54465
G1 X81.813 Y170.267 E33.5832
G1 X81.804 Y169.934 E33.59428
G1 X81.8 Y169.658 E33.60346
G1 X81.8 Y50.674 E37.56088
G1 X81.801 Y50.536 E37.56547
G1 X81.81 Y49.871 E37.58759
G1 X81.862 Y48.969 E37.61764
G1 X81.994 Y48.076 E37.64767
G1 X82.204 Y47.198 E37.67769
G1 X82.491 Y46.341 E37.70775
G1 X82.853 Y45.514 E37.73778
G1 X83.286 Y44.722 E37.7678
G1 F1500 E31.2678
;MESH:HeadIMUControllerCase_Join.stl
G0 F6000 X109.208 Y55.26
G0 X107.424 Y55.781
G0 X110.334 Y57.481
;TYPE:WALL-INNER
G1 F1500 E37.7678
G1 F1200 X110.652 Y57.415 E37.7786
G1 X110.955 Y57.313 E37.78924
G1 X111.279 Y57.151 E37.80128
G1 X111.504 Y56.999 E37.81032
G1 X111.757 Y56.782 E37.8214
G1 X111.989 Y56.521 E37.83302
G1 X112.172 Y56.242 E37.84411
G1 X112.281 Y56.026 E37.85216
G1 X112.401 Y55.71 E37.8634
G1 X112.478 Y55.343 E37.87588
G1 X112.479 Y55.315 E37.87681
G1 X112.5 Y54.983 E37.88787
G1 X112.503 Y54.951 E37.88894
G1 X112.476 Y54.639 E37.89936
G1 X112.435 Y54.421 E37.90674
G1 X112.324 Y54.071 E37.91895
G1 X112.229 Y53.863 E37.92655
G1 X112.066 Y53.59 E37.93713
G1 X111.898 Y53.368 E37.94639
G1 X111.599 Y53.073 E37.96036
G1 X111.267 Y52.842 E37.97381
G1 X110.966 Y52.693 E37.98498
G1 X110.76 Y52.617 E37.99228
G1 X110.487 Y52.55 E38.00163
G1 X110.462 Y52.543 E38.0025
G1 X110.071 Y52.498 E38.01559
G1 X109.667 Y52.518 E38.02904
G1 X109.35 Y52.584 E38.03981
G1 X109.048 Y52.684 E38.05039
G1 X108.735 Y52.84 E38.06202
G1 X108.413 Y53.064 E38.07507
G1 X108.178 Y53.285 E38.0858
G1 X107.975 Y53.529 E38.09636
G1 X107.788 Y53.827 E38.10806
G1 X107.621 Y54.22 E38.12226
G1 X107.527 Y54.613 E38.1357
G1 X107.497 Y54.946 E38.14682
G1 X107.521 Y55.349 E38.16025
G1 X107.607 Y55.727 E38.17314
G1 X107.693 Y55.97 E38.18172
G1 X107.886 Y56.339 E38.19557
G1 X108.129 Y56.662 E38.20901
G1 X108.383 Y56.91 E38.22082
G1 X108.672 Y57.121 E38.23272
G1 X108.693 Y57.132 E38.23351
G1 X108.878 Y57.236 E38.24057
G1 X109.089 Y57.331 E38.24826
G1 X109.379 Y57.424 E38.25839
G1 X109.682 Y57.482 E38.26865
G1 X109.93 Y57.501 E38.27692
G1 X110.334 Y57.481 E38.29038
G0 F6000 X110.283 Y57.083
G1 F1200 X110.547 Y57.028 E38.29935
G1 X110.801 Y56.943 E38.30826
G1 X111.076 Y56.805 E38.31849
G1 X111.261 Y56.68 E38.32592
G1 X111.476 Y56.496 E38.33533
G1 X111.67 Y56.277 E38.34506
G1 X111.825 Y56.041 E38.35445
G1 X111.915 Y55.864 E38.36105
G1 X112.016 Y55.597 E38.37055
G1 X112.081 Y55.289 E38.38102
G1 X112.102 Y54.956 E38.39212
G1 X112.079 Y54.694 E38.40086
G1 X112.046 Y54.519 E38.40679
G1 X111.95 Y54.215 E38.41739
G1 X111.874 Y54.049 E38.42346
G1 X111.734 Y53.814 E38.43256
G1 X111.597 Y53.633 E38.44011
G1 X111.342 Y53.382 E38.45201
G1 X111.063 Y53.187 E38.46333
G1 X110.808 Y53.061 E38.47279
G1 X110.642 Y53 E38.47867
G1 X110.39 Y52.937 E38.48731
G1 X110.058 Y52.899 E38.49843
G1 X109.718 Y52.916 E38.50975
G1 X109.454 Y52.971 E38.51872
G1 X109.201 Y53.055 E38.52759
G1 X108.94 Y53.185 E38.53729
G1 X108.666 Y53.376 E38.54839
G1 X108.47 Y53.56 E38.55734
G1 X108.3 Y53.764 E38.56617
G1 X108.144 Y54.013 E38.57594
G1 X108.002 Y54.346 E38.58798
G1 X107.923 Y54.678 E38.59933
G1 X107.898 Y54.952 E38.60848
G1 X107.918 Y55.292 E38.61981
G1 X107.992 Y55.615 E38.63083
G1 X108.061 Y55.81 E38.63771
G1 X108.225 Y56.125 E38.64952
G1 X108.43 Y56.397 E38.66085
G1 X108.642 Y56.604 E38.67071
G1 X108.888 Y56.784 E38.68085
G1 X109.057 Y56.878 E38.68728
G1 X109.233 Y56.957 E38.69369
G1 X109.478 Y57.036 E38.70226
G1 X109.735 Y57.085 E38.71096
G1 X109.935 Y57.1 E38.71763
G1 X110.283 Y57.083 E38.72922
G0 F6000 X110.232 Y56.685
;TYPE:WALL-OUTER
G1 F1200 X110.443 Y56.641 E38.73639
G1 X110.647 Y56.573 E38.74354
G1 X110.873 Y56.459 E38.75196
G1 X111.018 Y56.361 E38.75778
G1 X111.195 Y56.21 E38.76552
G1 X111.351 Y56.033 E38.77336
G1 X111.479 Y55.839 E38.78109
G1 X111.549 Y55.702 E38.78621
G1 X111.631 Y55.484 E38.79396
G1 X111.684 Y55.235 E38.80242
G1 X111.701 Y54.961 E38.81156
G1 X111.682 Y54.749 E38.81863
G1 X111.657 Y54.616 E38.82314
G1 X111.576 Y54.359 E38.8321
G1 X111.519 Y54.235 E38.83664
G1 X111.402 Y54.038 E38.84426
G1 X111.296 Y53.898 E38.8501
G1 X111.085 Y53.691 E38.85993
G1 X110.858 Y53.532 E38.86915
G1 X110.65 Y53.429 E38.87687
G1 X110.524 Y53.383 E38.88133
G1 X110.318 Y53.331 E38.8884
G1 X110.045 Y53.3 E38.89753
G1 X109.769 Y53.314 E38.90673
G1 X109.558 Y53.358 E38.91389
G1 X109.354 Y53.426 E38.92105
G1 X109.144 Y53.53 E38.92884
G1 X108.919 Y53.687 E38.93797
G1 X108.762 Y53.835 E38.94514
G1 X108.625 Y53.999 E38.95225
G1 X108.5 Y54.199 E38.96009
G1 X108.383 Y54.472 E38.96997
G1 X108.319 Y54.743 E38.97923
G1 X108.299 Y54.959 E38.98645
G1 X108.315 Y55.235 E38.99564
G1 X108.377 Y55.503 E39.00479
G1 X108.429 Y55.651 E39.01001
G1 X108.564 Y55.911 E39.01975
G1 X108.731 Y56.132 E39.02897
G1 X108.901 Y56.298 E39.03687
G1 X109.104 Y56.446 E39.04523
G1 X109.237 Y56.52 E39.05029
G1 X109.377 Y56.583 E39.05539
G1 X109.578 Y56.648 E39.06242
G1 X109.787 Y56.688 E39.0695
G1 X109.94 Y56.699 E39.0746
G1 X110.232 Y56.685 E39.08432
G0 F6000 X110.287 Y57.121
G1 F1500 E32.58432
G0 F6000 X109.927 Y57.692
G0 X109.952 Y55.833
G0 X109.927 Y164.167
G0 X109.866 Y162.311
G0 X108.429 Y163.86
G0 X108.108 Y164.566
G0 X108.068 Y165.168
G0 X108.264 Y165.866
G0 X108.565 Y166.281
G0 X109.841 Y167.498
;TYPE:WALL-INNER
G1 F1500 E39.08432
G1 F1200 X110.157 Y167.497 E39.09483
G1 X110.445 Y167.462 E39.10448
G1 X110.757 Y167.384 E39.11518
G1 X110.965 Y167.308 E39.12255
G1 X111.265 Y167.159 E39.13369
G1 X111.588 Y166.935 E39.14676
G1 X111.823 Y166.714 E39.15749
G1 X112.027 Y166.469 E39.16809
G1 X112.213 Y166.169 E39.17983
G1 X112.382 Y165.776 E39.19406
G1 X112.474 Y165.377 E39.20768
G1 X112.502 Y164.989 E39.22062
G1 X112.482 Y164.678 E39.23098
G1 X112.404 Y164.306 E39.24363
G1 X112.326 Y164.079 E39.25161
G1 X112.229 Y163.864 E39.25945
G1 X112.03 Y163.534 E39.27227
G1 X111.809 Y163.273 E39.28365
G1 X111.642 Y163.114 E39.29132
G1 X111.439 Y162.953 E39.29993
G1 X111.163 Y162.786 E39.31066
G1 X110.935 Y162.678 E39.31905
G1 X110.569 Y162.564 E39.3318
G1 X110.247 Y162.511 E39.34266
G1 X109.873 Y162.502 E39.3551
G1 X109.645 Y162.523 E39.36272
G1 X109.35 Y162.584 E39.37274
G1 X109.048 Y162.684 E39.38332
G1 X108.751 Y162.833 E39.39437
G1 X108.522 Y162.98 E39.40342
G1 X108.274 Y163.191 E39.41425
G1 X108.102 Y163.371 E39.42253
G1 X107.974 Y163.533 E39.4294
G1 X107.835 Y163.748 E39.43791
G1 X107.683 Y164.051 E39.44919
G1 X107.56 Y164.44 E39.46276
G1 X107.503 Y164.842 E39.47626
G1 X107.507 Y165.213 E39.4886
G1 X107.554 Y165.525 E39.49909
G1 X107.632 Y165.808 E39.50886
G1 X107.759 Y166.111 E39.51979
G1 X107.874 Y166.317 E39.52763
G1 X108.019 Y166.529 E39.53618
G1 X108.241 Y166.778 E39.54727
G1 X108.479 Y166.987 E39.55781
G1 X108.734 Y167.157 E39.568
G1 X108.941 Y167.267 E39.5758
G1 X109.23 Y167.383 E39.58615
G1 X109.533 Y167.458 E39.59653
G1 X109.841 Y167.498 E39.60687
G0 F6000 X109.866 Y167.098
G1 F1200 X110.132 Y167.097 E39.61571
G1 X110.372 Y167.068 E39.62375
G1 X110.64 Y167.001 E39.63294
G1 X110.807 Y166.94 E39.63885
G1 X111.061 Y166.814 E39.64828
G1 X111.335 Y166.623 E39.65939
G1 X111.531 Y166.439 E39.66834
G1 X111.702 Y166.234 E39.67721
G1 X111.857 Y165.984 E39.687
G1 X112 Y165.651 E39.69905
G1 X112.077 Y165.317 E39.71045
G1 X112.101 Y164.987 E39.72146
G1 X112.085 Y164.732 E39.72995
G1 X112.018 Y164.413 E39.7408
G1 X111.954 Y164.227 E39.74734
G1 X111.874 Y164.05 E39.7538
G1 X111.704 Y163.768 E39.76475
G1 X111.518 Y163.548 E39.77433
G1 X111.379 Y163.416 E39.78071
G1 X111.21 Y163.282 E39.78788
