;FLAVOR:Marlin
;TIME:581
;Filament used: 0.203121m
;Layer height: 0.2
;Generated with Cura_SteamEngine 3.6.0
M140 S50
M105
M190 S50
M104 S205
M105
M109 S205
M82 ;absolute extrusion mode
; Ender 3 Custom Start G-code
G28 ; Home all axes
G92 E0 ; Reset Extruder
G1 Z2.0 F3000 ; Move Z Axis up little to prevent scratching of Heat Bed
G1 X0.1 Y20 Z0.3 F5000.0 ; Move to start position
G1 X0.1 Y200.0 Z0.3 F1500.0 E15 ; Draw the first line
G1 X0.4 Y200.0 Z0.3 F5000.0 ; Move to side a little
G1 X0.4 Y20 Z0.3 F1500.0 E30 ; Draw the second line
G92 E0 ; Reset Extruder
G1 Z2.0 F3000 ; Move Z Axis up little to prevent scratching of Heat Bed
; End of custom start GCode
G92 E0
G1 F2400 E-5
;LAYER_COUNT:56
;LAYER:0
M107
M204 S5000
M205 X30 Y30
G0 F3600 X100.553 Y106.679 Z0.2
M204 S500
M205 X20 Y20
;TYPE:SKIRT
G1 F2400 E0
G1 F1800 X101.093 Y106.21 E0.02379
G1 X101.682 Y105.805 E0.04756
G1 X102.313 Y105.467 E0.07137
G1 X102.978 Y105.203 E0.09517
G1 X103.667 Y105.014 E0.11893
G1 X104.374 Y104.903 E0.14273
G1 X104.938 Y104.871 E0.16152
G1 X105.985 Y104.859 E0.19635
G1 X106.633 Y104.885 E0.21792
G1 X111.081 Y105.286 E0.36646
G1 X116.406 Y105.501 E0.54371
G1 X121.668 Y105.415 E0.71875
G1 X128.383 Y104.882 E0.9428
G1 X128.878 Y104.862 E0.95927
G1 X129.967 Y104.86 E0.99549
G1 X130.681 Y104.899 E1.01928
G1 X131.387 Y105.017 E1.04309
G1 X132.075 Y105.213 E1.06688
G1 X132.736 Y105.484 E1.09064
G1 X133.364 Y105.828 E1.11446
G1 X133.949 Y106.24 E1.13825
G1 X134.484 Y106.714 E1.16203
G1 X134.963 Y107.245 E1.18581
G1 X135.38 Y107.826 E1.2096
G1 X135.729 Y108.451 E1.23341
G1 X136.007 Y109.11 E1.2572
G1 X136.209 Y109.796 E1.28098
G1 X136.334 Y110.5 E1.30476
G1 X136.379 Y111.214 E1.32856
G1 X136.371 Y111.573 E1.3405
G1 X136.301 Y113.003 E1.38812
G1 X136.222 Y113.742 E1.41284
G1 X136.018 Y114.966 E1.45411
G1 X135.838 Y115.745 E1.4807
G1 X135.297 Y117.557 E1.5436
G1 X135.021 Y118.306 E1.57015
G1 X134.543 Y119.391 E1.60958
G1 X134.263 Y119.951 E1.63041
G1 X133.625 Y121.084 E1.67365
G1 X133.273 Y121.64 E1.69554
G1 X132.548 Y122.665 E1.7373
G1 X132.151 Y123.17 E1.75866
G1 X131.326 Y124.118 E1.80046
G1 X130.859 Y124.601 E1.82281
G1 X129.947 Y125.45 E1.86425
G1 X129.288 Y125.987 E1.89253
G1 X127.463 Y127.281 E1.96693
G1 X126.555 Y127.818 E2.00202
G1 X124.925 Y128.609 E2.06228
G1 X124.208 Y128.905 E2.08808
G1 X123.01 Y129.316 E2.13021
G1 X122.391 Y129.494 E2.15163
G1 X121.335 Y129.741 E2.1877
G1 X120.78 Y129.845 E2.20648
G1 X119.496 Y130.028 E2.24962
G1 X118.814 Y130.088 E2.27239
G1 X117.485 Y130.134 E2.31662
G1 X116.88 Y130.126 E2.33674
G1 X115.798 Y130.061 E2.37279
G1 X115.051 Y129.972 E2.39782
G1 X113.268 Y129.652 E2.45807
G1 X112.633 Y129.505 E2.47974
G1 X111.964 Y129.313 E2.50289
G1 X111.351 Y129.102 E2.52446
G1 X109.618 Y128.408 E2.58655
G1 X108.764 Y127.991 E2.61816
G1 X107.192 Y127.071 E2.67874
G1 X106.521 Y126.618 E2.70566
G1 X105.469 Y125.808 E2.74982
G1 X104.981 Y125.392 E2.77115
G1 X104.097 Y124.558 E2.81157
G1 X103.55 Y123.973 E2.83821
G1 X102.351 Y122.518 E2.90092
G1 X101.878 Y121.864 E2.92776
G1 X101.2 Y120.79 E2.97001
G1 X100.816 Y120.088 E2.99662
G1 X100.019 Y118.386 E3.05913
G1 X99.651 Y117.394 E3.09432
G1 X99.065 Y115.297 E3.16674
G1 X98.911 Y114.599 E3.19051
G1 X98.857 Y114.178 E3.20463
G1 X98.639 Y111.874 E3.2816
G1 X98.612 Y111.159 E3.3054
G1 X98.664 Y110.446 E3.32918
G1 X98.796 Y109.743 E3.35297
G1 X99.005 Y109.059 E3.37676
G1 X99.29 Y108.403 E3.40055
G1 X99.646 Y107.782 E3.42435
G1 X100.068 Y107.205 E3.44813
G1 X100.553 Y106.679 E3.47193
M204 S5000
M205 X30 Y30
G0 F3600 X100.96 Y106.845
M204 S500
M205 X20 Y20
G1 F1800 X101.497 Y106.408 E3.49495
G1 X102.081 Y106.035 E3.518
G1 X102.703 Y105.733 E3.541
G1 X103.357 Y105.504 E3.56405
G1 X104.033 Y105.351 E3.5871
G1 X104.942 Y105.271 E3.61745
G1 X105.989 Y105.259 E3.65228
G1 X106.597 Y105.283 E3.67251
G1 X111.069 Y105.686 E3.82186
G1 X116.397 Y105.901 E3.99921
G1 X121.691 Y105.815 E4.17531
G1 X128.415 Y105.281 E4.39966
G1 X128.879 Y105.262 E4.4151
G1 X129.968 Y105.26 E4.45132
G1 X130.659 Y105.299 E4.47434
G1 X131.342 Y105.417 E4.4974
G1 X132.006 Y105.613 E4.52042
G1 X132.643 Y105.884 E4.54345
G1 X133.245 Y106.227 E4.56649
G1 X133.803 Y106.637 E4.58952
G1 X134.31 Y107.108 E4.61254
G1 X134.76 Y107.635 E4.63559
G1 X135.146 Y108.21 E4.65862
G1 X135.463 Y108.826 E4.68166
G1 X135.707 Y109.474 E4.70469
G1 X135.875 Y110.146 E4.72773
G1 X135.964 Y110.832 E4.75074
G1 X135.972 Y111.553 E4.77472
G1 X135.902 Y112.983 E4.82234
G1 X135.827 Y113.676 E4.84552
G1 X135.623 Y114.9 E4.8868
G1 X135.454 Y115.631 E4.91175
G1 X134.913 Y117.443 E4.97465
G1 X134.655 Y118.145 E4.99952
G1 X134.177 Y119.23 E5.03896
G1 X133.914 Y119.755 E5.05849
G1 X133.276 Y120.888 E5.10173
G1 X132.946 Y121.409 E5.12225
G1 X132.221 Y122.434 E5.164
G1 X131.849 Y122.908 E5.18405
G1 X131.024 Y123.856 E5.22584
G1 X130.586 Y124.309 E5.2468
G1 X129.674 Y125.158 E5.28824
G1 X129.056 Y125.661 E5.31475
G1 X127.231 Y126.955 E5.38916
G1 X126.381 Y127.458 E5.42201
G1 X124.751 Y128.249 E5.48227
G1 X124.078 Y128.526 E5.50647
G1 X122.88 Y128.937 E5.5486
G1 X122.3 Y129.104 E5.56867
G1 X121.244 Y129.351 E5.60474
G1 X120.724 Y129.449 E5.62234
G1 X119.44 Y129.632 E5.66548
G1 X118.801 Y129.688 E5.68682
G1 X117.472 Y129.734 E5.73104
G1 X116.904 Y129.727 E5.74994
G1 X115.822 Y129.662 E5.78599
G1 X115.122 Y129.579 E5.80944
G1 X113.339 Y129.259 E5.86969
G1 X112.744 Y129.12 E5.89001
G1 X112.075 Y128.928 E5.91316
G1 X111.499 Y128.731 E5.9334
G1 X109.766 Y128.037 E5.99549
G1 X108.966 Y127.645 E6.02513
G1 X107.394 Y126.725 E6.08571
G1 X106.765 Y126.301 E6.11094
G1 X105.713 Y125.491 E6.1551
G1 X105.256 Y125.101 E6.17508
G1 X104.372 Y124.267 E6.2155
G1 X103.859 Y123.719 E6.24047
G1 X102.66 Y122.264 E6.30317
G1 X102.216 Y121.651 E6.32835
G1 X101.538 Y120.577 E6.37059
G1 X101.178 Y119.918 E6.39557
G1 X100.381 Y118.216 E6.45808
G1 X100.036 Y117.287 E6.49104
G1 X99.45 Y115.19 E6.56346
G1 X99.303 Y114.513 E6.5865
G1 X99.256 Y114.14 E6.599
G1 X99.038 Y111.836 E6.67598
G1 X99.012 Y111.144 E6.69901
G1 X99.067 Y110.454 E6.72203
G1 X99.201 Y109.774 E6.74508
G1 X99.412 Y109.115 E6.7681
G1 X99.698 Y108.484 E6.79114
G1 X100.054 Y107.89 E6.81417
G1 X100.477 Y107.342 E6.8372
G1 X100.96 Y106.845 E6.86025
M204 S5000
M205 X30 Y30
G0 F3600 X100.885 Y107.485
M204 S500
M205 X20 Y20
G1 F1800 X101.366 Y107.02 E6.8825
G1 X101.899 Y106.615 E6.90476
G1 X102.476 Y106.278 E6.92699
G1 X103.09 Y106.011 E6.94926
G1 X103.731 Y105.819 E6.97151
G1 X104.39 Y105.706 E6.99375
G1 X104.947 Y105.671 E7.01231
G1 X105.994 Y105.659 E7.04714
G1 X106.561 Y105.682 E7.06601
G1 X111.037 Y106.086 E7.21549
G1 X116.387 Y106.301 E7.39358
G1 X121.713 Y106.215 E7.57074
G1 X128.447 Y105.68 E7.79542
G1 X128.88 Y105.662 E7.80984
G1 X129.969 Y105.66 E7.84606
G1 X130.637 Y105.699 E7.86831
G1 X131.295 Y105.817 E7.89055
G1 X131.935 Y106.013 E7.91281
G1 X132.547 Y106.283 E7.93506
G1 X133.122 Y106.625 E7.95731
G1 X133.652 Y107.033 E7.97955
G1 X134.13 Y107.501 E8.0018
G1 X134.549 Y108.023 E8.02407
G1 X134.902 Y108.591 E8.04631
G1 X135.185 Y109.197 E8.06856
G1 X135.394 Y109.833 E8.09082
G1 X135.526 Y110.489 E8.11308
G1 X135.578 Y111.156 E8.13533
G1 X135.572 Y111.534 E8.1479
G1 X135.502 Y112.964 E8.19552
G1 X135.433 Y113.611 E8.21716
G1 X135.229 Y114.835 E8.25844
G1 X135.071 Y115.516 E8.28169
G1 X134.53 Y117.328 E8.34458
G1 X134.289 Y117.984 E8.36783
G1 X133.811 Y119.069 E8.40726
G1 X133.566 Y119.559 E8.42548
G1 X132.928 Y120.692 E8.46873
G1 X132.62 Y121.178 E8.48787
G1 X131.895 Y122.203 E8.52963
G1 X131.547 Y122.645 E8.54834
G1 X130.722 Y123.593 E8.59013
G1 X130.314 Y124.016 E8.60968
G1 X129.402 Y124.865 E8.65112
G1 X128.825 Y125.334 E8.67586
G1 X127 Y126.628 E8.75026
G1 X126.206 Y127.098 E8.78095
G1 X124.576 Y127.889 E8.84121
G1 X123.948 Y128.148 E8.86381
G1 X122.75 Y128.559 E8.90593
G1 X122.208 Y128.715 E8.92469
G1 X121.152 Y128.962 E8.96076
G1 X120.667 Y129.053 E8.97718
G1 X119.383 Y129.236 E9.02031
G1 X118.787 Y129.289 E9.04021
G1 X117.458 Y129.335 E9.08444
G1 X116.928 Y129.328 E9.10207
G1 X115.846 Y129.263 E9.13812
G1 X115.193 Y129.185 E9.16
G1 X113.41 Y128.865 E9.22025
G1 X112.854 Y128.736 E9.23923
G1 X112.185 Y128.544 E9.26238
G1 X111.648 Y128.36 E9.28126
G1 X109.915 Y127.666 E9.34335
G1 X109.168 Y127.3 E9.37102
G1 X107.596 Y126.38 E9.4316
G1 X107.009 Y125.984 E9.45515
G1 X105.957 Y125.174 E9.49931
G1 X105.53 Y124.81 E9.51797
G1 X104.646 Y123.976 E9.55839
G1 X104.167 Y123.464 E9.58171
G1 X102.968 Y122.009 E9.64442
G1 X102.555 Y121.437 E9.66789
G1 X101.877 Y120.363 E9.71013
G1 X101.54 Y119.749 E9.73343
G1 X100.743 Y118.047 E9.79593
G1 X100.422 Y117.179 E9.82672
G1 X99.836 Y115.082 E9.89913
G1 X99.654 Y114.103 E9.93225
G1 X99.436 Y111.799 E10.00923
G1 X99.413 Y111.13 E10.03149
G1 X99.47 Y110.463 E10.05376
G1 X99.605 Y109.808 E10.076
G1 X99.818 Y109.174 E10.09824
G1 X100.106 Y108.57 E10.1205
G1 X100.463 Y108.004 E10.14276
G1 X100.885 Y107.485 E10.16501
M204 S5000
M205 X30 Y30
G0 F3600 X101.293 Y107.636
M204 S500
M205 X20 Y20
G1 F1800 X101.771 Y107.204 E10.18644
G1 X102.299 Y106.834 E10.20788
G1 X102.869 Y106.533 E10.22932
G1 X103.472 Y106.304 E10.25077
G1 X104.098 Y106.152 E10.2722
G1 X104.951 Y106.071 E10.3007
G1 X105.998 Y106.059 E10.33552
G1 X106.525 Y106.08 E10.35306
G1 X111.005 Y106.484 E10.50267
G1 X116.395 Y106.701 E10.68209
G1 X121.719 Y106.615 E10.85919
G1 X128.478 Y106.078 E11.08471
G1 X128.88 Y106.062 E11.09809
G1 X129.969 Y106.06 E11.13431
G1 X130.613 Y106.099 E11.15577
G1 X131.247 Y106.217 E11.17721
G1 X131.861 Y106.413 E11.19865
G1 X132.446 Y106.683 E11.22008
G1 X132.994 Y107.023 E11.24153
G1 X133.495 Y107.429 E11.26298
G1 X133.942 Y107.893 E11.28441
G1 X134.328 Y108.409 E11.30584
G1 X134.647 Y108.969 E11.32728
G1 X134.895 Y109.565 E11.34875
G1 X135.067 Y110.186 E11.37018
G1 X135.161 Y110.824 E11.39163
G1 X135.173 Y111.514 E11.41458
G1 X135.103 Y112.944 E11.4622
G1 X135.038 Y113.545 E11.48231
G1 X134.834 Y114.769 E11.52358
G1 X134.688 Y115.402 E11.54518
G1 X134.147 Y117.214 E11.60808
G1 X133.923 Y117.822 E11.62963
G1 X133.445 Y118.907 E11.66907
G1 X133.217 Y119.362 E11.68599
G1 X132.579 Y120.495 E11.72924
G1 X132.293 Y120.947 E11.74703
G1 X131.568 Y121.972 E11.78879
G1 X131.246 Y122.383 E11.80615
G1 X130.421 Y123.331 E11.84795
G1 X130.041 Y123.723 E11.86611
G1 X129.129 Y124.572 E11.90755
G1 X128.594 Y125.008 E11.93051
G1 X126.769 Y126.302 E12.00492
G1 X126.031 Y126.738 E12.03343
G1 X124.401 Y127.529 E12.09369
G1 X123.818 Y127.77 E12.11467
G1 X122.62 Y128.181 E12.15679
G1 X122.117 Y128.325 E12.1742
G1 X121.061 Y128.572 E12.21027
G1 X120.611 Y128.657 E12.2255
G1 X119.327 Y128.84 E12.26864
G1 X118.773 Y128.889 E12.28713
G1 X117.444 Y128.935 E12.33136
G1 X116.952 Y128.929 E12.34773
G1 X115.87 Y128.864 E12.38378
G1 X115.263 Y128.791 E12.40412
G1 X113.48 Y128.471 E12.46437
G1 X112.965 Y128.351 E12.48195
G1 X112.296 Y128.159 E12.5051
G1 X111.797 Y127.988 E12.52265
G1 X110.064 Y127.294 E12.58474
G1 X109.37 Y126.955 E12.61043
G1 X107.798 Y126.035 E12.67101
G1 X107.253 Y125.667 E12.69288
G1 X106.201 Y124.857 E12.73704
G1 X105.805 Y124.519 E12.75436
G1 X104.921 Y123.685 E12.79478
G1 X104.476 Y123.21 E12.81643
G1 X103.277 Y121.755 E12.87913
G1 X102.893 Y121.224 E12.90093
G1 X102.215 Y120.15 E12.94317
G1 X101.903 Y119.579 E12.96481
G1 X101.106 Y117.877 E13.02732
G1 X100.807 Y117.072 E13.05588
G1 X100.221 Y114.975 E13.1283
G1 X100.052 Y114.065 E13.15909
G1 X99.834 Y111.761 E13.23606
G1 X99.813 Y111.116 E13.25752
G1 X99.872 Y110.475 E13.27893
G1 X100.01 Y109.845 E13.30039
G1 X100.225 Y109.237 E13.32183
G1 X100.514 Y108.66 E13.3433
G1 X100.871 Y108.124 E13.36472
G1 X101.293 Y107.636 E13.38618
M204 S5000
M205 X30 Y30
G1 F2400 E8.38618
;MESH:WheelCasing_test_curve.stl
G0 F3600 X128.242 Y111.445
G0 X129.121 Y111.464
G0 X129.69 Y111.653
G0 X129.79 Y111.655
M204 S500
M205 X20 Y20
;TYPE:WALL-OUTER
G1 F2400 E13.38618
G1 F1800 X129.784 Y111.873 E13.39343
G1 X129.739 Y112.48 E13.41367
G1 X129.661 Y113.093 E13.43423
G1 X129.553 Y113.701 E13.45477
G1 X129.412 Y114.314 E13.47569
G1 X129.247 Y114.899 E13.4959
G1 X129.048 Y115.484 E13.51645
G1 X128.818 Y116.066 E13.53727
G1 X128.565 Y116.622 E13.55759
G1 X128.281 Y117.171 E13.57814
G1 X127.969 Y117.706 E13.59874
G1 X127.632 Y118.223 E13.61927
G1 X127.263 Y118.731 E13.64015
G1 X126.876 Y119.211 E13.66066
G1 X126.463 Y119.674 E13.6813
G1 X126.036 Y120.106 E13.7015
G1 X125.572 Y120.53 E13.7224
G1 X125.344 Y120.725 E13.73238
G1 X124.858 Y121.107 E13.75294
G1 X124.351 Y121.466 E13.7736
G1 X123.831 Y121.795 E13.79407
G1 X123.285 Y122.105 E13.81495
G1 X122.741 Y122.377 E13.83518
G1 X122.171 Y122.629 E13.85591
G1 X121.59 Y122.85 E13.87659
G1 X121.006 Y123.04 E13.89701
G1 X120.404 Y123.203 E13.91776
G1 X119.807 Y123.332 E13.93807
G1 X119.498 Y123.387 E13.94851
G1 X118.891 Y123.471 E13.96889
G1 X118.586 Y123.502 E13.97909
G1 X117.959 Y123.541 E13.99998
G1 X117.654 Y123.549 E14.01013
G1 X117.043 Y123.542 E14.03045
G1 X116.421 Y123.503 E14.05118
G1 X115.803 Y123.433 E14.07187
G1 X115.195 Y123.334 E14.09236
G1 X114.598 Y123.204 E14.11268
G1 X113.996 Y123.041 E14.13342
G1 X113.41 Y122.85 E14.15392
G1 X112.833 Y122.631 E14.17445
G1 X112.261 Y122.379 E14.19524
G1 X111.713 Y122.105 E14.21561
G1 X111.171 Y121.797 E14.23635
G1 X110.653 Y121.469 E14.25674
G1 X110.144 Y121.109 E14.27748
G1 X109.658 Y120.727 E14.29804
G1 X109.199 Y120.327 E14.31829
G1 X108.747 Y119.891 E14.33918
G1 X108.324 Y119.44 E14.35974
G1 X107.93 Y118.976 E14.37999
G1 X107.548 Y118.477 E14.40089
G1 X107.198 Y117.969 E14.42141
G1 X106.878 Y117.45 E14.44169
G1 X106.575 Y116.9 E14.46257
G1 X106.306 Y116.345 E14.48308
G1 X106.068 Y115.785 E14.50332
G1 X105.85 Y115.195 E14.52424
G1 X105.67 Y114.614 E14.54447
G1 X105.513 Y114.005 E14.56539
G1 X105.39 Y113.4 E14.58592
G1 X105.298 Y112.789 E14.60648
G1 X105.262 Y112.484 E14.61669
G1 X105.217 Y111.873 E14.63707
G1 X105.211 Y111.656 E14.64429
G1 X105.206 Y111.452 E14.65107
G1 X105.41 Y111.452 E14.65543
G1 X105.892 Y111.45 E14.67146
G1 X105.901 Y111.834 E14.68424
G1 X105.946 Y112.415 E14.70362
G1 X106.018 Y112.995 E14.72306
G1 X106.121 Y113.569 E14.74246
G1 X106.252 Y114.138 E14.76188
G1 X106.411 Y114.699 E14.78127
G1 X106.598 Y115.252 E14.80069
G1 X106.813 Y115.795 E14.82011
G1 X107.055 Y116.327 E14.83955
G1 X107.324 Y116.844 E14.85893
G1 X107.618 Y117.349 E14.87837
G1 X107.936 Y117.837 E14.89774
G1 X108.279 Y118.31 E14.91717
G1 X108.645 Y118.764 E14.93657
G1 X109.034 Y119.2 E14.95601
G1 X109.444 Y119.615 E14.97541
G1 X109.875 Y120.009 E14.99483
G1 X110.324 Y120.381 E15.01422
G1 X110.793 Y120.73 E15.03367
G1 X111.278 Y121.055 E15.05309
G1 X111.777 Y121.355 E15.07245
G1 X112.293 Y121.63 E15.0919
G1 X112.821 Y121.879 E15.11131
G1 X113.361 Y122.101 E15.13073
G1 X113.911 Y122.294 E15.15012
G1 X114.471 Y122.461 E15.16956
G1 X115.038 Y122.6 E15.18897
G1 X115.612 Y122.708 E15.2084
G1 X116.189 Y122.789 E15.22778
G1 X116.77 Y122.841 E15.24718
G1 X117.355 Y122.862 E15.26665
G1 X117.937 Y122.855 E15.28601
G1 X118.521 Y122.818 E15.30547
G1 X119.101 Y122.752 E15.32489
G1 X119.677 Y122.658 E15.3443
G1 X120.246 Y122.533 E15.36367
G1 X120.81 Y122.382 E15.38309
G1 X121.365 Y122.201 E15.40251
G1 X121.91 Y121.993 E15.42191
G1 X122.444 Y121.758 E15.44132
G1 X122.966 Y121.497 E15.46073
G1 X123.474 Y121.209 E15.48015
G1 X123.967 Y120.896 E15.49957
G1 X124.444 Y120.558 E15.51902
G1 X124.902 Y120.198 E15.53839
G1 X125.343 Y119.815 E15.55782
G1 X125.763 Y119.41 E15.57723
G1 X126.162 Y118.984 E15.59664
G1 X126.541 Y118.54 E15.61606
G1 X126.895 Y118.076 E15.63547
G1 X127.227 Y117.595 E15.65491
G1 X127.533 Y117.099 E15.67429
G1 X127.814 Y116.587 E15.69372
G1 X128.069 Y116.062 E15.71313
G1 X128.298 Y115.525 E15.73254
G1 X128.498 Y114.977 E15.75195
G1 X128.672 Y114.42 E15.77136
G1 X128.817 Y113.855 E15.79076
G1 X128.934 Y113.283 E15.81018
G1 X129.021 Y112.706 E15.82958
G1 X129.08 Y112.126 E15.84897
G1 X129.099 Y111.833 E15.85874
G1 X129.108 Y111.45 E15.87148
G1 X129.59 Y111.45 E15.88751
G1 X129.591 Y111.45 E15.88755
G1 X129.795 Y111.45 E15.89433
G1 X129.791 Y111.654 E15.8987
G1 X129.79 Y111.655 E15.89874
M204 S5000
M205 X30 Y30
G0 F3600 X129.785 Y111.855
G0 X129.527 Y111.708
M204 S500
M205 X20 Y20
