;FLAVOR:Marlin
;TIME:3234
;Filament used: 3.23634m
;Layer height: 0.2
;Generated with Cura_SteamEngine 3.6.0
M140 S50
M105
M190 S50
M104 S205
M105
M109 S205
M82 ;absolute extrusion mode
; Ender 3 Custom Start G-code
G28 ; Home all axes
G92 E0 ; Reset Extruder
G1 Z2.0 F3000 ; Move Z Axis up little to prevent scratching of Heat Bed
G1 X0.1 Y20 Z0.3 F5000.0 ; Move to start position
G1 X0.1 Y200.0 Z0.3 F1500.0 E15 ; Draw the first line
G1 X0.4 Y200.0 Z0.3 F5000.0 ; Move to side a little
G1 X0.4 Y20 Z0.3 F1500.0 E30 ; Draw the second line
G92 E0 ; Reset Extruder
G1 Z2.0 F3000 ; Move Z Axis up little to prevent scratching of Heat Bed
; End of custom start GCode
G92 E0
G1 F2400 E-5
;LAYER_COUNT:131
;LAYER:0
M107
M204 S5000
M205 X30 Y30
G0 F3600 X90.473 Y97.495 Z0.2
M204 S500
M205 X20 Y20
;TYPE:SKIRT
G1 F2400 E0
G1 F1800 X91.005 Y97.017 E0.02379
G1 X91.587 Y96.602 E0.04756
G1 X92.211 Y96.253 E0.07134
G1 X92.871 Y95.977 E0.09514
G1 X93.557 Y95.776 E0.11891
G1 X94.262 Y95.653 E0.14271
G1 X95.01 Y95.609 E0.16764
G1 X139.991 Y95.61 E1.66371
G1 X140.705 Y95.65 E1.68749
G1 X141.411 Y95.769 E1.71131
G1 X142.098 Y95.967 E1.73509
G1 X142.759 Y96.24 E1.75887
G1 X143.386 Y96.585 E1.78268
G1 X143.97 Y96.997 E1.80645
G1 X144.504 Y97.473 E1.83024
G1 X144.983 Y98.005 E1.85405
G1 X145.398 Y98.587 E1.87782
G1 X145.747 Y99.211 E1.9016
G1 X146.023 Y99.871 E1.9254
G1 X146.224 Y100.557 E1.94917
G1 X146.347 Y101.262 E1.97298
G1 X146.389 Y102.16 E2.00288
G1 X146.291 Y106.325 E2.14144
G1 X146.39 Y132.967 E3.02757
G1 X146.353 Y133.682 E3.05138
G1 X146.236 Y134.387 E3.07515
G1 X146.041 Y135.075 E3.09893
G1 X145.771 Y135.738 E3.12274
G1 X145.428 Y136.366 E3.14654
G1 X145.018 Y136.951 E3.1703
G1 X144.544 Y137.488 E3.19413
G1 X144.014 Y137.968 E3.21791
G1 X143.434 Y138.386 E3.24169
G1 X142.81 Y138.736 E3.26548
G1 X142.151 Y139.015 E3.28928
G1 X141.466 Y139.219 E3.31306
G1 X140.497 Y139.371 E3.34568
G1 X137.866 Y139.58 E3.43346
G1 X137.356 Y139.6 E3.45044
G1 X96.559 Y139.584 E4.80735
G1 X95.769 Y139.535 E4.83368
G1 X94.216 Y139.341 E4.88573
G1 X93.512 Y139.212 E4.90954
G1 X92.827 Y139.007 E4.93332
G1 X92.169 Y138.726 E4.95712
G1 X91.547 Y138.373 E4.9809
G1 X90.968 Y137.953 E5.0047
G1 X90.439 Y137.471 E5.0285
G1 X89.968 Y136.933 E5.05228
G1 X89.559 Y136.346 E5.07608
G1 X89.219 Y135.717 E5.09986
G1 X88.951 Y135.054 E5.12364
G1 X88.758 Y134.365 E5.14744
G1 X88.644 Y133.659 E5.17123
G1 X88.609 Y132.99 E5.19351
G1 X88.61 Y102.009 E6.22394
G1 X88.65 Y101.295 E6.24772
G1 X88.769 Y100.589 E6.27154
G1 X88.967 Y99.902 E6.29532
G1 X89.24 Y99.241 E6.3191
G1 X89.585 Y98.614 E6.34291
G1 X89.997 Y98.03 E6.36668
G1 X90.473 Y97.495 E6.3905
M204 S5000
M205 X30 Y30
G0 F3600 X90.866 Y97.67
M204 S500
M205 X20 Y20
G1 F1800 X91.394 Y97.221 E6.41355
G1 X91.97 Y96.836 E6.43659
G1 X92.586 Y96.52 E6.45962
G1 X93.234 Y96.278 E6.48262
G1 X93.907 Y96.111 E6.50569
G1 X94.594 Y96.023 E6.52872
G1 X95.01 Y96.009 E6.54257
G1 X139.991 Y96.01 E8.03864
G1 X140.683 Y96.05 E8.0617
G1 X141.365 Y96.169 E8.08472
G1 X142.029 Y96.367 E8.10777
G1 X142.665 Y96.639 E8.13077
G1 X143.266 Y96.983 E8.15381
G1 X143.824 Y97.394 E8.17686
G1 X144.33 Y97.866 E8.19987
G1 X144.779 Y98.394 E8.22292
G1 X145.164 Y98.97 E8.24597
G1 X145.479 Y99.586 E8.26898
G1 X145.722 Y100.234 E8.292
G1 X145.889 Y100.907 E8.31506
G1 X145.977 Y101.594 E8.3381
G1 X145.989 Y102.151 E8.35663
G1 X145.891 Y106.317 E8.49523
G1 X145.99 Y132.969 E9.38168
G1 X145.953 Y133.66 E9.4047
G1 X145.836 Y134.343 E9.42775
G1 X145.641 Y135.007 E9.45076
G1 X145.371 Y135.645 E9.47381
G1 X145.029 Y136.248 E9.49686
G1 X144.62 Y136.807 E9.5199
G1 X144.15 Y137.315 E9.54292
G1 X143.624 Y137.765 E9.56594
G1 X143.05 Y138.152 E9.58897
G1 X142.435 Y138.47 E9.61199
G1 X141.787 Y138.716 E9.63505
G1 X141.115 Y138.885 E9.65809
G1 X140.465 Y138.972 E9.67991
G1 X137.834 Y139.181 E9.76769
G1 X137.357 Y139.2 E9.78357
G1 X96.56 Y139.184 E11.14048
G1 X95.818 Y139.138 E11.16521
G1 X94.265 Y138.944 E11.21726
G1 X93.584 Y138.818 E11.2403
G1 X92.922 Y138.615 E11.26333
G1 X92.288 Y138.337 E11.28635
G1 X91.69 Y137.988 E11.30938
G1 X91.136 Y137.572 E11.33242
G1 X90.634 Y137.096 E11.35543
G1 X90.19 Y136.564 E11.37848
G1 X89.81 Y135.985 E11.40151
G1 X89.499 Y135.366 E11.42455
G1 X89.262 Y134.715 E11.4476
G1 X89.102 Y134.042 E11.47061
G1 X89.02 Y133.354 E11.49365
G1 X89.009 Y132.99 E11.50576
G1 X89.01 Y102.009 E12.53619
G1 X89.05 Y101.317 E12.55925
G1 X89.169 Y100.635 E12.58228
G1 X89.367 Y99.971 E12.60532
G1 X89.639 Y99.335 E12.62833
G1 X89.983 Y98.734 E12.65136
G1 X90.394 Y98.176 E12.67441
G1 X90.866 Y97.67 E12.69743
M204 S5000
M205 X30 Y30
G0 F3600 X91.259 Y97.851
M204 S500
M205 X20 Y20
G1 F1800 X91.782 Y97.433 E12.71969
G1 X92.35 Y97.081 E12.74192
G1 X92.957 Y96.799 E12.76418
G1 X93.593 Y96.591 E12.78644
G1 X94.249 Y96.461 E12.80868
G1 X95.01 Y96.409 E12.83405
G1 X139.991 Y96.41 E14.33012
G1 X140.659 Y96.45 E14.35238
G1 X141.317 Y96.569 E14.37462
G1 X141.957 Y96.766 E14.39689
G1 X142.568 Y97.038 E14.41914
G1 X143.142 Y97.381 E14.44138
G1 X143.672 Y97.79 E14.46364
G1 X144.149 Y98.259 E14.48589
G1 X144.567 Y98.782 E14.50816
G1 X144.919 Y99.35 E14.53039
G1 X145.201 Y99.957 E14.55265
G1 X145.409 Y100.593 E14.5749
G1 X145.539 Y101.249 E14.59715
G1 X145.589 Y102.141 E14.62686
G1 X145.491 Y106.309 E14.76553
G1 X145.59 Y132.97 E15.65228
G1 X145.552 Y133.638 E15.67454
G1 X145.436 Y134.297 E15.69679
G1 X145.241 Y134.937 E15.71904
G1 X144.971 Y135.549 E15.74129
G1 X144.631 Y136.125 E15.76354
G1 X144.224 Y136.656 E15.78579
G1 X143.757 Y137.135 E15.80804
G1 X143.235 Y137.555 E15.83033
G1 X142.668 Y137.909 E15.85256
G1 X142.062 Y138.193 E15.87482
G1 X141.427 Y138.403 E15.89706
G1 X140.772 Y138.536 E15.91929
G1 X140.433 Y138.573 E15.93063
G1 X137.802 Y138.782 E16.01842
G1 X137.357 Y138.8 E16.03323
G1 X96.56 Y138.784 E17.39014
G1 X95.868 Y138.741 E17.4132
G1 X94.315 Y138.547 E17.46526
G1 X93.657 Y138.424 E17.48752
G1 X93.019 Y138.224 E17.50976
G1 X92.409 Y137.95 E17.532
G1 X91.836 Y137.604 E17.55427
G1 X91.308 Y137.193 E17.57652
G1 X90.833 Y136.721 E17.59879
G1 X90.418 Y136.197 E17.62102
G1 X90.068 Y135.626 E17.6433
G1 X89.789 Y135.018 E17.66555
G1 X89.585 Y134.382 E17.68776
G1 X89.457 Y133.725 E17.71003
G1 X89.409 Y132.99 E17.73453
G1 X89.41 Y102.009 E18.76496
G1 X89.45 Y101.341 E18.78722
G1 X89.569 Y100.683 E18.80946
G1 X89.766 Y100.043 E18.83173
G1 X90.038 Y99.432 E18.85397
G1 X90.381 Y98.857 E18.87624
G1 X90.79 Y98.328 E18.89848
G1 X91.259 Y97.851 E18.92073
M204 S5000
M205 X30 Y30
G0 F3600 X91.185 Y98.486
M204 S500
M205 X20 Y20
G1 F1800 X91.651 Y98.04 E18.94218
G1 X92.168 Y97.655 E18.96362
G1 X92.728 Y97.336 E18.98506
G1 X93.324 Y97.09 E19.00651
G1 X93.946 Y96.919 E19.02796
G1 X94.584 Y96.827 E19.0494
G1 X95.01 Y96.809 E19.06358
G1 X139.991 Y96.81 E20.55966
G1 X140.635 Y96.85 E20.58112
G1 X141.268 Y96.969 E20.60254
G1 X141.882 Y97.166 E20.62399
G1 X142.467 Y97.437 E20.64543
G1 X143.014 Y97.779 E20.66689
G1 X143.514 Y98.185 E20.68831
G1 X143.96 Y98.651 E20.70976
G1 X144.345 Y99.168 E20.7312
G1 X144.664 Y99.728 E20.75264
G1 X144.91 Y100.324 E20.77408
G1 X145.081 Y100.945 E20.79551
G1 X145.173 Y101.583 E20.81695
G1 X145.19 Y102.132 E20.83521
G1 X145.091 Y106.338 E20.97514
G1 X145.19 Y132.972 E21.861
G1 X145.152 Y133.615 E21.88243
G1 X145.035 Y134.249 E21.90387
G1 X144.841 Y134.864 E21.92532
G1 X144.572 Y135.45 E21.94676
G1 X144.233 Y135.998 E21.96819
G1 X143.828 Y136.5 E21.98965
G1 X143.364 Y136.948 E22.0111
G1 X142.849 Y137.335 E22.03253
G1 X142.289 Y137.655 E22.05398
G1 X141.694 Y137.904 E22.07543
G1 X141.073 Y138.077 E22.09687
G1 X140.402 Y138.175 E22.11943
G1 X137.771 Y138.384 E22.20721
G1 X137.357 Y138.4 E22.22099
G1 X96.56 Y138.384 E23.5779
G1 X95.917 Y138.344 E23.59933
G1 X94.364 Y138.15 E23.65139
G1 X93.731 Y138.03 E23.67281
G1 X93.117 Y137.834 E23.69425
G1 X92.532 Y137.562 E23.71571
G1 X91.986 Y137.221 E23.73712
G1 X91.485 Y136.814 E23.75859
G1 X91.039 Y136.349 E23.78002
G1 X90.654 Y135.832 E23.80146
G1 X90.336 Y135.271 E23.82291
G1 X90.09 Y134.675 E23.84435
G1 X89.919 Y134.054 E23.86577
G1 X89.826 Y133.416 E23.88722
G1 X89.809 Y132.99 E23.9014
G1 X89.81 Y102.009 E24.93183
G1 X89.85 Y101.365 E24.95329
G1 X89.969 Y100.732 E24.97471
G1 X90.166 Y100.118 E24.99616
G1 X90.437 Y99.533 E25.0176
G1 X90.779 Y98.986 E25.03906
G1 X91.185 Y98.486 E25.06048
M204 S5000
M205 X30 Y30
G1 F2400 E20.06048
G0 F3600 X115.157 Y101.339
G0 X115.661 Y101.843
G0 X115.661 Y103.157
G0 X115.157 Y103.661
G0 X103.9 Y103.9
M204 S500
M205 X20 Y20
;TYPE:SUPPORT
G1 F2400 E25.06048
G1 F1800 X115 Y103.9 E25.42967
G1 X115 Y112.604 E25.71917
G1 X115.4 Y113.004 E25.73798
G1 X119.601 Y112.997 E25.87771
G1 X120 Y112.598 E25.89648
G1 X120 Y103.9 E26.18577
G1 X130.981 Y103.9 E26.551
G1 X130.981 Y113.256 E26.86218
G1 X131.099 Y113.373 E26.86771
G1 X131.101 Y114.363 E26.90064
G1 X131.744 Y115.006 E26.93088
G1 X133.164 Y115.006 E26.97811
G1 X133.44 Y115.283 E26.99112
G1 X138.055 Y115.283 E27.14461
G1 X138.055 Y133 E27.73388
G1 X96.855 Y133 E29.1042
G1 X96.855 Y115.278 E29.69364
G1 X101.565 Y115.278 E29.85029
G1 X101.836 Y115.006 E29.86306
G1 X103.256 Y115.006 E29.91029
G1 X103.9 Y114.362 E29.94058
G1 X103.9 Y103.9 E30.28855
M204 S5000
M205 X30 Y30
G0 F3600 X106.68 Y104.06
M204 S500
M205 X20 Y20
G1 F1800 X106.68 Y132.84 E31.24578
M204 S5000
M205 X30 Y30
G0 F3600 X104.013 Y132.84
M204 S500
M205 X20 Y20
G1 F1800 X104.013 Y114.476 E31.85657
M204 S5000
M205 X30 Y30
G0 F3600 X103.808 Y114.681
M204 S500
M205 X20 Y20
G1 F1800 X131.193 Y114.681 E32.7674
M204 S5000
M205 X30 Y30
G0 F3600 X133.35 Y115.42
M204 S500
M205 X20 Y20
G1 F1800 X133.35 Y132.84 E33.34679
M204 S5000
M205 X30 Y30
G0 F3600 X130.683 Y132.84
M204 S500
M205 X20 Y20
G1 F1800 X130.683 Y104.06 E34.30401
M204 S5000
M205 X30 Y30
G0 F3600 X130.821 Y106.68
M204 S500
M205 X20 Y20
G1 F1800 X120.16 Y106.68 E34.6586
M204 S5000
M205 X30 Y30
G0 F3600 X120.16 Y109.347
M204 S500
M205 X20 Y20
G1 F1800 X130.821 Y109.347 E35.01319
M204 S5000
M205 X30 Y30
G0 F3600 X130.821 Y112.014
M204 S500
M205 X20 Y20
G1 F1800 X120.16 Y112.014 E35.36777
M204 S5000
M205 X30 Y30
G0 F3600 X120.015 Y112.81
M204 S500
M205 X20 Y20
G1 F1800 X120.015 Y132.84 E36.03397
M204 S5000
M205 X30 Y30
G0 F3600 X117.348 Y132.84
M204 S500
M205 X20 Y20
G1 F1800 X117.348 Y113.16 E36.68853
M204 S5000
M205 X30 Y30
G0 F3600 X114.84 Y112.014
M204 S500
M205 X20 Y20
G1 F1800 X104.06 Y112.014 E37.04708
M204 S5000
M205 X30 Y30
G0 F3600 X104.06 Y109.347
M204 S500
M205 X20 Y20
G1 F1800 X114.84 Y109.347 E37.40562
M204 S5000
M205 X30 Y30
G0 F3600 X114.84 Y106.68
M204 S500
M205 X20 Y20
G1 F1800 X104.06 Y106.68 E37.76417
M204 S5000
M205 X30 Y30
G0 F3600 X109.347 Y104.06
M204 S500
M205 X20 Y20
G1 F1800 X109.347 Y132.84 E38.72139
M204 S5000
M205 X30 Y30
G0 F3600 X112.014 Y132.84
M204 S500
M205 X20 Y20
G1 F1800 X112.014 Y104.06 E39.67862
M204 S5000
M205 X30 Y30
G0 F3600 X114.681 Y104.06
M204 S500
M205 X20 Y20
G1 F1800 X114.681 Y132.84 E40.63585
M204 S5000
M205 X30 Y30
G0 F3600 X122.682 Y132.84
M204 S500
M205 X20 Y20
G1 F1800 X122.682 Y104.06 E41.59307
M204 S5000
M205 X30 Y30
G0 F3600 X125.349 Y104.06
M204 S500
M205 X20 Y20
G1 F1800 X125.349 Y132.84 E42.5503
M204 S5000
M205 X30 Y30
G0 F3600 X128.016 Y132.84
M204 S500
M205 X20 Y20
G1 F1800 X128.016 Y104.06 E43.50753
M204 S5000
M205 X30 Y30
G1 F2400 E38.50753
G0 F3600 X131.34 Y114.263
G0 X131.843 Y114.767
G0 X136.017 Y115.443
M204 S500
M205 X20 Y20
G1 F2400 E43.50753
G1 F1800 X136.017 Y132.84 E44.08615
M204 S5000
M205 X30 Y30
G0 F3600 X137.895 Y130.683
M204 S500
M205 X20 Y20
G1 F1800 X97.014 Y130.683 E45.44586
M204 S5000
M205 X30 Y30
G0 F3600 X97.014 Y128.016
M204 S500
M205 X20 Y20
G1 F1800 X137.895 Y128.016 E46.80557
M204 S5000
M205 X30 Y30
G0 F3600 X137.895 Y125.349
M204 S500
M205 X20 Y20
G1 F1800 X97.014 Y125.349 E48.16528
M204 S5000
M205 X30 Y30
G0 F3600 X97.014 Y122.682
M204 S500
M205 X20 Y20
G1 F1800 X137.895 Y122.682 E49.52498
M204 S5000
M205 X30 Y30
G0 F3600 X137.895 Y120.015
M204 S500
M205 X20 Y20
G1 F1800 X97.014 Y120.015 E50.88469
M204 S5000
M205 X30 Y30
G0 F3600 X97.015 Y117.348
M204 S500
M205 X20 Y20
G1 F1800 X137.895 Y117.348 E52.24436
M204 S5000
M205 X30 Y30
G0 F3600 X101.346 Y115.438
M204 S500
M205 X20 Y20
G1 F1800 X101.346 Y132.84 E52.82316
M204 S5000
M205 X30 Y30
G0 F3600 X98.679 Y132.84
M204 S500
M205 X20 Y20
G1 F1800 X98.679 Y115.438 E53.40195
M204 S5000
M205 X30 Y30
G1 F2400 E48.40195
;MESH:WheelCasing_test.stl
G0 F3600 X98.679 Y113.486
G0 X102.33 Y113.436
G0 X102.4 Y113.506
M204 S500
M205 X20 Y20
;TYPE:WALL-INNER
G1 F2400 E53.40195
G1 F1800 X95.6 Y113.506 E53.62812
G1 X95.6 Y102.6 E53.99085
G1 X102.4 Y102.6 E54.21702
G1 X102.4 Y113.506 E54.57976
M204 S5000
M205 X30 Y30
G0 F3600 X102.33 Y113.436
G0 X102.372 Y102.787
G0 X102.8 Y102.715
G0 X102.8 Y102.8
M204 S500
M205 X20 Y20
;TYPE:WALL-OUTER
G1 F1800 X102.8 Y113.906 E54.94915
G1 X95.755 Y113.906 E55.18346
G1 X95.755 Y132.8 E55.81188
G1 X95.2 Y132.8 E55.83034
G1 X95.2 Y102.2 E56.8481
G1 X114.8 Y102.2 E57.5
G1 X114.8 Y102.8 E57.51995
G1 X102.8 Y102.8 E57.91908
M204 S5000
M205 X30 Y30
G0 F3600 X102.8 Y103
G0 X102.01 Y102.99
M204 S500
M205 X20 Y20
;TYPE:SKIN
G1 F1800 X102.01 Y113.116 E58.25587
G1 X95.99 Y113.116 E58.45609
G1 X95.99 Y102.99 E58.79289
G1 X102.01 Y102.99 E58.99311
M204 S5000
M205 X30 Y30
G0 F3600 X101.829 Y103.526
M204 S500
M205 X20 Y20
G1 F1800 X101.471 Y103.169 E59.00993
M204 S5000
M205 X30 Y30
G0 F3600 X100.906 Y103.169
M204 S500
M205 X20 Y20
G1 F1800 X101.829 Y104.092 E59.05334
M204 S5000
M205 X30 Y30
G0 F3600 X101.829 Y104.658
M204 S500
M205 X20 Y20
G1 F1800 X100.34 Y103.169 E59.12338
M204 S5000
M205 X30 Y30
G0 F3600 X99.774 Y103.169
M204 S500
M205 X20 Y20
G1 F1800 X101.829 Y105.223 E59.22002
M204 S5000
M205 X30 Y30
G0 F3600 X101.829 Y105.789
M204 S500
M205 X20 Y20
G1 F1800 X99.209 Y103.169 E59.34326
M204 S5000
M205 X30 Y30
G0 F3600 X98.643 Y103.169
M204 S500
M205 X20 Y20
G1 F1800 X101.829 Y106.355 E59.49311
M204 S5000
M205 X30 Y30
G0 F3600 X101.829 Y106.92
M204 S500
M205 X20 Y20
G1 F1800 X98.077 Y103.169 E59.66957
M204 S5000
M205 X30 Y30
G0 F3600 X97.512 Y103.169
M204 S500
M205 X20 Y20
G1 F1800 X101.829 Y107.486 E59.87263
M204 S5000
M205 X30 Y30
G0 F3600 X101.829 Y108.052
M204 S500
M205 X20 Y20
G1 F1800 X96.946 Y103.169 E60.10231
M204 S5000
M205 X30 Y30
G0 F3600 X96.38 Y103.169
M204 S500
M205 X20 Y20
G1 F1800 X101.829 Y108.617 E60.35859
M204 S5000
M205 X30 Y30
G0 F3600 X101.829 Y109.183
M204 S500
M205 X20 Y20
G1 F1800 X96.17 Y103.523 E60.6248
M204 S5000
M205 X30 Y30
G0 F3600 X96.17 Y104.089
M204 S500
M205 X20 Y20
G1 F1800 X101.829 Y109.749 E60.89101
M204 S5000
M205 X30 Y30
G0 F3600 X101.829 Y110.315
M204 S500
M205 X20 Y20
G1 F1800 X96.17 Y104.655 E61.15721
M204 S5000
M205 X30 Y30
G0 F3600 X96.17 Y105.221
M204 S500
M205 X20 Y20
G1 F1800 X101.829 Y110.88 E61.42339
M204 S5000
M205 X30 Y30
G0 F3600 X101.829 Y111.446
M204 S500
M205 X20 Y20
G1 F1800 X96.17 Y105.786 E61.6896
M204 S5000
M205 X30 Y30
G0 F3600 X96.17 Y106.352
M204 S500
M205 X20 Y20
G1 F1800 X101.829 Y112.012 E61.9558
M204 S5000
M205 X30 Y30
G0 F3600 X101.829 Y112.577
M204 S500
M205 X20 Y20
G1 F1800 X96.17 Y106.918 E62.22199
M204 S5000
M205 X30 Y30
G0 F3600 X96.17 Y107.483
M204 S500
M205 X20 Y20
G1 F1800 X101.621 Y112.935 E62.47841
M204 S5000
M205 X30 Y30
G0 F3600 X101.056 Y112.935
M204 S500
M205 X20 Y20
G1 F1800 X96.17 Y108.049 E62.70823
M204 S5000
M205 X30 Y30
G0 F3600 X96.17 Y108.615
M204 S500
M205 X20 Y20
G1 F1800 X100.49 Y112.935 E62.91143
M204 S5000
M205 X30 Y30
G0 F3600 X99.924 Y112.935
M204 S500
M205 X20 Y20
G1 F1800 X96.17 Y109.18 E63.08803
M204 S5000
M205 X30 Y30
G0 F3600 X96.17 Y109.746
M204 S500
M205 X20 Y20
G1 F1800 X99.359 Y112.935 E63.23803
M204 S5000
M205 X30 Y30
G0 F3600 X98.793 Y112.935
M204 S500
M205 X20 Y20
G1 F1800 X96.17 Y110.312 E63.36141
M204 S5000
M205 X30 Y30
G0 F3600 X96.17 Y110.877
M204 S500
M205 X20 Y20
G1 F1800 X98.227 Y112.935 E63.45819
M204 S5000
M205 X30 Y30
G0 F3600 X97.662 Y112.935
M204 S500
M205 X20 Y20
G1 F1800 X96.17 Y111.443 E63.52837
M204 S5000
M205 X30 Y30
G0 F3600 X96.17 Y112.009
M204 S500
M205 X20 Y20
G1 F1800 X97.096 Y112.935 E63.57192
M204 S5000
M205 X30 Y30
G0 F3600 X96.53 Y112.935
