;FLAVOR:Marlin
;TIME:7635
;Filament used: 5.76668m
;Layer height: 0.2
;MINX:41
;MINY:101
;MINZ:0.2
;MAXX:194
;MAXY:134
;MAXZ:39
;Generated with Cura_SteamEngine master
M140 S50
M105
M190 S50
M104 S205
M105
M109 S205
M82 ;absolute extrusion mode
; Ender 3 Custom Start G-code
G92 E0 ; Reset Extruder
G28 ; Home all axes
G1 Z2.0 F3000 ; Move Z Axis up little to prevent scratching of Heat Bed
G1 X0.1 Y20 Z0.3 F5000.0 ; Move to start position
G1 X0.1 Y200.0 Z0.3 F1500.0 E15 ; Draw the first line
G1 X0.4 Y200.0 Z0.3 F5000.0 ; Move to side a little
G1 X0.4 Y20 Z0.3 F1500.0 E30 ; Draw the second line
G92 E0 ; Reset Extruder
G1 Z2.0 F3000 ; Move Z Axis up little to prevent scratching of Heat Bed
G1 X5 Y20 Z0.3 F5000.0 ; Move over to prevent blob squish
G92 E0
G92 E0
G1 F2700 E-5
;LAYER_COUNT:195
;LAYER:0
M107
G0 F6000 X47.239 Y102.097 Z0.2
;TYPE:SKIRT
G1 F2700 E0
G1 F1200 X48.101 Y101.727 E0.0312
G1 X48.991 Y101.431 E0.0624
G1 X49.903 Y101.213 E0.09358
G1 X50.83 Y101.072 E0.12477
G1 X51.701 Y101.013 E0.15381
G1 X52.022 Y101.004 E0.16449
G1 X52.33 Y101 E0.17473
G1 X182.293 Y101 E4.49732
G1 X183.149 Y101.011 E4.52579
G1 X184.085 Y101.065 E4.55697
G1 X185.013 Y101.197 E4.58815
G1 X185.927 Y101.409 E4.61936
G1 X186.819 Y101.698 E4.65054
G1 X187.684 Y102.061 E4.68174
G1 X188.514 Y102.497 E4.71293
G1 X189.305 Y103.002 E4.74414
G1 X190.049 Y103.573 E4.77533
G1 X190.742 Y104.205 E4.80653
G1 X191.379 Y104.893 E4.83771
G1 X191.954 Y105.634 E4.86891
G1 X192.465 Y106.42 E4.90009
G1 X192.907 Y107.248 E4.93131
G1 X193.276 Y108.11 E4.9625
G1 X193.571 Y109 E4.99368
G1 X193.789 Y109.912 E5.02487
G1 X193.929 Y110.84 E5.05608
G1 X193.987 Y111.701 E5.08479
G1 X193.996 Y112.021 E5.09543
G1 X194 Y112.33 E5.10571
G1 X193.999 Y122.4 E5.44064
G1 X193.99 Y123.127 E5.46482
G1 X193.939 Y124.064 E5.49603
G1 X193.807 Y124.992 E5.52721
G1 X193.598 Y125.906 E5.55839
G1 X193.311 Y126.799 E5.58959
G1 X192.949 Y127.665 E5.62081
G1 X192.515 Y128.496 E5.65199
G1 X192.011 Y129.287 E5.68319
G1 X191.442 Y130.032 E5.71437
G1 X190.811 Y130.727 E5.74559
G1 X190.124 Y131.365 E5.77677
G1 X189.385 Y131.942 E5.80796
G1 X188.599 Y132.454 E5.83915
G1 X187.773 Y132.897 E5.87033
G1 X186.911 Y133.269 E5.90156
G1 X186.022 Y133.565 E5.93272
G1 X185.11 Y133.785 E5.96392
G1 X184.183 Y133.926 E5.99511
G1 X183.299 Y133.987 E6.02458
G1 X182.978 Y133.996 E6.03526
G1 X182.67 Y134 E6.04551
G1 X52.565 Y133.999 E10.37282
G1 X51.867 Y133.99 E10.39603
G1 X50.931 Y133.938 E10.42721
G1 X50.002 Y133.806 E10.45842
G1 X49.088 Y133.596 E10.48962
G1 X48.195 Y133.309 E10.52081
G1 X47.33 Y132.946 E10.55201
G1 X46.499 Y132.512 E10.58319
G1 X45.708 Y132.008 E10.61439
G1 X44.963 Y131.438 E10.64559
G1 X44.269 Y130.807 E10.67679
G1 X43.632 Y130.12 E10.70795
G1 X43.055 Y129.38 E10.73916
G1 X42.543 Y128.594 E10.77036
G1 X42.1 Y127.767 E10.80156
G1 X41.729 Y126.906 E10.83274
G1 X41.433 Y126.016 E10.86394
G1 X41.214 Y125.104 E10.89513
G1 X41.073 Y124.177 E10.92632
G1 X41.013 Y123.288 E10.95596
G1 X41.004 Y122.955 E10.96704
G1 X41 Y122.658 E10.97692
G1 X41.001 Y112.525 E11.31394
G1 X41.01 Y111.86 E11.33606
G1 X41.063 Y110.924 E11.36724
G1 X41.195 Y109.995 E11.39845
G1 X41.406 Y109.081 E11.42965
G1 X41.694 Y108.189 E11.46083
G1 X42.057 Y107.324 E11.49203
G1 X42.492 Y106.493 E11.52322
G1 X42.996 Y105.703 E11.55439
G1 X43.566 Y104.958 E11.58559
G1 X44.198 Y104.264 E11.61681
G1 X44.886 Y103.627 E11.648
G1 X45.626 Y103.051 E11.67919
G1 X46.412 Y102.539 E11.71039
G1 X47.239 Y102.097 E11.74157
G0 F6000 X47.611 Y102.364
G1 F1200 X48.465 Y102.019 E11.77221
G1 X49.345 Y101.749 E11.80282
G1 X50.245 Y101.557 E11.83343
G1 X51.159 Y101.443 E11.86407
G1 X51.712 Y101.413 E11.88249
G1 X52.033 Y101.404 E11.89317
G1 X52.33 Y101.4 E11.90305
G1 X182.293 Y101.4 E16.22563
G1 X183.143 Y101.411 E16.25391
G1 X184.062 Y101.464 E16.28452
G1 X184.973 Y101.597 E16.31514
G1 X185.869 Y101.808 E16.34576
G1 X186.743 Y102.096 E16.37637
G1 X187.59 Y102.459 E16.40702
G1 X188.401 Y102.894 E16.43763
G1 X189.171 Y103.398 E16.46824
G1 X189.895 Y103.967 E16.49886
G1 X190.567 Y104.597 E16.5295
G1 X191.182 Y105.282 E16.56012
G1 X191.735 Y106.018 E16.59074
G1 X192.222 Y106.799 E16.62135
G1 X192.639 Y107.62 E16.65198
G1 X192.984 Y108.474 E16.68261
G1 X193.253 Y109.354 E16.71322
G1 X193.445 Y110.255 E16.74386
G1 X193.558 Y111.168 E16.77446
G1 X193.587 Y111.712 E16.79257
G1 X193.596 Y112.032 E16.80322
G1 X193.6 Y112.33 E16.81313
G1 X193.599 Y122.395 E17.1479
G1 X193.59 Y123.122 E17.17208
G1 X193.539 Y124.041 E17.20269
G1 X193.408 Y124.953 E17.23334
G1 X193.198 Y125.849 E17.26395
G1 X192.912 Y126.724 E17.29456
G1 X192.551 Y127.571 E17.32519
G1 X192.117 Y128.383 E17.35581
G1 X191.615 Y129.155 E17.38644
G1 X191.047 Y129.88 E17.41707
G1 X190.419 Y130.553 E17.44769
G1 X189.735 Y131.169 E17.4783
G1 X189 Y131.723 E17.50891
G1 X188.22 Y132.212 E17.53953
G1 X187.4 Y132.631 E17.57016
G1 X186.547 Y132.977 E17.60078
G1 X185.667 Y133.248 E17.6314
G1 X184.767 Y133.441 E17.66202
G1 X183.853 Y133.556 E17.69266
G1 X183.288 Y133.587 E17.71148
G1 X182.967 Y133.596 E17.72216
G1 X182.67 Y133.6 E17.73204
G1 X52.57 Y133.599 E22.05918
G1 X51.872 Y133.59 E22.0824
G1 X50.953 Y133.538 E22.11301
G1 X50.042 Y133.407 E22.14363
G1 X49.146 Y133.197 E22.17423
G1 X48.271 Y132.91 E22.20486
G1 X47.424 Y132.548 E22.2355
G1 X46.612 Y132.114 E22.26612
G1 X45.841 Y131.612 E22.29672
G1 X45.116 Y131.044 E22.32735
G1 X44.443 Y130.415 E22.35799
G1 X43.828 Y129.731 E22.38859
G1 X43.274 Y128.996 E22.4192
G1 X42.786 Y128.215 E22.44983
G1 X42.367 Y127.395 E22.48046
G1 X42.021 Y126.542 E22.51107
G1 X41.751 Y125.662 E22.54169
G1 X41.558 Y124.761 E22.57234
G1 X41.444 Y123.848 E22.60294
G1 X41.413 Y123.277 E22.62196
G1 X41.404 Y122.944 E22.63304
G1 X41.4 Y122.658 E22.64255
G1 X41.401 Y112.531 E22.97938
G1 X41.41 Y111.866 E23.0015
G1 X41.462 Y110.946 E23.03214
G1 X41.594 Y110.035 E23.06276
G1 X41.805 Y109.139 E23.09338
G1 X42.092 Y108.264 E23.124
G1 X42.455 Y107.418 E23.15462
G1 X42.889 Y106.606 E23.18525
G1 X43.392 Y105.835 E23.21586
G1 X43.961 Y105.111 E23.24649
G1 X44.589 Y104.439 E23.27708
G1 X45.274 Y103.823 E23.30772
G1 X46.01 Y103.27 E23.33834
G1 X46.791 Y102.782 E23.36897
G1 X47.611 Y102.364 E23.39959
G0 F6000 X47.982 Y102.638
G1 F1200 X48.827 Y102.318 E23.42964
G1 X49.696 Y102.075 E23.45965
G1 X50.584 Y101.909 E23.4897
G1 X51.723 Y101.813 E23.52771
G1 X52.044 Y101.804 E23.53839
G1 X52.33 Y101.8 E23.54791
G1 X182.293 Y101.8 E27.8705
G1 X183.137 Y101.811 E27.89857
G1 X184.039 Y101.864 E27.92862
G1 X184.932 Y101.996 E27.95865
G1 X185.81 Y102.207 E27.98868
G1 X186.666 Y102.495 E28.01872
G1 X187.493 Y102.857 E28.04874
G1 X188.285 Y103.292 E28.0788
G1 X189.036 Y103.794 E28.10884
G1 X189.739 Y104.361 E28.13888
G1 X190.389 Y104.988 E28.16892
G1 X190.981 Y105.67 E28.19896
G1 X191.511 Y106.401 E28.22899
G1 X191.973 Y107.177 E28.25903
G1 X192.366 Y107.99 E28.28906
G1 X192.684 Y108.835 E28.31909
G1 X192.927 Y109.705 E28.34913
G1 X193.092 Y110.593 E28.37917
G1 X193.187 Y111.723 E28.41689
G1 X193.196 Y112.043 E28.42754
G1 X193.2 Y112.33 E28.43708
G1 X193.199 Y122.39 E28.77168
G1 X193.19 Y123.117 E28.79586
G1 X193.139 Y124.019 E28.82591
G1 X193.008 Y124.913 E28.85596
G1 X192.799 Y125.791 E28.88598
G1 X192.513 Y126.648 E28.91603
G1 X192.152 Y127.476 E28.94607
G1 X191.72 Y128.268 E28.97608
G1 X191.219 Y129.02 E29.00613
G1 X190.653 Y129.724 E29.03618
G1 X190.028 Y130.375 E29.06619
G1 X189.347 Y130.969 E29.09625
G1 X188.616 Y131.5 E29.1263
G1 X187.842 Y131.964 E29.15632
G1 X187.029 Y132.358 E29.18636
G1 X186.185 Y132.678 E29.21639
G1 X185.315 Y132.923 E29.24645
G1 X184.428 Y133.089 E29.27646
G1 X183.277 Y133.187 E29.31488
G1 X182.956 Y133.196 E29.32556
G1 X182.67 Y133.2 E29.33508
G1 X52.575 Y133.199 E33.66205
G1 X51.877 Y133.19 E33.68527
G1 X50.976 Y133.139 E33.71529
G1 X50.082 Y133.007 E33.74534
G1 X49.204 Y132.798 E33.77536
G1 X48.347 Y132.511 E33.80542
G1 X47.52 Y132.15 E33.83543
G1 X46.727 Y131.717 E33.86549
G1 X45.976 Y131.216 E33.89551
G1 X45.272 Y130.65 E33.92556
G1 X44.621 Y130.024 E33.95559
G1 X44.028 Y129.343 E33.98563
G1 X43.498 Y128.612 E34.01566
G1 X43.034 Y127.837 E34.0457
G1 X42.64 Y127.024 E34.07575
G1 X42.32 Y126.18 E34.10577
G1 X42.076 Y125.31 E34.13583
G1 X41.91 Y124.422 E34.16587
G1 X41.813 Y123.267 E34.20442
G1 X41.804 Y122.934 E34.2155
G1 X41.8 Y122.658 E34.22468
G1 X41.801 Y112.536 E34.56134
G1 X41.81 Y111.871 E34.58346
G1 X41.862 Y110.969 E34.61351
G1 X41.994 Y110.076 E34.64354
G1 X42.204 Y109.198 E34.67356
G1 X42.491 Y108.341 E34.70362
G1 X42.853 Y107.514 E34.73365
G1 X43.286 Y106.722 E34.76367
G1 X43.788 Y105.971 E34.79372
G1 X44.355 Y105.267 E34.82378
G1 X44.981 Y104.617 E34.8538
G1 X45.662 Y104.024 E34.88383
G1 X46.394 Y103.494 E34.91389
G1 X47.169 Y103.031 E34.94391
G1 X47.982 Y102.638 E34.97395
G1 F2700 E29.97395
;MESH:KinectSpacer_longer_join.stl
G0 F6000 X52.42 Y111.335
G0 X52.42 Y112.42
G0 X182.218 Y112.782
G0 X182.4 Y122.4
;TYPE:WALL-INNER
G1 F2700 E34.97395
G1 F1200 X52.6 Y122.4 E39.29111
G1 X52.6 Y112.6 E39.61706
G1 X182.4 Y112.6 E43.93423
G1 X182.4 Y122.4 E44.26018
G0 F6000 X182.8 Y122.8
;TYPE:WALL-OUTER
G1 F1200 X52.2 Y122.8 E48.60395
G1 X52.2 Y112.2 E48.95651
G1 X182.8 Y112.2 E53.30028
G1 X182.8 Y122.8 E53.65284
G0 F6000 X182.53 Y122.53
G0 X182.29 Y122.01
G0 X182.01 Y122.01
;TYPE:SKIN
G1 F1200 X52.99 Y122.01 E57.94406
G1 X52.99 Y112.99 E58.24407
G1 X182.01 Y112.99 E62.53529
G1 X182.01 Y122.01 E62.8353
G0 F6000 X182.29 Y122.01
G0 X182.29 Y113.401
G0 X181.849 Y113.401
G1 F1200 X181.597 Y113.149 E62.84715
G0 F6000 X181.032 Y113.149
G1 F1200 X181.849 Y113.967 E62.8856
G0 F6000 X181.849 Y114.532
G1 F1200 X180.466 Y113.149 E62.95066
G0 F6000 X179.9 Y113.149
G1 F1200 X181.849 Y115.098 E63.04233
G0 F6000 X181.849 Y115.664
G1 F1200 X179.335 Y113.149 E63.16061
G0 F6000 X178.769 Y113.149
G1 F1200 X181.849 Y116.229 E63.30548
G0 F6000 X181.849 Y116.795
G1 F1200 X178.203 Y113.149 E63.47698
G0 F6000 X177.637 Y113.149
G1 F1200 X181.849 Y117.361 E63.6751
G0 F6000 X181.849 Y117.927
G1 F1200 X177.072 Y113.149 E63.89981
G0 F6000 X176.506 Y113.149
G1 F1200 X181.849 Y118.492 E64.15113
G0 F6000 X181.849 Y119.058
G1 F1200 X175.94 Y113.149 E64.42907
G0 F6000 X175.375 Y113.149
G1 F1200 X181.849 Y119.624 E64.73361
G0 F6000 X181.849 Y120.189
G1 F1200 X174.809 Y113.149 E65.06475
G0 F6000 X174.243 Y113.149
G1 F1200 X181.849 Y120.755 E65.42252
G0 F6000 X181.849 Y121.321
G1 F1200 X173.678 Y113.149 E65.80688
G0 F6000 X173.112 Y113.149
G1 F1200 X181.812 Y121.849 E66.2161
G0 F6000 X181.246 Y121.849
G1 F1200 X172.546 Y113.149 E66.62532
G0 F6000 X171.981 Y113.149
G1 F1200 X180.68 Y121.849 E67.03452
G0 F6000 X180.114 Y121.849
G1 F1200 X171.415 Y113.149 E67.44372
G0 F6000 X170.849 Y113.149
G1 F1200 X179.549 Y121.849 E67.85294
G0 F6000 X178.983 Y121.849
G1 F1200 X170.284 Y113.149 E68.26214
G0 F6000 X169.718 Y113.149
G1 F1200 X178.417 Y121.849 E68.67134
G0 F6000 X177.852 Y121.849
G1 F1200 X169.152 Y113.149 E69.08056
G0 F6000 X168.586 Y113.149
G1 F1200 X177.286 Y121.849 E69.48978
G0 F6000 X176.72 Y121.849
G1 F1200 X168.021 Y113.149 E69.89898
G0 F6000 X167.455 Y113.149
G1 F1200 X176.155 Y121.849 E70.3082
G0 F6000 X175.589 Y121.849
G1 F1200 X166.889 Y113.149 E70.71742
G0 F6000 X166.324 Y113.149
G1 F1200 X175.023 Y121.849 E71.12662
G0 F6000 X174.458 Y121.849
G1 F1200 X165.758 Y113.149 E71.53584
G0 F6000 X165.192 Y113.149
G1 F1200 X173.892 Y121.849 E71.94506
G0 F6000 X173.326 Y121.849
G1 F1200 X164.627 Y113.149 E72.35426
G0 F6000 X164.061 Y113.149
G1 F1200 X172.761 Y121.849 E72.76348
G0 F6000 X172.195 Y121.849
G1 F1200 X163.495 Y113.149 E73.1727
G0 F6000 X162.93 Y113.149
G1 F1200 X171.629 Y121.849 E73.5819
G0 F6000 X171.063 Y121.849
G1 F1200 X162.364 Y113.149 E73.99109
G0 F6000 X161.798 Y113.149
G1 F1200 X170.498 Y121.849 E74.40032
G0 F6000 X169.932 Y121.849
G1 F1200 X161.233 Y113.149 E74.80951
G0 F6000 X160.667 Y113.149
G1 F1200 X169.366 Y121.849 E75.21871
G0 F6000 X168.801 Y121.849
G1 F1200 X160.101 Y113.149 E75.62793
G0 F6000 X159.536 Y113.149
G1 F1200 X168.235 Y121.849 E76.03713
G0 F6000 X167.669 Y121.849
G1 F1200 X158.97 Y113.149 E76.44633
G0 F6000 X158.404 Y113.149
G1 F1200 X167.104 Y121.849 E76.85555
G0 F6000 X166.538 Y121.849
G1 F1200 X157.838 Y113.149 E77.26477
G0 F6000 X157.273 Y113.149
G1 F1200 X165.972 Y121.849 E77.67397
G0 F6000 X165.407 Y121.849
G1 F1200 X156.707 Y113.149 E78.08319
G0 F6000 X156.141 Y113.149
G1 F1200 X164.841 Y121.849 E78.49241
G0 F6000 X164.275 Y121.849
G1 F1200 X155.576 Y113.149 E78.90161
G0 F6000 X155.01 Y113.149
G1 F1200 X163.71 Y121.849 E79.31083
G0 F6000 X163.144 Y121.849
G1 F1200 X154.444 Y113.149 E79.72005
G0 F6000 X153.879 Y113.149
G1 F1200 X162.578 Y121.849 E80.12925
G0 F6000 X162.013 Y121.849
G1 F1200 X153.313 Y113.149 E80.53847
G0 F6000 X152.747 Y113.149
G1 F1200 X161.447 Y121.849 E80.94769
G0 F6000 X160.881 Y121.849
G1 F1200 X152.182 Y113.149 E81.35689
G0 F6000 X151.616 Y113.149
G1 F1200 X160.315 Y121.849 E81.76609
G0 F6000 X159.75 Y121.849
G1 F1200 X151.05 Y113.149 E82.17531
G0 F6000 X150.485 Y113.149
G1 F1200 X159.184 Y121.849 E82.58451
G0 F6000 X158.618 Y121.849
G1 F1200 X149.919 Y113.149 E82.99371
G0 F6000 X149.353 Y113.149
G1 F1200 X158.053 Y121.849 E83.40293
G0 F6000 X157.487 Y121.849
G1 F1200 X148.787 Y113.149 E83.81215
G0 F6000 X148.222 Y113.149
G1 F1200 X156.921 Y121.849 E84.22135
G0 F6000 X156.356 Y121.849
G1 F1200 X147.656 Y113.149 E84.63057
G0 F6000 X147.09 Y113.149
G1 F1200 X155.79 Y121.849 E85.03979
G0 F6000 X155.224 Y121.849
G1 F1200 X146.525 Y113.149 E85.44899
G0 F6000 X145.959 Y113.149
G1 F1200 X154.659 Y121.849 E85.85821
G0 F6000 X154.093 Y121.849
G1 F1200 X145.393 Y113.149 E86.26743
G0 F6000 X144.828 Y113.149
G1 F1200 X153.527 Y121.849 E86.67663
G0 F6000 X152.962 Y121.849
G1 F1200 X144.262 Y113.149 E87.08585
G0 F6000 X143.696 Y113.149
G1 F1200 X152.396 Y121.849 E87.49507
G0 F6000 X151.83 Y121.849
G1 F1200 X143.131 Y113.149 E87.90427
G0 F6000 X142.565 Y113.149
G1 F1200 X151.264 Y121.849 E88.31346
G0 F6000 X150.699 Y121.849
G1 F1200 X141.999 Y113.149 E88.72269
G0 F6000 X141.434 Y113.149
G1 F1200 X150.133 Y121.849 E89.13188
G0 F6000 X149.567 Y121.849
G1 F1200 X140.868 Y113.149 E89.54108
G0 F6000 X140.302 Y113.149
G1 F1200 X149.002 Y121.849 E89.9503
G0 F6000 X148.436 Y121.849
G1 F1200 X139.737 Y113.149 E90.3595
G0 F6000 X139.171 Y113.149
G1 F1200 X147.87 Y121.849 E90.7687
G0 F6000 X147.305 Y121.849
G1 F1200 X138.605 Y113.149 E91.17792
G0 F6000 X138.039 Y113.149
G1 F1200 X146.739 Y121.849 E91.58714
G0 F6000 X146.173 Y121.849
G1 F1200 X137.474 Y113.149 E91.99634
G0 F6000 X136.908 Y113.149
G1 F1200 X145.608 Y121.849 E92.40556
G0 F6000 X145.042 Y121.849
G1 F1200 X136.342 Y113.149 E92.81478
G0 F6000 X135.777 Y113.149
G1 F1200 X144.476 Y121.849 E93.22398
G0 F6000 X143.911 Y121.849
G1 F1200 X135.211 Y113.149 E93.6332
G0 F6000 X134.645 Y113.149
G1 F1200 X143.345 Y121.849 E94.04242
G0 F6000 X142.779 Y121.849
G1 F1200 X134.08 Y113.149 E94.45162
G0 F6000 X133.514 Y113.149
G1 F1200 X142.214 Y121.849 E94.86084
G0 F6000 X141.648 Y121.849
G1 F1200 X132.948 Y113.149 E95.27006
G0 F6000 X132.383 Y113.149
G1 F1200 X141.082 Y121.849 E95.67926
G0 F6000 X140.516 Y121.849
G1 F1200 X131.817 Y113.149 E96.08846
G0 F6000 X131.251 Y113.149
G1 F1200 X139.951 Y121.849 E96.49768
G0 F6000 X139.385 Y121.849
G1 F1200 X130.686 Y113.149 E96.90688
G0 F6000 X130.12 Y113.149
G1 F1200 X138.819 Y121.849 E97.31608
G0 F6000 X138.254 Y121.849
G1 F1200 X129.554 Y113.149 E97.7253
G0 F6000 X128.989 Y113.149
G1 F1200 X137.688 Y121.849 E98.13449
G0 F6000 X137.122 Y121.849
G1 F1200 X128.423 Y113.149 E98.54369
G0 F6000 X127.857 Y113.149
G1 F1200 X136.557 Y121.849 E98.95291
G0 F6000 X135.991 Y121.849
G1 F1200 X127.291 Y113.149 E99.36214
G0 F6000 X126.726 Y113.149
G1 F1200 X135.425 Y121.849 E99.77133
G0 F6000 X134.86 Y121.849
G1 F1200 X126.16 Y113.149 E100.18055
G0 F6000 X125.594 Y113.149
G1 F1200 X134.294 Y121.849 E100.58978
G0 F6000 X133.728 Y121.849
G1 F1200 X125.029 Y113.149 E100.99897
G0 F6000 X124.463 Y113.149
G1 F1200 X133.163 Y121.849 E101.40819
G0 F6000 X132.597 Y121.849
G1 F1200 X123.897 Y113.149 E101.81742
G0 F6000 X123.332 Y113.149
G1 F1200 X132.031 Y121.849 E102.22661
