;FLAVOR:Marlin
;TIME:308
;Filament used: 0.123099m
;Layer height: 0.2
;MINX:97.5
;MINY:68.998
;MINZ:0.2
;MAXX:137.5
;MAXY:131.502
;MAXZ:1.6
;Generated with Cura_SteamEngine master
M140 S50
M105
M190 S50
M104 S205
M105
M109 S205
M82 ;absolute extrusion mode
; Ender 3 Custom Start G-code
G92 E0 ; Reset Extruder
G28 ; Home all axes
G1 Z2.0 F3000 ; Move Z Axis up little to prevent scratching of Heat Bed
G1 X0.1 Y20 Z0.3 F5000.0 ; Move to start position
G1 X0.1 Y200.0 Z0.3 F1500.0 E15 ; Draw the first line
G1 X0.4 Y200.0 Z0.3 F5000.0 ; Move to side a little
G1 X0.4 Y20 Z0.3 F1500.0 E30 ; Draw the second line
G92 E0 ; Reset Extruder
G1 Z2.0 F3000 ; Move Z Axis up little to prevent scratching of Heat Bed
G1 X5 Y20 Z0.3 F5000.0 ; Move over to prevent blob squish
G92 E0
G92 E0
G1 F2700 E-5
;LAYER_COUNT:8
;LAYER:0
M107
G0 F6000 X99.496 Y73.703 Z0.2
;TYPE:SKIRT
G1 F2700 E0
G1 F1200 X100.066 Y72.958 E0.0312
G1 X100.697 Y72.265 E0.06237
G1 X101.385 Y71.627 E0.09358
G1 X102.125 Y71.051 E0.12477
G1 X102.911 Y70.54 E0.15595
G1 X103.738 Y70.097 E0.18715
G1 X104.6 Y69.727 E0.21835
G1 X105.49 Y69.431 E0.24955
G1 X106.402 Y69.213 E0.28074
G1 X107.329 Y69.072 E0.31192
G1 X108.201 Y69.013 E0.34099
G1 X108.522 Y69.004 E0.35167
G1 X108.823 Y69 E0.36169
G1 X112.151 Y68.998 E0.47238
G1 X113.094 Y69 E0.50374
G1 X122.904 Y68.999 E0.83002
G1 X123.082 Y69.007 E0.83595
G1 X125.968 Y69.002 E0.93194
G1 X126.638 Y69.011 E0.95422
G1 X127.574 Y69.064 E0.98541
G1 X128.503 Y69.196 E1.01661
G1 X129.417 Y69.406 E1.04781
G1 X130.309 Y69.694 E1.07898
G1 X131.174 Y70.057 E1.11018
G1 X132.005 Y70.492 E1.14138
G1 X132.796 Y70.997 E1.17259
G1 X133.54 Y71.567 E1.20377
G1 X134.234 Y72.198 E1.23496
G1 X134.871 Y72.886 E1.26615
G1 X135.448 Y73.626 E1.29736
G1 X135.959 Y74.412 E1.32854
G1 X136.401 Y75.239 E1.35973
G1 X136.772 Y76.101 E1.39094
G1 X137.067 Y76.991 E1.42213
G1 X137.286 Y77.903 E1.45332
G1 X137.427 Y78.83 E1.48451
G1 X137.486 Y79.701 E1.51355
G1 X137.496 Y80.057 E1.52539
G1 X137.5 Y80.366 E1.53567
G1 X137.499 Y85.438 E1.70436
G1 X137.488 Y86.175 E1.72888
G1 X137.399 Y87.412 E1.77013
G1 X137.242 Y88.63 E1.81097
G1 X137.212 Y88.843 E1.81813
G1 X136.926 Y91.326 E1.90126
G1 X136.704 Y93.879 E1.98649
G1 X136.561 Y96.345 E2.06865
G1 X136.485 Y98.876 E2.15287
G1 X136.481 Y101.399 E2.23679
G1 X136.548 Y103.916 E2.32053
G1 X136.686 Y106.413 E2.40371
G1 X136.895 Y108.919 E2.48735
G1 X137.183 Y111.492 E2.57346
G1 X137.392 Y113.039 E2.62538
G1 X137.487 Y114.201 E2.66416
G1 X137.496 Y114.521 E2.67481
G1 X137.5 Y114.83 E2.68508
G1 X137.499 Y119.9 E2.85371
G1 X137.49 Y120.627 E2.8779
G1 X137.439 Y121.564 E2.90911
G1 X137.307 Y122.492 E2.94028
G1 X137.098 Y123.406 E2.97147
G1 X136.811 Y124.299 E3.00266
G1 X136.449 Y125.165 E3.03388
G1 X136.015 Y125.996 E3.06506
G1 X135.511 Y126.787 E3.09626
G1 X134.942 Y127.532 E3.12744
G1 X134.311 Y128.227 E3.15866
G1 X133.624 Y128.865 E3.18984
G1 X132.885 Y129.442 E3.22103
G1 X132.099 Y129.954 E3.25223
G1 X131.273 Y130.397 E3.2834
G1 X130.411 Y130.769 E3.31463
G1 X129.522 Y131.065 E3.34579
G1 X128.61 Y131.285 E3.377
G1 X127.683 Y131.426 E3.40818
G1 X126.799 Y131.487 E3.43765
G1 X126.478 Y131.496 E3.44833
G1 X126.177 Y131.5 E3.45835
G1 X122.856 Y131.502 E3.5688
G1 X121.505 Y131.5 E3.61374
G1 X113.053 Y131.5 E3.89485
G1 X112.012 Y131.498 E3.92948
G1 X111.783 Y131.5 E3.93709
G1 X109.049 Y131.499 E4.02803
G1 X108.351 Y131.489 E4.05125
G1 X107.415 Y131.435 E4.08243
G1 X106.487 Y131.303 E4.1136
G1 X105.573 Y131.091 E4.14481
G1 X104.681 Y130.802 E4.176
G1 X103.816 Y130.439 E4.2072
G1 X102.986 Y130.003 E4.23838
G1 X102.195 Y129.498 E4.26959
G1 X101.451 Y128.927 E4.30079
G1 X100.758 Y128.295 E4.33198
G1 X100.121 Y127.607 E4.36317
G1 X99.546 Y126.866 E4.39436
G1 X99.035 Y126.08 E4.42554
G1 X98.593 Y125.252 E4.45676
G1 X98.224 Y124.39 E4.48795
G1 X97.929 Y123.5 E4.51913
G1 X97.711 Y122.588 E4.55032
G1 X97.571 Y121.66 E4.58154
G1 X97.513 Y120.788 E4.6106
G1 X97.504 Y120.456 E4.62165
G1 X97.5 Y120.158 E4.63156
G1 X97.501 Y115.038 E4.80185
G1 X97.512 Y114.32 E4.82574
G1 X97.601 Y113.088 E4.86682
G1 X97.758 Y111.87 E4.90767
G1 X97.788 Y111.657 E4.91482
G1 X98.074 Y109.174 E4.99795
G1 X98.296 Y106.621 E5.08319
G1 X98.439 Y104.155 E5.16534
G1 X98.515 Y101.624 E5.24956
G1 X98.519 Y99.101 E5.33348
G1 X98.452 Y96.584 E5.41722
G1 X98.314 Y94.086 E5.50043
G1 X98.105 Y91.58 E5.58407
G1 X97.814 Y88.986 E5.67089
G1 X97.608 Y87.459 E5.72214
G1 X97.513 Y86.299 E5.76085
G1 X97.504 Y85.98 E5.77146
G1 X97.5 Y85.67 E5.78178
G1 X97.501 Y80.529 E5.95277
G1 X97.51 Y79.861 E5.97499
G1 X97.563 Y78.924 E6.0062
G1 X97.695 Y77.996 E6.03738
G1 X97.906 Y77.082 E6.06858
G1 X98.193 Y76.189 E6.09977
G1 X98.556 Y75.325 E6.13094
G1 X98.991 Y74.494 E6.16214
G1 X99.496 Y73.703 E6.19335
G0 F6000 X99.892 Y73.836
G1 F1200 X100.46 Y73.111 E6.22399
G1 X101.089 Y72.439 E6.2546
G1 X101.774 Y71.824 E6.28522
G1 X102.51 Y71.27 E6.31586
G1 X103.29 Y70.783 E6.34644
G1 X104.111 Y70.365 E6.37709
G1 X104.964 Y70.019 E6.4077
G1 X105.844 Y69.749 E6.43832
G1 X106.745 Y69.557 E6.46896
G1 X107.658 Y69.443 E6.49956
G1 X108.212 Y69.413 E6.51801
G1 X108.533 Y69.404 E6.52869
G1 X108.824 Y69.4 E6.53837
G1 X112.15 Y69.398 E6.649
G1 X113.093 Y69.4 E6.68036
G1 X122.904 Y69.399 E7.00668
G1 X123.079 Y69.407 E7.0125
G1 X125.962 Y69.402 E7.10839
G1 X126.632 Y69.411 E7.13068
G1 X127.552 Y69.463 E7.16133
G1 X128.463 Y69.595 E7.19194
G1 X129.359 Y69.806 E7.22256
G1 X130.234 Y70.093 E7.25319
G1 X131.08 Y70.455 E7.28379
G1 X131.892 Y70.89 E7.31443
G1 X132.663 Y71.393 E7.34505
G1 X133.387 Y71.961 E7.37566
G1 X134.06 Y72.59 E7.40629
G1 X134.675 Y73.275 E7.43691
G1 X135.229 Y74.01 E7.46753
G1 X135.716 Y74.791 E7.49814
G1 X136.134 Y75.611 E7.52875
G1 X136.48 Y76.465 E7.5594
G1 X136.75 Y77.345 E7.59001
G1 X136.942 Y78.245 E7.62062
G1 X137.056 Y79.159 E7.65126
G1 X137.086 Y79.712 E7.66968
G1 X137.096 Y80.068 E7.68152
G1 X137.1 Y80.366 E7.69143
G1 X137.099 Y85.432 E7.85993
G1 X137.088 Y86.169 E7.88444
G1 X137.003 Y87.361 E7.92419
G1 X136.846 Y88.573 E7.96484
G1 X136.817 Y88.776 E7.97166
G1 X136.525 Y91.317 E8.05673
G1 X136.307 Y93.82 E8.1403
G1 X136.16 Y96.346 E8.22445
G1 X136.085 Y98.864 E8.30824
G1 X136.081 Y101.409 E8.39289
G1 X136.148 Y103.913 E8.4762
G1 X136.289 Y106.468 E8.56131
G1 X136.497 Y108.964 E8.64461
G1 X136.781 Y111.497 E8.72939
G1 X136.996 Y113.092 E8.78292
G1 X137.087 Y114.212 E8.82029
G1 X137.096 Y114.532 E8.83094
G1 X137.1 Y114.83 E8.84085
G1 X137.099 Y119.895 E9.00932
G1 X137.09 Y120.622 E9.0335
G1 X137.039 Y121.541 E9.06411
G1 X136.908 Y122.453 E9.09475
G1 X136.698 Y123.349 E9.12536
G1 X136.412 Y124.224 E9.15598
G1 X136.051 Y125.071 E9.1866
G1 X135.617 Y125.883 E9.21723
G1 X135.115 Y126.655 E9.24786
G1 X134.547 Y127.38 E9.27849
G1 X133.919 Y128.053 E9.3091
G1 X133.235 Y128.669 E9.33972
G1 X132.5 Y129.223 E9.37033
G1 X131.72 Y129.712 E9.40095
G1 X130.9 Y130.131 E9.43158
G1 X130.047 Y130.477 E9.4622
G1 X129.167 Y130.748 E9.49282
G1 X128.267 Y130.941 E9.52344
G1 X127.353 Y131.056 E9.55407
G1 X126.788 Y131.087 E9.5729
G1 X126.467 Y131.096 E9.58358
G1 X126.176 Y131.1 E9.59326
G1 X122.856 Y131.102 E9.70368
G1 X121.505 Y131.1 E9.74861
G1 X113.053 Y131.1 E10.02973
G1 X112.008 Y131.098 E10.06449
G1 X111.779 Y131.1 E10.0721
G1 X109.055 Y131.099 E10.1627
G1 X108.357 Y131.089 E10.18592
G1 X107.438 Y131.036 E10.21654
G1 X106.527 Y130.903 E10.24716
G1 X105.631 Y130.692 E10.27777
G1 X104.757 Y130.404 E10.30838
G1 X103.91 Y130.041 E10.33903
G1 X103.099 Y129.606 E10.36964
G1 X102.329 Y129.102 E10.40025
G1 X101.605 Y128.533 E10.43088
G1 X100.933 Y127.903 E10.46151
G1 X100.318 Y127.218 E10.49213
G1 X99.765 Y126.482 E10.52275
G1 X99.278 Y125.701 E10.55336
G1 X98.861 Y124.88 E10.58399
G1 X98.516 Y124.026 E10.61462
G1 X98.247 Y123.146 E10.64523
G1 X98.055 Y122.245 E10.67587
G1 X97.942 Y121.332 E10.70647
G1 X97.913 Y120.777 E10.72495
G1 X97.904 Y120.445 E10.736
G1 X97.9 Y120.158 E10.74555
G1 X97.901 Y115.045 E10.91561
G1 X97.912 Y114.327 E10.93949
G1 X97.997 Y113.139 E10.9791
G1 X98.154 Y111.927 E11.01975
G1 X98.183 Y111.724 E11.02657
G1 X98.475 Y109.183 E11.11164
G1 X98.693 Y106.68 E11.19521
G1 X98.84 Y104.154 E11.27936
G1 X98.915 Y101.636 E11.36315
G1 X98.919 Y99.091 E11.4478
G1 X98.852 Y96.587 E11.53111
G1 X98.711 Y94.032 E11.61622
G1 X98.503 Y91.539 E11.69943
G1 X98.218 Y88.992 E11.78467
G1 X98.004 Y87.406 E11.8379
G1 X97.913 Y86.288 E11.8752
G1 X97.904 Y85.969 E11.88582
G1 X97.9 Y85.67 E11.89576
G1 X97.901 Y80.534 E12.06659
G1 X97.91 Y79.866 E12.08881
G1 X97.962 Y78.947 E12.11942
G1 X98.094 Y78.036 E12.15004
G1 X98.305 Y77.14 E12.18066
G1 X98.592 Y76.265 E12.21128
G1 X98.955 Y75.419 E12.2419
G1 X99.389 Y74.607 E12.27253
G1 X99.892 Y73.836 E12.30314
G0 F6000 X100.288 Y73.971
G1 F1200 X100.854 Y73.268 E12.33316
G1 X101.48 Y72.617 E12.3632
G1 X102.162 Y72.024 E12.39326
G1 X102.893 Y71.494 E12.42329
G1 X103.668 Y71.031 E12.45332
G1 X104.481 Y70.638 E12.48335
G1 X105.326 Y70.318 E12.5134
G1 X106.196 Y70.075 E12.54345
G1 X107.083 Y69.909 E12.57346
G1 X108.223 Y69.813 E12.61151
G1 X108.544 Y69.804 E12.62219
G1 X108.824 Y69.8 E12.63151
G1 X112.15 Y69.798 E12.74213
G1 X113.093 Y69.8 E12.77349
G1 X122.904 Y69.799 E13.09981
G1 X123.076 Y69.807 E13.10554
G1 X125.957 Y69.802 E13.20136
G1 X126.627 Y69.811 E13.22365
G1 X127.529 Y69.863 E13.2537
G1 X128.422 Y69.995 E13.28372
G1 X129.3 Y70.205 E13.31375
G1 X130.157 Y70.492 E13.34381
G1 X130.984 Y70.853 E13.37382
G1 X131.777 Y71.287 E13.40389
G1 X132.527 Y71.789 E13.4339
G1 X133.231 Y72.355 E13.46395
G1 X133.882 Y72.981 E13.49399
G1 X134.474 Y73.663 E13.52402
G1 X135.005 Y74.394 E13.55407
G1 X135.468 Y75.169 E13.5841
G1 X135.861 Y75.982 E13.61413
G1 X136.181 Y76.827 E13.64419
G1 X136.424 Y77.696 E13.6742
G1 X136.59 Y78.584 E13.70425
G1 X136.686 Y79.724 E13.7423
G1 X136.696 Y80.08 E13.75414
G1 X136.7 Y80.366 E13.76365
G1 X136.699 Y85.426 E13.93195
G1 X136.688 Y86.163 E13.95647
G1 X136.606 Y87.31 E13.99471
G1 X136.45 Y88.516 E14.03516
G1 X136.418 Y88.741 E14.04272
G1 X136.13 Y91.241 E14.12642
G1 X135.908 Y93.795 E14.21168
G1 X135.76 Y96.347 E14.29671
G1 X135.685 Y98.851 E14.38003
G1 X135.681 Y101.42 E14.46547
G1 X135.748 Y103.945 E14.54948
G1 X135.887 Y106.452 E14.633
G1 X136.1 Y109.005 E14.7182
G1 X136.39 Y111.6 E14.80505
G1 X136.599 Y113.146 E14.85694
G1 X136.687 Y114.223 E14.89288
G1 X136.696 Y114.543 E14.90353
G1 X136.7 Y114.83 E14.91307
G1 X136.699 Y119.89 E15.08137
G1 X136.69 Y120.617 E15.10555
G1 X136.639 Y121.519 E15.1356
G1 X136.508 Y122.413 E15.16565
G1 X136.299 Y123.291 E15.19567
G1 X136.013 Y124.148 E15.22572
G1 X135.652 Y124.976 E15.25576
G1 X135.22 Y125.768 E15.28577
G1 X134.719 Y126.52 E15.31582
G1 X134.153 Y127.224 E15.34587
G1 X133.528 Y127.875 E15.37588
G1 X132.847 Y128.469 E15.40594
G1 X132.116 Y129 E15.43599
G1 X131.342 Y129.464 E15.466
G1 X130.529 Y129.858 E15.49605
G1 X129.685 Y130.178 E15.52607
G1 X128.815 Y130.423 E15.55614
G1 X127.928 Y130.589 E15.58615
G1 X126.777 Y130.687 E15.62457
G1 X126.456 Y130.696 E15.63525
G1 X126.176 Y130.7 E15.64457
G1 X122.857 Y130.702 E15.75496
G1 X121.506 Y130.7 E15.79989
G1 X113.054 Y130.7 E16.08101
G1 X112.006 Y130.698 E16.11586
G1 X111.776 Y130.7 E16.12351
G1 X109.061 Y130.699 E16.21381
G1 X108.363 Y130.689 E16.23703
G1 X107.461 Y130.636 E16.26708
G1 X106.568 Y130.504 E16.29711
G1 X105.69 Y130.293 E16.32714
G1 X104.834 Y130.005 E16.35718
G1 X104.007 Y129.643 E16.38721
G1 X103.215 Y129.208 E16.41726
G1 X102.464 Y128.706 E16.44731
G1 X101.761 Y128.139 E16.47734
G1 X101.111 Y127.512 E16.50738
G1 X100.519 Y126.83 E16.53742
G1 X99.989 Y126.099 E16.56745
G1 X99.527 Y125.323 E16.59749
G1 X99.134 Y124.51 E16.62752
G1 X98.816 Y123.665 E16.65755
G1 X98.573 Y122.795 E16.6876
G1 X98.408 Y121.907 E16.71764
G1 X98.313 Y120.766 E16.75572
G1 X98.304 Y120.434 E16.76676
G1 X98.3 Y120.158 E16.77594
G1 X98.301 Y115.051 E16.9458
G1 X98.312 Y114.333 E16.96969
G1 X98.394 Y113.19 E17.0078
G1 X98.55 Y111.984 E17.04825
G1 X98.582 Y111.759 E17.05581
G1 X98.87 Y109.259 E17.13951
G1 X99.092 Y106.705 E17.22477
G1 X99.24 Y104.153 E17.3098
G1 X99.315 Y101.649 E17.39312
G1 X99.319 Y99.08 E17.47856
G1 X99.252 Y96.555 E17.56257
G1 X99.113 Y94.045 E17.64618
G1 X98.901 Y91.497 E17.73122
G1 X98.606 Y88.872 E17.81908
G1 X98.401 Y87.352 E17.87009
G1 X98.313 Y86.277 E17.90597
G1 X98.304 Y85.958 E17.91658
G1 X98.3 Y85.67 E17.92616
G1 X98.301 Y80.54 E18.09679
G1 X98.31 Y79.872 E18.11901
G1 X98.362 Y78.97 E18.14906
G1 X98.494 Y78.077 E18.17908
G1 X98.704 Y77.198 E18.20914
G1 X98.991 Y76.342 E18.23917
G1 X99.353 Y75.514 E18.26922
G1 X99.786 Y74.722 E18.29925
G1 X100.288 Y73.971 E18.32929
G1 F2700 E13.32929
;MESH:ServoLifter_Join.stl(1)
G0 F6000 X113.698 Y81.057
G0 X114.561 Y80.408
G0 X119.711 Y80.79
G0 X119.396 Y82.536
G0 X120.42 Y84.021
G0 X120.934 Y84.455
G0 X121.668 Y84.789
G0 X123.011 Y85.19
G0 X125.9 Y85.4
;TYPE:WALL-INNER
G1 F2700 E18.32929
G1 F1200 X122.688 Y85.4 E18.43612
G1 X122.009 Y85.4 E18.45871
G1 X112.389 Y85.4 E18.77867
G1 X109.1 Y85.4 E18.88806
G1 X109.1 Y80.6 E19.04771
G1 X110.245 Y80.6 E19.08579
G1 X110.171 Y80.705 E19.09007
G1 X110.005 Y81.02 E19.10191
G1 X109.889 Y81.32 E19.11261
G1 X109.806 Y81.633 E19.12338
G1 X109.756 Y81.989 E19.13533
G1 X109.754 Y82.382 E19.1484
G1 X109.82 Y82.838 E19.16373
G1 X109.924 Y83.185 E19.17578
G1 X110.069 Y83.513 E19.18771
G1 X110.293 Y83.876 E19.20189
G1 X110.52 Y84.149 E19.2137
G1 X110.757 Y84.376 E19.22462
G1 X111.043 Y84.589 E19.23648
G1 X111.355 Y84.766 E19.24841
G1 X111.716 Y84.911 E19.26135
G1 X112.033 Y84.994 E19.27225
G1 X112.389 Y85.044 E19.2842
G1 X112.782 Y85.046 E19.29655
G1 X113.237 Y84.98 E19.31185
G1 X113.552 Y84.887 E19.32277
G1 X113.906 Y84.735 E19.33558
G1 X114.21 Y84.553 E19.34737
G1 X114.447 Y84.372 E19.35729
G1 X114.703 Y84.126 E19.36909
G1 X114.926 Y83.848 E19.38095
G1 X115.1 Y83.571 E19.39183
G1 X115.252 Y83.246 E19.40376
G1 X115.385 Y82.81 E19.41892
G1 X115.437 Y82.487 E19.4298
G1 X115.451 Y82.133 E19.44159
G1 X115.424 Y81.807 E19.45247
G1 X115.363 Y81.495 E19.46304
G1 X115.253 Y81.158 E19.47483
G1 X115.116 Y80.858 E19.4858
G1 X114.953 Y80.6 E19.49595
G1 X120.044 Y80.6 E19.66528
G1 X119.991 Y80.673 E19.66828
G1 X119.819 Y80.989 E19.68025
G1 X119.687 Y81.323 E19.69219
G1 X119.581 Y81.771 E19.7075
G1 X119.549 Y82.233 E19.72291
G1 X119.576 Y82.597 E19.73504
G1 X119.657 Y82.978 E19.748
G1 X119.777 Y83.32 E19.76006
G1 X119.921 Y83.606 E19.77071
G1 X120.095 Y83.877 E19.78142
G1 X120.302 Y84.13 E19.79229
G1 X120.557 Y84.376 E19.80407
G1 X120.847 Y84.592 E19.8161
G1 X121.278 Y84.822 E19.83235
G1 X121.624 Y84.944 E19.84455
G1 X122.009 Y85.024 E19.85763
G1 X122.365 Y85.051 E19.86896
G1 X122.688 Y85.037 E19.87792
G1 X123.04 Y84.979 E19.88978
G1 X123.35 Y84.887 E19.90054
G1 X123.677 Y84.75 E19.91233
G1 X124.011 Y84.552 E19.92524
G1 X124.247 Y84.372 E19.93512
G1 X124.501 Y84.126 E19.94688
G1 X124.726 Y83.849 E19.95875
G1 X124.899 Y83.573 E19.96958
G1 X125.037 Y83.283 E19.98026
G1 X125.144 Y82.977 E19.99104
G1 X125.212 Y82.662 E20.00176
G1 X125.247 Y82.34 E20.01254
G1 X125.24 Y81.956 E20.02531
G1 X125.193 Y81.628 E20.03633
G1 X125.089 Y81.252 E20.04931
G1 X124.949 Y80.92 E20.06129
G1 X124.755 Y80.603 E20.07365
G1 X125.9 Y80.601 E20.11173
G1 X125.9 Y85.4 E20.27135
G0 F6000 X126.3 Y85.8
;TYPE:WALL-OUTER
G1 F1200 X108.7 Y85.8 E20.85673
G1 X108.7 Y80.2 E21.04298
G1 X111.185 Y80.2 E21.12564
G1 X110.922 Y80.415 E21.13693
G1 X110.672 Y80.688 E21.14925
G1 X110.513 Y80.914 E21.15844
G1 X110.37 Y81.186 E21.16866
G1 X110.27 Y81.444 E21.17786
G1 X110.199 Y81.712 E21.18708
G1 X110.156 Y82.018 E21.19736
G1 X110.154 Y82.354 E21.20854
G1 X110.212 Y82.751 E21.22188
G1 X110.3 Y83.046 E21.23212
G1 X110.424 Y83.326 E21.2423
G1 X110.619 Y83.642 E21.25465
G1 X110.813 Y83.876 E21.26476
G1 X111.016 Y84.07 E21.2741
G1 X111.262 Y84.253 E21.2843
G1 X111.529 Y84.405 E21.29452
G1 X111.842 Y84.53 E21.30573
G1 X112.112 Y84.601 E21.31501
G1 X112.418 Y84.644 E21.32529
G1 X112.754 Y84.646 E21.33647
G1 X113.151 Y84.588 E21.34981
G1 X113.416 Y84.51 E21.359
G1 X113.723 Y84.378 E21.37011
G1 X113.985 Y84.221 E21.38027
G1 X114.186 Y84.068 E21.38868
G1 X114.407 Y83.855 E21.39888
G1 X114.6 Y83.616 E21.4091
