;FLAVOR:Marlin
;TIME:3591
;Filament used: 3.20703m
;Layer height: 0.28
;MINX:88.001
;MINY:21.181
;MINZ:0.28
;MAXX:131.999
;MAXY:198.819
;MAXZ:12.88
;Generated with Cura_SteamEngine 4.4.1
M140 S40
M105
M190 S40
M104 S205
M105
M109 S205
M82 ;absolute extrusion mode
M201 X500.00 Y500.00 Z100.00 E5000.00 ;Setup machine max acceleration
M203 X500.00 Y500.00 Z10.00 E50.00 ;Setup machine max feedrate
M204 P500.00 R1000.00 T500.00 ;Setup Print/Retract/Travel acceleration
M205 X8.00 Y8.00 Z0.40 E5.00 ;Setup Jerk
M220 S100 ;Reset Feedrate
M221 S100 ;Reset Flowrate

G28 ;Home

G92 E0 ;Reset Extruder
G1 Z2.0 F3000 ;Move Z Axis up
G1 X10.1 Y20 Z0.28 F5000.0 ;Move to start position
G1 X10.1 Y200.0 Z0.28 F1500.0 E15 ;Draw the first line
G1 X10.4 Y200.0 Z0.28 F5000.0 ;Move to side a little
G1 X10.4 Y20 Z0.28 F1500.0 E30 ;Draw the second line
G92 E0 ;Reset Extruder
G1 Z2.0 F3000 ;Move Z Axis up

G92 E0
G92 E0
G1 F1500 E-6.5
;LAYER_COUNT:46
;LAYER:0
M107
G0 F6000 X88.542 Y29.231 Z0.28
;TYPE:SKIRT
G1 F1500 E0
G1 F1200 X88.832 Y28.339 E0.04368
G1 X89.198 Y27.475 E0.08737
G1 X89.635 Y26.646 E0.131
G1 X90.142 Y25.857 E0.17467
G1 X90.714 Y25.113 E0.21837
G1 X91.348 Y24.422 E0.26204
G1 X92.038 Y23.787 E0.3057
G1 X92.78 Y23.212 E0.34942
G1 X93.567 Y22.704 E0.39303
G1 X94.396 Y22.264 E0.43673
G1 X95.258 Y21.896 E0.48038
G1 X96.149 Y21.603 E0.52405
G1 X97.062 Y21.387 E0.56774
G1 X97.99 Y21.25 E0.61142
G1 X98.826 Y21.194 E0.65043
G1 X99.145 Y21.185 E0.66529
G1 X99.455 Y21.181 E0.67973
G1 X115.418 Y21.181 E1.42303
G1 X115.576 Y21.182 E1.43039
G1 X116.274 Y21.192 E1.4629
G1 X117.21 Y21.246 E1.50655
G1 X118.138 Y21.378 E1.5502
G1 X119.052 Y21.59 E1.59389
G1 X119.944 Y21.879 E1.63755
G1 X120.809 Y22.242 E1.68123
G1 X121.639 Y22.678 E1.72489
G1 X122.43 Y23.183 E1.76859
G1 X123.174 Y23.754 E1.81226
G1 X123.867 Y24.386 E1.85593
G1 X124.504 Y25.074 E1.89959
G1 X125.079 Y25.815 E1.94326
G1 X125.59 Y26.601 E1.98692
G1 X126.032 Y27.429 E2.03062
G1 X126.401 Y28.291 E2.07428
G1 X126.696 Y29.181 E2.11794
G1 X126.914 Y30.093 E2.1616
G1 X127.054 Y31.021 E2.2053
G1 X127.112 Y31.882 E2.24549
G1 X127.121 Y32.202 E2.26039
G1 X127.125 Y32.511 E2.27478
G1 X127.125 Y89.242 E4.91642
G1 X127.162 Y91.85 E5.03787
G1 X127.269 Y94.371 E5.15536
G1 X127.446 Y96.866 E5.27183
G1 X127.694 Y99.366 E5.38881
G1 X128.013 Y101.859 E5.50584
G1 X128.404 Y104.352 E5.62335
G1 X128.867 Y106.842 E5.74128
G1 X129.397 Y109.305 E5.85859
G1 X129.985 Y111.701 E5.97347
G1 X130.654 Y114.135 E6.09101
G1 X131.032 Y115.343 E6.14995
G1 X131.087 Y115.526 E6.15885
G1 X131.479 Y116.859 E6.22355
G1 X131.705 Y117.769 E6.26721
G1 X131.858 Y118.74 E6.31298
G1 X131.928 Y119.366 E6.34231
G1 X131.995 Y120.456 E6.39316
G1 X131.998 Y120.706 E6.4048
G1 X131.999 Y120.839 E6.411
G1 X131.996 Y143.668 E7.47401
G1 X131.995 Y143.828 E7.48146
G1 X131.985 Y144.512 E7.51331
G1 X131.931 Y145.448 E7.55697
G1 X131.801 Y146.358 E7.59977
G1 X131.747 Y146.649 E7.61356
G1 X131.463 Y147.818 E7.66957
G1 X131.181 Y148.753 E7.71505
G1 X131.133 Y148.911 E7.72274
G1 X130.932 Y149.542 E7.75357
G1 X130.237 Y151.968 E7.87108
G1 X129.61 Y154.412 E7.98857
G1 X129.049 Y156.886 E8.10669
G1 X128.567 Y159.339 E8.2231
G1 X128.152 Y161.814 E8.33996
G1 X127.809 Y164.283 E8.45603
G1 X127.531 Y166.808 E8.57431
G1 X127.328 Y169.302 E8.69083
G1 X127.195 Y171.811 E8.80782
G1 X127.125 Y175.403 E8.97511
G1 X127.125 Y187.083 E9.51898
G1 X127.124 Y187.234 E9.52601
G1 X127.114 Y187.961 E9.55987
G1 X127.061 Y188.898 E9.60357
G1 X126.929 Y189.826 E9.64721
G1 X126.718 Y190.74 E9.69089
G1 X126.429 Y191.632 E9.73455
G1 X126.066 Y192.497 E9.77823
G1 X125.631 Y193.328 E9.82191
G1 X125.126 Y194.118 E9.86557
G1 X124.556 Y194.863 E9.90925
G1 X123.925 Y195.557 E9.95293
G1 X123.236 Y196.194 E9.99662
G1 X122.496 Y196.77 E10.04028
G1 X121.71 Y197.281 E10.08394
G1 X120.883 Y197.723 E10.1276
G1 X120.021 Y198.093 E10.17128
G1 X119.131 Y198.388 E10.21494
G1 X118.219 Y198.607 E10.25861
G1 X117.292 Y198.747 E10.30227
G1 X116.424 Y198.806 E10.34278
G1 X116.104 Y198.815 E10.35769
G1 X115.795 Y198.819 E10.37208
G1 X99.832 Y198.819 E11.11538
G1 X99.69 Y198.818 E11.12199
G1 X98.992 Y198.809 E11.1545
G1 X98.056 Y198.757 E11.19815
G1 X97.127 Y198.625 E11.24184
G1 X96.213 Y198.415 E11.28551
G1 X95.32 Y198.128 E11.32919
G1 X94.455 Y197.765 E11.37287
G1 X93.624 Y197.331 E11.41652
G1 X92.833 Y196.827 E11.46019
G1 X92.088 Y196.257 E11.50387
G1 X91.394 Y195.626 E11.54755
G1 X90.757 Y194.939 E11.59117
G1 X90.18 Y194.199 E11.63487
G1 X89.668 Y193.413 E11.67855
G1 X89.225 Y192.586 E11.72223
G1 X88.854 Y191.725 E11.76589
G1 X88.558 Y190.835 E11.80956
G1 X88.339 Y189.923 E11.85324
G1 X88.198 Y188.996 E11.8969
G1 X88.138 Y188.107 E11.93839
G1 X88.129 Y187.774 E11.9539
G1 X88.125 Y187.477 E11.96773
G1 X88.125 Y149.166 E13.75165
G1 X88.088 Y146.533 E13.87427
G1 X88.038 Y145.28 E13.93266
G1 X88.031 Y145.05 E13.94337
G1 X88.003 Y143.563 E14.01263
G1 X88.001 Y143.354 E14.02236
G1 X88.005 Y120.924 E15.06679
G1 X88.006 Y120.772 E15.07387
G1 X88.016 Y120.058 E15.10712
G1 X88.025 Y119.739 E15.12198
G1 X88.043 Y119.321 E15.14146
G1 X88.115 Y116.806 E15.25862
G1 X88.125 Y115.432 E15.3226
G1 X88.125 Y32.855 E19.16773
G1 X88.127 Y32.673 E19.17621
G1 X88.138 Y32.008 E19.20718
G1 X88.193 Y31.072 E19.25084
G1 X88.328 Y30.144 E19.2945
G1 X88.542 Y29.231 E19.33817
G0 F6000 X88.941 Y29.289
G1 F1200 X89.231 Y28.416 E19.381
G1 X89.596 Y27.57 E19.42391
G1 X90.032 Y26.76 E19.46674
G1 X90.538 Y25.99 E19.50964
G1 X91.108 Y25.268 E19.55248
G1 X91.739 Y24.597 E19.59537
G1 X92.426 Y23.984 E19.63824
G1 X93.163 Y23.433 E19.68109
G1 X93.946 Y22.948 E19.72397
G1 X94.767 Y22.532 E19.76683
G1 X95.622 Y22.189 E19.80973
G1 X96.503 Y21.922 E19.85259
G1 X97.404 Y21.732 E19.89547
G1 X98.318 Y21.622 E19.93834
G1 X98.837 Y21.594 E19.96254
G1 X99.156 Y21.585 E19.9774
G1 X99.455 Y21.581 E19.99132
G1 X115.418 Y21.581 E20.73463
G1 X115.57 Y21.582 E20.74171
G1 X116.268 Y21.592 E20.77421
G1 X117.187 Y21.645 E20.81707
G1 X118.098 Y21.778 E20.85994
G1 X118.994 Y21.989 E20.90281
G1 X119.868 Y22.277 E20.94566
G1 X120.715 Y22.64 E20.98857
G1 X121.526 Y23.075 E21.03142
G1 X122.296 Y23.579 E21.07427
G1 X123.02 Y24.148 E21.11715
G1 X123.692 Y24.778 E21.16004
G1 X124.307 Y25.463 E21.20291
G1 X124.86 Y26.199 E21.24577
G1 X125.347 Y26.98 E21.28863
G1 X125.764 Y27.801 E21.33151
G1 X126.109 Y28.655 E21.3744
G1 X126.378 Y29.535 E21.41724
G1 X126.57 Y30.436 E21.46014
G1 X126.683 Y31.349 E21.50298
G1 X126.712 Y31.893 E21.52835
G1 X126.721 Y32.213 E21.54325
G1 X126.725 Y32.511 E21.55713
G1 X126.725 Y89.248 E24.19904
G1 X126.762 Y91.873 E24.32128
G1 X126.869 Y94.381 E24.43817
G1 X127.047 Y96.901 E24.55581
G1 X127.296 Y99.416 E24.67349
G1 X127.615 Y101.905 E24.79034
G1 X128.016 Y104.457 E24.91063
G1 X128.468 Y106.888 E25.02576
G1 X129.006 Y109.387 E25.14479
G1 X129.603 Y111.823 E25.26158
G1 X130.271 Y114.251 E25.37884
G1 X130.65 Y115.463 E25.43797
G1 X130.703 Y115.638 E25.44648
G1 X131.095 Y116.971 E25.51118
G1 X131.317 Y117.865 E25.55407
G1 X131.46 Y118.784 E25.59738
G1 X131.53 Y119.41 E25.62671
G1 X131.595 Y120.461 E25.67575
G1 X131.598 Y120.711 E25.68739
G1 X131.599 Y120.839 E25.69335
G1 X131.596 Y143.668 E26.75636
G1 X131.595 Y143.822 E26.76353
G1 X131.585 Y144.506 E26.79539
G1 X131.531 Y145.425 E26.83825
G1 X131.408 Y146.285 E26.87871
G1 X131.354 Y146.576 E26.89249
G1 X131.08 Y147.703 E26.94649
G1 X130.798 Y148.638 E26.99197
G1 X130.751 Y148.79 E26.99938
G1 X130.549 Y149.425 E27.0304
G1 X129.85 Y151.863 E27.1485
G1 X129.228 Y154.288 E27.26508
G1 X128.66 Y156.793 E27.38468
G1 X128.174 Y159.268 E27.50213
G1 X127.756 Y161.764 E27.61997
G1 X127.41 Y164.251 E27.73689
G1 X127.133 Y166.769 E27.85485
G1 X126.928 Y169.285 E27.97239
G1 X126.796 Y171.782 E28.08882
G1 X126.725 Y175.395 E28.25709
G1 X126.725 Y187.083 E28.80133
G1 X126.724 Y187.229 E28.80813
G1 X126.714 Y187.956 E28.84199
G1 X126.661 Y188.875 E28.88485
G1 X126.529 Y189.786 E28.92771
G1 X126.318 Y190.682 E28.97058
G1 X126.031 Y191.557 E29.01346
G1 X125.668 Y192.403 E29.05632
G1 X125.234 Y193.215 E29.09919
G1 X124.73 Y193.986 E29.14209
G1 X124.162 Y194.71 E29.18494
G1 X123.533 Y195.382 E29.22779
G1 X122.848 Y195.997 E29.27066
G1 X122.112 Y196.55 E29.31353
G1 X121.331 Y197.038 E29.35641
G1 X120.511 Y197.456 E29.39927
G1 X119.657 Y197.801 E29.44216
G1 X118.777 Y198.07 E29.485
G1 X117.876 Y198.263 E29.52791
G1 X116.963 Y198.376 E29.57075
G1 X116.413 Y198.406 E29.5964
G1 X116.093 Y198.415 E29.6113
G1 X115.795 Y198.419 E29.62518
G1 X99.832 Y198.419 E30.36848
G1 X99.695 Y198.418 E30.37486
G1 X98.997 Y198.409 E30.40737
G1 X98.078 Y198.357 E30.45023
G1 X97.167 Y198.226 E30.49308
G1 X96.271 Y198.016 E30.53594
G1 X95.396 Y197.729 E30.57882
G1 X94.549 Y197.367 E30.62171
G1 X93.737 Y196.933 E30.66458
G1 X92.966 Y196.431 E30.70742
G1 X92.241 Y195.863 E30.7503
G1 X91.568 Y195.234 E30.7932
G1 X90.953 Y194.55 E30.83603
G1 X90.399 Y193.815 E30.87889
G1 X89.911 Y193.034 E30.92177
G1 X89.492 Y192.214 E30.96465
G1 X89.146 Y191.361 E31.00751
G1 X88.876 Y190.481 E31.05037
G1 X88.683 Y189.58 E31.09328
G1 X88.569 Y188.667 E31.13612
G1 X88.538 Y188.096 E31.16275
G1 X88.529 Y187.763 E31.17826
G1 X88.525 Y187.477 E31.19158
G1 X88.525 Y149.16 E32.97578
G1 X88.488 Y146.55 E33.09732
G1 X88.437 Y145.264 E33.15725
G1 X88.431 Y145.043 E33.16755
G1 X88.403 Y143.556 E33.2368
G1 X88.401 Y143.354 E33.24621
G1 X88.405 Y120.924 E34.29064
G1 X88.406 Y120.778 E34.29744
G1 X88.416 Y120.064 E34.33069
G1 X88.425 Y119.756 E34.34504
G1 X88.438 Y119.452 E34.35921
G1 X88.515 Y116.772 E34.48405
G1 X88.525 Y115.435 E34.54631
G1 X88.525 Y32.855 E38.39158
G1 X88.526 Y32.68 E38.39973
G1 X88.537 Y32.015 E38.4307
G1 X88.593 Y31.096 E38.47357
G1 X88.727 Y30.185 E38.51645
G1 X88.941 Y29.289 E38.55934
G0 F6000 X89.34 Y29.349
G1 F1200 X89.629 Y28.494 E38.60137
G1 X89.993 Y27.667 E38.64344
G1 X90.429 Y26.876 E38.6855
G1 X90.933 Y26.127 E38.72753
G1 X91.502 Y25.425 E38.76961
G1 X92.13 Y24.777 E38.81163
G1 X92.813 Y24.186 E38.85369
G1 X93.546 Y23.658 E38.89575
G1 X94.323 Y23.197 E38.93782
G1 X95.137 Y22.807 E38.97985
G1 X95.983 Y22.49 E39.02192
G1 X96.853 Y22.249 E39.06395
G1 X97.741 Y22.086 E39.10599
G1 X98.848 Y21.994 E39.15772
G1 X99.167 Y21.985 E39.17258
G1 X99.455 Y21.981 E39.18599
G1 X115.418 Y21.981 E39.92929
G1 X115.564 Y21.982 E39.93609
G1 X116.262 Y21.992 E39.9686
G1 X117.164 Y22.045 E40.01067
G1 X118.057 Y22.177 E40.0527
G1 X118.935 Y22.388 E40.09475
G1 X119.791 Y22.676 E40.13681
G1 X120.618 Y23.038 E40.17884
G1 X121.41 Y23.473 E40.22092
G1 X122.161 Y23.975 E40.26298
G1 X122.864 Y24.542 E40.30504
G1 X123.514 Y25.169 E40.34709
G1 X124.106 Y25.851 E40.38914
G1 X124.636 Y26.582 E40.43118
G1 X125.098 Y27.358 E40.47324
G1 X125.491 Y28.171 E40.51528
G1 X125.809 Y29.016 E40.55733
G1 X126.052 Y29.886 E40.59939
G1 X126.217 Y30.774 E40.64144
G1 X126.312 Y31.904 E40.69425
G1 X126.321 Y32.224 E40.70915
G1 X126.325 Y32.511 E40.72252
G1 X126.325 Y89.254 E43.36471
G1 X126.362 Y91.86 E43.48607
G1 X126.471 Y94.425 E43.60561
G1 X126.649 Y96.932 E43.72264
G1 X126.9 Y99.473 E43.84154
G1 X127.221 Y101.981 E43.95927
G1 X127.615 Y104.486 E44.07735
G1 X128.077 Y106.973 E44.19514
G1 X128.62 Y109.494 E44.31522
G1 X129.215 Y111.919 E44.43149
G1 X129.885 Y114.358 E44.54926
G1 X130.268 Y115.582 E44.60898
G1 X130.32 Y115.751 E44.61722
G1 X130.712 Y117.084 E44.68192
G1 X130.928 Y117.961 E44.72397
G1 X131.063 Y118.828 E44.76483
G1 X131.133 Y119.454 E44.79416
G1 X131.195 Y120.466 E44.84137
G1 X131.198 Y120.716 E44.85301
G1 X131.199 Y120.839 E44.85874
G1 X131.196 Y143.668 E45.92176
G1 X131.195 Y143.816 E45.92865
G1 X131.185 Y144.5 E45.9605
G1 X131.132 Y145.402 E46.00257
G1 X131.015 Y146.212 E46.04068
G1 X130.961 Y146.503 E46.05446
G1 X130.698 Y147.587 E46.1064
G1 X130.416 Y148.522 E46.15188
G1 X130.37 Y148.669 E46.15905
G1 X130.17 Y149.299 E46.18983
G1 X129.465 Y151.759 E46.30899
G1 X128.835 Y154.214 E46.42701
G1 X128.265 Y156.725 E46.5469
G1 X127.779 Y159.202 E46.66444
G1 X127.364 Y161.674 E46.78116
G1 X127.015 Y164.189 E46.89939
G1 X126.731 Y166.763 E47.01997
G1 X126.531 Y169.229 E47.13518
G1 X126.395 Y171.784 E47.25432
G1 X126.325 Y175.387 E47.42212
G1 X126.325 Y187.083 E47.96674
G1 X126.324 Y187.223 E47.97326
G1 X126.314 Y187.95 E48.00711
G1 X126.262 Y188.852 E48.04918
G1 X126.13 Y189.745 E48.09122
G1 X125.919 Y190.624 E48.13331
G1 X125.632 Y191.48 E48.17535
G1 X125.27 Y192.307 E48.21738
G1 X124.836 Y193.099 E48.25944
G1 X124.334 Y193.85 E48.3015
G1 X123.768 Y194.553 E48.34353
G1 X123.141 Y195.204 E48.38561
G1 X122.46 Y195.796 E48.42763
G1 X121.729 Y196.326 E48.46967
G1 X120.953 Y196.789 E48.51175
G1 X120.14 Y197.182 E48.5538
G1 X119.295 Y197.502 E48.59587
G1 X118.426 Y197.745 E48.63789
G1 X117.538 Y197.91 E48.67994
G1 X116.402 Y198.006 E48.73303
G1 X116.082 Y198.015 E48.74794
G1 X115.795 Y198.019 E48.7613
G1 X99.832 Y198.019 E49.5046
G1 X99.7 Y198.018 E49.51075
G1 X99.002 Y198.009 E49.54326
G1 X98.101 Y197.958 E49.58528
G1 X97.207 Y197.826 E49.62736
G1 X96.329 Y197.617 E49.66938
G1 X95.472 Y197.33 E49.71147
G1 X94.645 Y196.969 E49.75348
G1 X93.852 Y196.536 E49.79556
G1 X93.101 Y196.035 E49.83759
G1 X92.397 Y195.469 E49.87965
G1 X91.746 Y194.843 E49.92171
G1 X91.153 Y194.162 E49.96376
G1 X90.623 Y193.431 E50.0058
G1 X90.159 Y192.656 E50.04786
G1 X89.765 Y191.843 E50.08993
G1 X89.445 Y190.999 E50.13196
G1 X89.201 Y190.129 E50.17403
G1 X89.035 Y189.241 E50.2161
G1 X88.938 Y188.086 E50.27007
G1 X88.929 Y187.753 E50.28558
G1 X88.925 Y187.477 E50.29843
G1 X88.925 Y149.154 E52.08291
G1 X88.887 Y146.503 E52.20637
G1 X88.837 Y145.248 E52.26485
G1 X88.831 Y145.035 E52.27477
G1 X88.803 Y143.548 E52.34403
G1 X88.801 Y143.354 E52.35306
G1 X88.805 Y120.924 E53.3975
G1 X88.806 Y120.783 E53.40406
G1 X88.816 Y120.069 E53.43731
G1 X88.824 Y119.773 E53.4511
G1 X88.84 Y119.41 E53.46802
G1 X88.915 Y116.788 E53.59016
G1 X88.925 Y115.438 E53.65302
G1 X88.925 Y32.855 E57.49843
G1 X88.926 Y32.686 E57.5063
G1 X88.937 Y32.021 E57.53727
G1 X88.992 Y31.12 E57.57931
G1 X89.127 Y30.227 E57.62136
G1 X89.34 Y29.349 E57.66343
G1 F1500 E51.16343
G0 F6000 X98.464 Y187.976
G0 X98.968 Y188.48
G0 X116.282 Y188.48
G0 X116.786 Y187.976
G0 X121.659 Y144.427
G0 X121.661 Y137.152
G0 X121.157 Y136.648
G0 X119.843 Y136.648
G0 X119.339 Y137.152
G0 X119.209 Y143.642
G0 X104.189 Y143.424
G0 X101.001 Y121.313
G1 F1500 E57.66343
G1 F1200 X118.998 Y121.311 E58.50144
G1 X119 Y127.523 E58.7907
G1 X119.059 Y127.664 E58.79782
G1 X119.645 Y128.25 E58.83641
G1 X119.786 Y128.309 E58.84352
G1 X120.799 Y128.309 E58.89069
G1 X120.797 Y136.309 E59.26321
G1 X119.786 Y136.309 E59.31028
G1 X119.645 Y136.368 E59.3174
G1 X119.059 Y136.954 E59.35599
G1 X119 Y137.095 E59.36311
G1 X118.999 Y143.306 E59.65232
G1 X101.019 Y143.309 E60.48954
G1 X101.001 Y143.309 E60.49038
G1 X101.001 Y121.313 E61.51461
G0 F6000 X101.401 Y121.713
G1 F1200 X118.598 Y121.711 E62.31537
G1 X118.6 Y127.523 E62.586
G1 X118.64 Y127.738 E62.59618
G1 X118.776 Y127.947 E62.6078
G1 X119.362 Y128.533 E62.64638
G1 X119.541 Y128.657 E62.65652
G1 X119.786 Y128.709 E62.66819
G1 X120.399 Y128.709 E62.69673
G1 X120.397 Y135.909 E63.03199
G1 X119.786 Y135.909 E63.06044
G1 X119.571 Y135.949 E63.07063
G1 X119.362 Y136.085 E63.08224
G1 X118.776 Y136.671 E63.12083
G1 X118.652 Y136.85 E63.13097
G1 X118.6 Y137.095 E63.14263
G1 X118.599 Y142.906 E63.41321
G1 X101.401 Y142.909 E64.21402
G1 X101.401 Y121.713 E65.201
G0 F6000 X101.801 Y122.113
G1 F1200 X118.198 Y122.111 E65.96451
G1 X118.2 Y127.523 E66.21652
G1 X118.24 Y127.803 E66.22969
G1 X118.356 Y128.06 E66.24282
G1 X118.493 Y128.23 E66.25298
G1 X119.079 Y128.816 E66.29157
G1 X119.305 Y128.985 E66.30471
G1 X119.569 Y129.085 E66.31786
G1 X119.786 Y129.109 E66.32802
G1 X119.999 Y129.109 E66.33794
G1 X119.997 Y135.509 E66.63595
G1 X119.786 Y135.509 E66.64578
G1 X119.507 Y135.549 E66.6589
G1 X119.25 Y135.665 E66.67203
G1 X119.079 Y135.802 E66.68223
G1 X118.493 Y136.388 E66.72082
G1 X118.324 Y136.614 E66.73396
G1 X118.224 Y136.878 E66.74711
G1 X118.2 Y137.095 E66.75728
G1 X118.199 Y142.506 E67.00923
G1 X101.801 Y142.509 E67.77279
G1 X101.801 Y122.113 E68.72252
G0 F6000 X102.201 Y122.513
G1 F1200 X117.798 Y122.511 E69.44878
