;FLAVOR:Marlin
;TIME:15355
;Filament used: 10.4158m
;Layer height: 0.2
;MINX:38
;MINY:41
;MINZ:0.2
;MAXX:182
;MAXY:179
;MAXZ:27
;Generated with Cura_SteamEngine 4.4.1
M140 S40
M105
M190 S40
M104 S200
M105
M109 S200
M82 ;absolute extrusion mode
M201 X500.00 Y500.00 Z100.00 E5000.00 ;Setup machine max acceleration
M203 X500.00 Y500.00 Z10.00 E50.00 ;Setup machine max feedrate
M204 P500.00 R1000.00 T500.00 ;Setup Print/Retract/Travel acceleration
M205 X8.00 Y8.00 Z0.40 E5.00 ;Setup Jerk
M220 S100 ;Reset Feedrate
M221 S100 ;Reset Flowrate

G28 ;Home

G92 E0 ;Reset Extruder
G1 Z2.0 F3000 ;Move Z Axis up
G1 X10.1 Y20 Z0.28 F5000.0 ;Move to start position
G1 X10.1 Y200.0 Z0.28 F1500.0 E15 ;Draw the first line
G1 X10.4 Y200.0 Z0.28 F5000.0 ;Move to side a little
G1 X10.4 Y20 Z0.28 F1500.0 E30 ;Draw the second line
G92 E0 ;Reset Extruder
G1 Z2.0 F3000 ;Move Z Axis up

G92 E0
G92 E0
G1 F1500 E-6.5
;LAYER_COUNT:135
;LAYER:0
M107
G0 F6000 X41.198 Y44.264 Z0.2
;TYPE:SKIRT
G1 F1500 E0
G1 F1200 X41.886 Y43.627 E0.03119
G1 X42.626 Y43.051 E0.06237
G1 X43.412 Y42.539 E0.09357
G1 X44.239 Y42.097 E0.12476
G1 X45.101 Y41.727 E0.15596
G1 X45.991 Y41.431 E0.18716
G1 X46.903 Y41.213 E0.21835
G1 X47.83 Y41.072 E0.24953
G1 X48.701 Y41.013 E0.27857
G1 X49.022 Y41.004 E0.28925
G1 X49.33 Y41 E0.29949
G1 X170.275 Y41 E4.32214
G1 X170.434 Y41.001 E4.32743
G1 X171.124 Y41.011 E4.35038
G1 X172.061 Y41.065 E4.3816
G1 X172.989 Y41.198 E4.41278
G1 X173.903 Y41.41 E4.44399
G1 X174.795 Y41.698 E4.47516
G1 X175.66 Y42.062 E4.50638
G1 X176.49 Y42.498 E4.53756
G1 X177.28 Y43.003 E4.56874
G1 X178.024 Y43.574 E4.59994
G1 X178.717 Y44.206 E4.63113
G1 X179.354 Y44.895 E4.66234
G1 X179.929 Y45.635 E4.69351
G1 X180.44 Y46.422 E4.72472
G1 X180.881 Y47.249 E4.75589
G1 X181.251 Y48.111 E4.78709
G1 X181.546 Y49.002 E4.81831
G1 X181.763 Y49.914 E4.84949
G1 X181.903 Y50.841 E4.88067
G1 X181.962 Y51.74 E4.91064
G1 X181.984 Y52.635 E4.94041
G1 X181.987 Y52.845 E4.9474
G1 X182 Y55.24 E5.02706
G1 X182 Y99.293 E6.49227
G1 X181.999 Y99.451 E6.49752
G1 X181.989 Y100.148 E6.52071
G1 X181.95 Y100.925 E6.54658
G1 X181.717 Y103.654 E6.63768
G1 X181.575 Y106.186 E6.72203
G1 X181.503 Y108.718 E6.80627
G1 X181.503 Y111.207 E6.88906
G1 X181.575 Y113.763 E6.97411
G1 X181.716 Y116.251 E7.05699
G1 X181.952 Y119.084 E7.15154
G1 X181.985 Y119.667 E7.17096
G1 X181.995 Y120.001 E7.18208
G1 X182 Y120.33 E7.19302
G1 X182 Y167.264 E8.75405
G1 X181.999 Y167.415 E8.75908
G1 X181.989 Y168.142 E8.78326
G1 X181.936 Y169.079 E8.81447
G1 X181.804 Y170.007 E8.84565
G1 X181.593 Y170.921 E8.87685
G1 X181.304 Y171.813 E8.90803
G1 X180.941 Y172.678 E8.93923
G1 X180.506 Y173.509 E8.97043
G1 X180.001 Y174.299 E9.00162
G1 X179.431 Y175.044 E9.03282
G1 X178.8 Y175.738 E9.06401
G1 X178.111 Y176.375 E9.09522
G1 X177.371 Y176.951 E9.12641
G1 X176.585 Y177.462 E9.15759
G1 X175.758 Y177.904 E9.18878
G1 X174.896 Y178.274 E9.21998
G1 X174.006 Y178.569 E9.25117
G1 X173.094 Y178.788 E9.28236
G1 X172.167 Y178.928 E9.31354
G1 X171.299 Y178.987 E9.34248
G1 X170.979 Y178.996 E9.35313
G1 X170.67 Y179 E9.36341
G1 X49.707 Y179 E13.38665
G1 X49.565 Y178.999 E13.39138
G1 X48.867 Y178.99 E13.41459
G1 X47.931 Y178.938 E13.44577
G1 X47.002 Y178.806 E13.47698
G1 X46.088 Y178.596 E13.50817
G1 X45.195 Y178.309 E13.53937
G1 X44.33 Y177.946 E13.57057
G1 X43.499 Y177.512 E13.60175
G1 X42.708 Y177.008 E13.63295
G1 X41.963 Y176.438 E13.66415
G1 X41.269 Y175.807 E13.69535
G1 X40.632 Y175.12 E13.72651
G1 X40.055 Y174.38 E13.75772
G1 X39.543 Y173.594 E13.78892
G1 X39.1 Y172.767 E13.82012
G1 X38.729 Y171.906 E13.8513
G1 X38.433 Y171.016 E13.8825
G1 X38.214 Y170.104 E13.91369
G1 X38.073 Y169.177 E13.94488
G1 X38.013 Y168.288 E13.97452
G1 X38.004 Y167.955 E13.9856
G1 X38 Y167.658 E13.99547
G1 X38 Y52.674 E17.81986
G1 X38.001 Y52.525 E17.82481
G1 X38.01 Y51.86 E17.84693
G1 X38.063 Y50.924 E17.87812
G1 X38.195 Y49.995 E17.90932
G1 X38.406 Y49.081 E17.94052
G1 X38.694 Y48.189 E17.9717
G1 X39.057 Y47.324 E18.0029
G1 X39.492 Y46.493 E18.0341
G1 X39.996 Y45.703 E18.06526
G1 X40.566 Y44.958 E18.09646
G1 X41.198 Y44.264 E18.12768
G0 F6000 X41.589 Y44.439
G1 F1200 X42.274 Y43.823 E18.15832
G1 X43.01 Y43.27 E18.18894
G1 X43.791 Y42.782 E18.21957
G1 X44.611 Y42.364 E18.25019
G1 X45.465 Y42.019 E18.28082
G1 X46.345 Y41.749 E18.31144
G1 X47.245 Y41.557 E18.34204
G1 X48.159 Y41.443 E18.37268
G1 X48.712 Y41.413 E18.3911
G1 X49.033 Y41.404 E18.40178
G1 X49.33 Y41.4 E18.41166
G1 X170.275 Y41.4 E22.43431
G1 X170.429 Y41.401 E22.43943
G1 X171.119 Y41.411 E22.46238
G1 X172.038 Y41.464 E22.493
G1 X172.949 Y41.597 E22.52362
G1 X173.845 Y41.809 E22.55424
G1 X174.719 Y42.097 E22.58485
G1 X175.565 Y42.46 E22.61547
G1 X176.376 Y42.895 E22.64608
G1 X177.147 Y43.399 E22.67671
G1 X177.871 Y43.968 E22.70734
G1 X178.543 Y44.598 E22.73798
G1 X179.157 Y45.283 E22.76857
G1 X179.71 Y46.019 E22.79919
G1 X180.197 Y46.801 E22.82983
G1 X180.614 Y47.622 E22.86046
G1 X180.958 Y48.475 E22.89105
G1 X181.227 Y49.356 E22.92169
G1 X181.419 Y50.256 E22.9523
G1 X181.532 Y51.17 E22.98293
G1 X181.562 Y51.75 E23.00224
G1 X181.584 Y52.645 E23.03202
G1 X181.587 Y52.847 E23.03874
G1 X181.6 Y55.242 E23.1184
G1 X181.6 Y99.293 E24.58354
G1 X181.599 Y99.445 E24.5886
G1 X181.589 Y100.142 E24.61178
G1 X181.552 Y100.891 E24.63672
G1 X181.315 Y103.666 E24.72936
G1 X181.175 Y106.153 E24.81221
G1 X181.103 Y108.707 E24.89719
G1 X181.103 Y111.218 E24.9807
G1 X181.175 Y113.763 E25.06538
G1 X181.317 Y116.267 E25.1488
G1 X181.554 Y119.117 E25.24392
G1 X181.585 Y119.679 E25.26264
G1 X181.595 Y120.013 E25.27375
G1 X181.6 Y120.33 E25.2843
G1 X181.6 Y167.264 E26.84533
G1 X181.599 Y167.41 E26.85019
G1 X181.589 Y168.137 E26.87437
G1 X181.536 Y169.056 E26.90499
G1 X181.404 Y169.967 E26.9356
G1 X181.193 Y170.863 E26.96622
G1 X180.906 Y171.738 E26.99685
G1 X180.543 Y172.584 E27.02747
G1 X180.109 Y173.396 E27.05809
G1 X179.605 Y174.167 E27.08872
G1 X179.037 Y174.891 E27.11933
G1 X178.408 Y175.563 E27.14995
G1 X177.723 Y176.178 E27.18056
G1 X176.987 Y176.731 E27.21118
G1 X176.206 Y177.219 E27.24181
G1 X175.386 Y177.637 E27.27243
G1 X174.532 Y177.982 E27.30306
G1 X173.652 Y178.251 E27.33367
G1 X172.751 Y178.444 E27.36431
G1 X171.838 Y178.557 E27.39491
G1 X171.288 Y178.587 E27.41323
G1 X170.968 Y178.596 E27.42388
G1 X170.67 Y178.6 E27.43379
G1 X49.707 Y178.6 E31.45704
G1 X49.57 Y178.599 E31.46159
G1 X48.872 Y178.59 E31.48481
G1 X47.953 Y178.538 E31.51543
G1 X47.042 Y178.407 E31.54604
G1 X46.146 Y178.197 E31.57665
G1 X45.271 Y177.91 E31.60727
G1 X44.424 Y177.548 E31.63791
G1 X43.612 Y177.114 E31.66853
G1 X42.841 Y176.612 E31.69913
G1 X42.116 Y176.044 E31.72977
G1 X41.443 Y175.415 E31.76041
G1 X40.828 Y174.731 E31.791
G1 X40.274 Y173.996 E31.82161
G1 X39.786 Y173.215 E31.85224
G1 X39.367 Y172.395 E31.88287
G1 X39.021 Y171.542 E31.91349
G1 X38.751 Y170.662 E31.9441
G1 X38.558 Y169.761 E31.97475
G1 X38.444 Y168.848 E32.00535
G1 X38.413 Y168.277 E32.02437
G1 X38.404 Y167.944 E32.03545
G1 X38.4 Y167.658 E32.04496
G1 X38.4 Y52.674 E35.86935
G1 X38.401 Y52.531 E35.8741
G1 X38.41 Y51.866 E35.89622
G1 X38.462 Y50.946 E35.92687
G1 X38.594 Y50.035 E35.95749
G1 X38.805 Y49.139 E35.9881
G1 X39.092 Y48.264 E36.01873
G1 X39.455 Y47.418 E36.04935
G1 X39.889 Y46.606 E36.07997
G1 X40.392 Y45.835 E36.11059
G1 X40.961 Y45.111 E36.14122
G1 X41.589 Y44.439 E36.17181
G0 F6000 X41.981 Y44.617
G1 F1200 X42.662 Y44.024 E36.20184
G1 X43.394 Y43.494 E36.2319
G1 X44.169 Y43.031 E36.26193
G1 X44.982 Y42.638 E36.29196
G1 X45.827 Y42.318 E36.32201
G1 X46.696 Y42.075 E36.35203
G1 X47.584 Y41.909 E36.38207
G1 X48.723 Y41.813 E36.42009
G1 X49.044 Y41.804 E36.43077
G1 X49.33 Y41.8 E36.44028
G1 X170.275 Y41.8 E40.46293
G1 X170.423 Y41.801 E40.46785
G1 X171.113 Y41.811 E40.49081
G1 X172.014 Y41.864 E40.52083
G1 X172.908 Y41.997 E40.55089
G1 X173.786 Y42.208 E40.58092
G1 X174.642 Y42.496 E40.61096
G1 X175.469 Y42.858 E40.64099
G1 X176.261 Y43.292 E40.67102
G1 X177.011 Y43.795 E40.70106
G1 X177.714 Y44.362 E40.7311
G1 X178.364 Y44.989 E40.76114
G1 X178.956 Y45.671 E40.79117
G1 X179.485 Y46.403 E40.82121
G1 X179.948 Y47.178 E40.85124
G1 X180.34 Y47.992 E40.88129
G1 X180.659 Y48.837 E40.91133
G1 X180.902 Y49.707 E40.94137
G1 X181.066 Y50.595 E40.97141
G1 X181.162 Y51.759 E41.01025
G1 X181.184 Y52.654 E41.04003
G1 X181.187 Y52.85 E41.04655
G1 X181.2 Y55.245 E41.12621
G1 X181.2 Y99.293 E42.59125
G1 X181.199 Y99.439 E42.59611
G1 X181.189 Y100.136 E42.61929
G1 X181.153 Y100.857 E42.6433
G1 X180.918 Y103.611 E42.73523
G1 X180.775 Y106.153 E42.81992
G1 X180.703 Y108.696 E42.90453
G1 X180.703 Y111.229 E42.98878
G1 X180.775 Y113.763 E43.07309
G1 X180.92 Y116.325 E43.15844
G1 X181.155 Y119.151 E43.25276
G1 X181.185 Y119.691 E43.27075
G1 X181.195 Y120.025 E43.28186
G1 X181.2 Y120.33 E43.29201
G1 X181.2 Y167.264 E44.85304
G1 X181.199 Y167.404 E44.85769
G1 X181.189 Y168.131 E44.88188
G1 X181.137 Y169.033 E44.91193
G1 X181.005 Y169.926 E44.94195
G1 X180.794 Y170.805 E44.97202
G1 X180.507 Y171.661 E45.00205
G1 X180.145 Y172.488 E45.03207
G1 X179.711 Y173.28 E45.06211
G1 X179.209 Y174.031 E45.09215
G1 X178.643 Y174.734 E45.12217
G1 X178.016 Y175.385 E45.15223
G1 X177.335 Y175.977 E45.18225
G1 X176.604 Y176.507 E45.21228
G1 X175.828 Y176.97 E45.24233
G1 X175.015 Y177.363 E45.27237
G1 X174.17 Y177.683 E45.30242
G1 X173.301 Y177.926 E45.33243
G1 X172.413 Y178.091 E45.36247
G1 X171.277 Y178.187 E45.40039
G1 X170.957 Y178.196 E45.41104
G1 X170.67 Y178.2 E45.42058
G1 X49.707 Y178.2 E49.44383
G1 X49.575 Y178.199 E49.44822
G1 X48.877 Y178.19 E49.47144
G1 X47.976 Y178.139 E49.50145
G1 X47.082 Y178.007 E49.53151
G1 X46.204 Y177.798 E49.56153
G1 X45.347 Y177.511 E49.59159
G1 X44.52 Y177.15 E49.6216
G1 X43.727 Y176.717 E49.65165
G1 X42.976 Y176.216 E49.68168
G1 X42.272 Y175.65 E49.71172
G1 X41.621 Y175.024 E49.74176
G1 X41.028 Y174.343 E49.7718
G1 X40.498 Y173.612 E49.80183
G1 X40.034 Y172.837 E49.83187
G1 X39.64 Y172.024 E49.86192
G1 X39.32 Y171.18 E49.89194
G1 X39.076 Y170.31 E49.92199
G1 X38.91 Y169.422 E49.95204
G1 X38.813 Y168.267 E49.99059
G1 X38.804 Y167.934 E50.00167
G1 X38.8 Y167.658 E50.01085
G1 X38.8 Y52.674 E53.83523
G1 X38.801 Y52.536 E53.83982
G1 X38.81 Y51.871 E53.86194
G1 X38.862 Y50.969 E53.89199
G1 X38.994 Y50.076 E53.92202
G1 X39.204 Y49.198 E53.95204
G1 X39.491 Y48.341 E53.9821
G1 X39.853 Y47.514 E54.01213
G1 X40.286 Y46.722 E54.04215
G1 X40.788 Y45.971 E54.0722
G1 X41.355 Y45.267 E54.10226
G1 X41.981 Y44.617 E54.13228
G1 F1500 E47.63228
;MESH:WiringHubCaseV2_Join.stl
G0 F6000 X50.21 Y51.335
G0 X50.21 Y53.21
G0 X50.182 Y166.818
G0 X170 Y167
;TYPE:WALL-INNER
G1 F1500 E54.13228
G1 F1200 X50 Y167 E58.12349
G1 X50 Y53 E61.91515
G1 X169.987 Y53 E65.90593
G1 X170 Y55.3 E65.98243
G1 X170 Y99 E67.4359
G1 X157.094 Y99 E67.86516
G1 X157.094 Y121 E68.59688
G1 X170 Y121 E69.02613
G1 X170 Y167 E70.5561
G0 F6000 X170.4 Y167.4
G1 F1200 X49.6 Y167.4 E74.57392
G1 X49.6 Y52.6 E78.39219
G1 X170.385 Y52.6 E82.40951
G1 X170.4 Y55.3 E82.49932
G1 X170.4 Y99.4 E83.96609
G1 X157.494 Y99.4 E84.39534
G1 X157.494 Y120.6 E85.10046
G1 X170.4 Y120.6 E85.52971
G1 X170.4 Y167.4 E87.08629
G0 F6000 X170.8 Y167.8
;TYPE:WALL-OUTER
G1 F1200 X49.2 Y167.8 E91.13072
G1 X49.2 Y52.2 E94.97559
G1 X170.783 Y52.2 E99.01946
G1 X170.8 Y55.3 E99.12257
G1 X170.8 Y99.8 E100.60264
G1 X157.894 Y99.8 E101.0319
G1 X157.894 Y120.2 E101.71041
G1 X170.8 Y120.2 E102.13966
G1 X170.8 Y167.8 E103.72284
G0 F6000 X170.53 Y167.53
G0 X169.89 Y166.61
G0 X169.61 Y166.61
;TYPE:SKIN
G1 F1200 X50.39 Y166.61 E107.68812
G1 X50.39 Y53.39 E111.45383
G1 X169.599 Y53.39 E115.41874
G1 X169.61 Y55.3 E115.48226
G1 X169.61 Y98.61 E116.92276
G1 X156.704 Y98.61 E117.35202
G1 X156.704 Y121.39 E118.10968
G1 X169.61 Y121.39 E118.53894
G1 X169.61 Y166.61 E120.04296
G1 F1500 E113.54296
G0 F6000 X169.89 Y166.61
G0 X169.818 Y121.182
G0 X157.666 Y120.428
G0 X157.666 Y99.572
G0 X169.818 Y98.818
G0 X169.806 Y53.182
G0 X168.949 Y53.11
G0 X168.949 Y53.549
G1 F1500 E120.04296
G1 F1200 X169.442 Y54.042 E120.06615
G0 F6000 X169.446 Y54.611
G1 F1200 X168.384 Y53.549 E120.1161
G0 F6000 X167.818 Y53.549
G1 F1200 X169.448 Y55.18 E120.1928
G0 F6000 X169.449 Y55.746
G1 F1200 X167.252 Y53.549 E120.29614
G0 F6000 X166.686 Y53.549
G1 F1200 X169.449 Y56.312 E120.4261
G0 F6000 X169.449 Y56.878
G1 F1200 X166.121 Y53.549 E120.58266
G0 F6000 X165.555 Y53.549
G1 F1200 X169.449 Y57.443 E120.76582
G0 F6000 X169.449 Y58.009
G1 F1200 X164.989 Y53.549 E120.97561
G0 F6000 X164.424 Y53.549
G1 F1200 X169.449 Y58.575 E121.21199
G0 F6000 X169.449 Y59.14
G1 F1200 X163.858 Y53.549 E121.47498
G0 F6000 X163.292 Y53.549
G1 F1200 X169.449 Y59.706 E121.76458
G0 F6000 X169.449 Y60.272
G1 F1200 X162.727 Y53.549 E122.08079
G0 F6000 X162.161 Y53.549
G1 F1200 X169.449 Y60.838 E122.42362
G0 F6000 X169.449 Y61.403
G1 F1200 X161.595 Y53.549 E122.79305
G0 F6000 X161.03 Y53.549
G1 F1200 X169.449 Y61.969 E123.18907
G0 F6000 X169.449 Y62.535
G1 F1200 X160.464 Y53.549 E123.61172
G0 F6000 X159.898 Y53.549
G1 F1200 X169.449 Y63.1 E124.06097
G0 F6000 X169.449 Y63.666
G1 F1200 X159.333 Y53.549 E124.53682
G0 F6000 X158.767 Y53.549
G1 F1200 X169.449 Y64.232 E125.03929
G0 F6000 X169.449 Y64.797
G1 F1200 X158.201 Y53.549 E125.56837
G0 F6000 X157.636 Y53.549
G1 F1200 X169.449 Y65.363 E126.12404
G0 F6000 X169.449 Y65.929
G1 F1200 X157.07 Y53.549 E126.70633
G0 F6000 X156.504 Y53.549
G1 F1200 X169.449 Y66.494 E127.31522
G0 F6000 X169.449 Y67.06
G1 F1200 X155.938 Y53.549 E127.95074
G0 F6000 X155.373 Y53.549
G1 F1200 X169.449 Y67.626 E128.61285
G0 F6000 X169.449 Y68.191
G1 F1200 X154.807 Y53.549 E129.30157
G0 F6000 X154.241 Y53.549
G1 F1200 X169.449 Y68.757 E130.01691
G0 F6000 X169.449 Y69.323
G1 F1200 X153.676 Y53.549 E130.75884
G0 F6000 X153.11 Y53.549
G1 F1200 X169.449 Y69.889 E131.5274
G0 F6000 X169.449 Y70.454
G1 F1200 X152.544 Y53.549 E132.32256
G0 F6000 X151.979 Y53.549
G1 F1200 X169.449 Y71.02 E133.14432
G0 F6000 X169.449 Y71.586
G1 F1200 X151.413 Y53.549 E133.9927
G0 F6000 X150.847 Y53.549
G1 F1200 X169.449 Y72.151 E134.86769
G0 F6000 X169.449 Y72.717
G1 F1200 X150.282 Y53.549 E135.76927
G0 F6000 X149.716 Y53.549
G1 F1200 X169.449 Y73.283 E136.69747
G0 F6000 X169.449 Y73.848
G1 F1200 X149.15 Y53.549 E137.65227
G0 F6000 X148.585 Y53.549
G1 F1200 X169.449 Y74.414 E138.63367
G0 F6000 X169.449 Y74.98
G1 F1200 X148.019 Y53.549 E139.6417
G0 F6000 X147.453 Y53.549
G1 F1200 X169.449 Y75.545 E140.67632
G0 F6000 X169.449 Y76.111
G1 F1200 X146.887 Y53.549 E141.73757
G0 F6000 X146.322 Y53.549
G1 F1200 X169.449 Y76.677 E142.82542
G0 F6000 X169.449 Y77.242
G1 F1200 X145.756 Y53.549 E143.93986
G0 F6000 X145.19 Y53.549
G1 F1200 X169.449 Y77.808 E145.08093
G0 F6000 X169.449 Y78.374
G1 F1200 X144.625 Y53.549 E146.2486
G0 F6000 X144.059 Y53.549
G1 F1200 X169.449 Y78.939 E147.44287
G0 F6000 X169.449 Y79.505
G1 F1200 X143.493 Y53.549 E148.66376
G0 F6000 X142.928 Y53.549
G1 F1200 X169.449 Y80.071 E149.91125
G0 F6000 X169.449 Y80.637
G1 F1200 X142.362 Y53.549 E151.18536
G0 F6000 X141.796 Y53.549
G1 F1200 X169.449 Y81.202 E152.48607
G0 F6000 X169.449 Y81.768
G1 F1200 X141.231 Y53.549 E153.81339
G0 F6000 X140.665 Y53.549
G1 F1200 X169.449 Y82.334 E155.16732
G0 F6000 X169.449 Y82.899
G1 F1200 X140.099 Y53.549 E156.54785
G0 F6000 X139.534 Y53.549
G1 F1200 X169.449 Y83.465 E157.95499
G0 F6000 X169.449 Y84.031
G1 F1200 X138.968 Y53.549 E159.38874
G0 F6000 X138.402 Y53.549
G1 F1200 X169.449 Y84.596 E160.8491
G0 F6000 X169.449 Y85.162
G1 F1200 X137.837 Y53.549 E162.33606
G0 F6000 X137.271 Y53.549
G1 F1200 X169.449 Y85.728 E163.84963
G0 F6000 X169.449 Y86.293
G1 F1200 X136.705 Y53.549 E165.38981
G0 F6000 X136.139 Y53.549
G1 F1200 X169.449 Y86.859 E166.95661
G0 F6000 X169.449 Y87.425
G1 F1200 X135.574 Y53.549 E168.55001
G0 F6000 X135.008 Y53.549
G1 F1200 X169.449 Y87.99 E170.17001
G0 F6000 X169.449 Y88.556
G1 F1200 X134.442 Y53.549 E171.81663
G0 F6000 X133.877 Y53.549
G1 F1200 X169.449 Y89.122 E173.48985
G0 F6000 X169.449 Y89.688
G1 F1200 X133.311 Y53.549 E175.1897
G0 F6000 X132.745 Y53.549
G1 F1200 X169.449 Y90.253 E176.91614
G0 F6000 X169.449 Y90.819
G1 F1200 X132.18 Y53.549 E178.66918
G0 F6000 X131.614 Y53.549
