;FLAVOR:Marlin
;TIME:8485
;Filament used: 7.94159m
;Layer height: 0.28
;MINX:19
;MINY:84
;MINZ:0.28
;MAXX:201
;MAXY:136
;MAXZ:10.92
;Generated with Cura_SteamEngine 4.4.1
M140 S50
M105
M190 S50
M104 S200
M105
M109 S200
M82 ;absolute extrusion mode
M201 X500.00 Y500.00 Z100.00 E5000.00 ;Setup machine max acceleration
M203 X500.00 Y500.00 Z10.00 E50.00 ;Setup machine max feedrate
M204 P500.00 R1000.00 T500.00 ;Setup Print/Retract/Travel acceleration
M205 X8.00 Y8.00 Z0.40 E5.00 ;Setup Jerk
M220 S100 ;Reset Feedrate
M221 S100 ;Reset Flowrate

G28 ;Home

G92 E0 ;Reset Extruder
G1 Z2.0 F3000 ;Move Z Axis up
G1 X10.1 Y20 Z0.28 F5000.0 ;Move to start position
G1 X10.1 Y200.0 Z0.28 F1500.0 E15 ;Draw the first line
G1 X10.4 Y200.0 Z0.28 F5000.0 ;Move to side a little
G1 X10.4 Y20 Z0.28 F1500.0 E30 ;Draw the second line
G92 E0 ;Reset Extruder
G1 Z2.0 F3000 ;Move Z Axis up

G92 E0
G92 E0
G1 F1500 E-6.5
;LAYER_COUNT:39
;LAYER:0
M107
G0 F6000 X26.991 Y84.431 Z0.28
;TYPE:SKIRT
G1 F1500 E0
G1 F1200 X27.903 Y84.213 E0.04366
G1 X28.83 Y84.072 E0.08732
G1 X29.701 Y84.013 E0.12797
G1 X30.022 Y84.004 E0.14293
G1 X30.33 Y84 E0.15727
G1 X189.293 Y84 E7.55925
G1 X189.451 Y84.001 E7.56661
G1 X190.149 Y84.011 E7.59912
G1 X191.085 Y84.065 E7.64277
G1 X192.013 Y84.197 E7.68642
G1 X192.927 Y84.409 E7.73011
G1 X193.819 Y84.698 E7.77377
G1 X194.684 Y85.061 E7.81745
G1 X195.514 Y85.497 E7.86111
G1 X196.305 Y86.002 E7.90481
G1 X197.049 Y86.573 E7.94848
G1 X197.742 Y87.205 E7.99215
G1 X198.379 Y87.893 E8.03581
G1 X198.954 Y88.634 E8.07948
G1 X199.465 Y89.42 E8.12314
G1 X199.907 Y90.248 E8.16684
G1 X200.276 Y91.11 E8.2105
G1 X200.571 Y92 E8.25416
G1 X200.789 Y92.912 E8.29782
G1 X200.929 Y93.84 E8.34152
G1 X200.987 Y94.701 E8.38171
G1 X200.996 Y95.021 E8.39661
G1 X201 Y95.33 E8.411
G1 X201 Y124.264 E9.75829
G1 X200.999 Y124.4 E9.76462
G1 X200.99 Y125.127 E9.79848
G1 X200.939 Y126.064 E9.84217
G1 X200.807 Y126.992 E9.88582
G1 X200.598 Y127.906 E9.92948
G1 X200.311 Y128.799 E9.97316
G1 X199.949 Y129.665 E10.01686
G1 X199.515 Y130.496 E10.06052
G1 X199.011 Y131.287 E10.10419
G1 X198.442 Y132.032 E10.14784
G1 X197.811 Y132.727 E10.19155
G1 X197.124 Y133.365 E10.23521
G1 X196.385 Y133.942 E10.27886
G1 X195.599 Y134.454 E10.32254
G1 X194.773 Y134.897 E10.36619
G1 X193.911 Y135.269 E10.40991
G1 X193.022 Y135.565 E10.45354
G1 X192.11 Y135.785 E10.49722
G1 X191.183 Y135.926 E10.54088
G1 X190.299 Y135.987 E10.58214
G1 X189.978 Y135.996 E10.5971
G1 X189.67 Y136 E10.61144
G1 X141.973 Y135.999 E12.83241
G1 X30.707 Y136 E18.01342
G1 X30.549 Y135.999 E18.02078
G1 X29.851 Y135.989 E18.05328
G1 X28.915 Y135.935 E18.09694
G1 X27.987 Y135.803 E18.14059
G1 X27.073 Y135.591 E18.18428
G1 X26.181 Y135.302 E18.22794
G1 X25.316 Y134.939 E18.27162
G1 X24.486 Y134.503 E18.31527
G1 X23.695 Y133.998 E18.35897
G1 X22.951 Y133.427 E18.40264
G1 X22.258 Y132.795 E18.44632
G1 X21.621 Y132.107 E18.48998
G1 X21.046 Y131.366 E18.53365
G1 X20.535 Y130.58 E18.5773
G1 X20.093 Y129.752 E18.62101
G1 X19.724 Y128.89 E18.66467
G1 X19.429 Y128 E18.70833
G1 X19.211 Y127.088 E18.75199
G1 X19.071 Y126.16 E18.79569
G1 X19.013 Y125.288 E18.83639
G1 X19.004 Y124.956 E18.85185
G1 X19 Y124.658 E18.86573
G1 X19 Y95.674 E20.21534
G1 X19.001 Y95.525 E20.22228
G1 X19.01 Y94.86 E20.25325
G1 X19.063 Y93.924 E20.2969
G1 X19.195 Y92.995 E20.3406
G1 X19.406 Y92.081 E20.38428
G1 X19.694 Y91.189 E20.42792
G1 X20.057 Y90.324 E20.4716
G1 X20.492 Y89.493 E20.51528
G1 X20.996 Y88.703 E20.55891
G1 X21.566 Y87.958 E20.60259
G1 X22.198 Y87.264 E20.6463
G1 X22.886 Y86.627 E20.68996
G1 X23.626 Y86.051 E20.73363
G1 X24.412 Y85.539 E20.7773
G1 X25.239 Y85.097 E20.82097
G1 X26.101 Y84.727 E20.86465
G1 X26.991 Y84.431 E20.90832
G0 F6000 X27.345 Y84.749
G1 F1200 X28.245 Y84.557 E20.95117
G1 X29.159 Y84.443 E20.99406
G1 X29.712 Y84.413 E21.01985
G1 X30.033 Y84.404 E21.0348
G1 X30.33 Y84.4 E21.04863
G1 X189.293 Y84.4 E28.45062
G1 X189.445 Y84.401 E28.4577
G1 X190.143 Y84.411 E28.4902
G1 X191.062 Y84.464 E28.53306
G1 X191.973 Y84.597 E28.57593
G1 X192.869 Y84.808 E28.6188
G1 X193.743 Y85.096 E28.66165
G1 X194.59 Y85.459 E28.70456
G1 X195.401 Y85.894 E28.74741
G1 X196.171 Y86.398 E28.79026
G1 X196.895 Y86.967 E28.83314
G1 X197.567 Y87.597 E28.87603
G1 X198.182 Y88.282 E28.9189
G1 X198.735 Y89.018 E28.96176
G1 X199.222 Y89.799 E29.00462
G1 X199.639 Y90.62 E29.0475
G1 X199.984 Y91.474 E29.09039
G1 X200.253 Y92.354 E29.13323
G1 X200.445 Y93.255 E29.17613
G1 X200.558 Y94.168 E29.21897
G1 X200.587 Y94.712 E29.24433
G1 X200.596 Y95.032 E29.25924
G1 X200.6 Y95.33 E29.27312
G1 X200.6 Y124.264 E30.62041
G1 X200.599 Y124.395 E30.62651
G1 X200.59 Y125.122 E30.66036
G1 X200.539 Y126.041 E30.70322
G1 X200.408 Y126.953 E30.74612
G1 X200.198 Y127.849 E30.78897
G1 X199.912 Y128.724 E30.83184
G1 X199.551 Y129.571 E30.87471
G1 X199.117 Y130.383 E30.91758
G1 X198.615 Y131.155 E30.96046
G1 X198.047 Y131.88 E31.00335
G1 X197.419 Y132.553 E31.04621
G1 X196.735 Y133.169 E31.08907
G1 X196 Y133.723 E31.13193
G1 X195.22 Y134.212 E31.1748
G1 X194.4 Y134.631 E31.21768
G1 X193.547 Y134.977 E31.26054
G1 X192.667 Y135.248 E31.30342
G1 X191.767 Y135.441 E31.34628
G1 X190.853 Y135.556 E31.38917
G1 X190.288 Y135.587 E31.41552
G1 X189.967 Y135.596 E31.43047
G1 X189.67 Y135.6 E31.4443
G1 X141.973 Y135.599 E33.66528
G1 X30.707 Y135.6 E38.84629
G1 X30.555 Y135.599 E38.85336
G1 X29.857 Y135.589 E38.88587
G1 X28.938 Y135.536 E38.92873
G1 X28.027 Y135.403 E38.9716
G1 X27.131 Y135.192 E39.01447
G1 X26.257 Y134.904 E39.05731
G1 X25.41 Y134.541 E39.10022
G1 X24.599 Y134.106 E39.14308
G1 X23.829 Y133.602 E39.18593
G1 X23.105 Y133.033 E39.22881
G1 X22.433 Y132.403 E39.2717
G1 X21.818 Y131.718 E39.31456
G1 X21.265 Y130.982 E39.35743
G1 X20.778 Y130.201 E39.40029
G1 X20.361 Y129.38 E39.44317
G1 X20.016 Y128.526 E39.48605
G1 X19.747 Y127.646 E39.5289
G1 X19.555 Y126.745 E39.5718
G1 X19.442 Y125.832 E39.61464
G1 X19.413 Y125.277 E39.64052
G1 X19.404 Y124.945 E39.65598
G1 X19.4 Y124.658 E39.66935
G1 X19.4 Y95.674 E41.01896
G1 X19.401 Y95.531 E41.02562
G1 X19.41 Y94.866 E41.05659
G1 X19.462 Y93.946 E41.0995
G1 X19.594 Y93.035 E41.14236
G1 X19.805 Y92.139 E41.18522
G1 X20.092 Y91.264 E41.2281
G1 X20.455 Y90.418 E41.27097
G1 X20.889 Y89.606 E41.31384
G1 X21.392 Y88.835 E41.35671
G1 X21.961 Y88.111 E41.39958
G1 X22.589 Y87.439 E41.44241
G1 X23.274 Y86.823 E41.48531
G1 X24.01 Y86.27 E41.52818
G1 X24.791 Y85.782 E41.57106
G1 X25.611 Y85.364 E41.61391
G1 X26.465 Y85.019 E41.6568
G1 X27.345 Y84.749 E41.69966
G0 F6000 X26.827 Y85.318
G1 F1200 X27.696 Y85.075 E41.74168
G1 X28.584 Y84.909 E41.78375
G1 X29.723 Y84.813 E41.83697
G1 X30.044 Y84.804 E41.85192
G1 X30.33 Y84.8 E41.86524
G1 X189.293 Y84.8 E49.26723
G1 X189.439 Y84.801 E49.27402
G1 X190.137 Y84.811 E49.30653
G1 X191.039 Y84.864 E49.3486
G1 X191.932 Y84.996 E49.39064
G1 X192.81 Y85.207 E49.43268
G1 X193.666 Y85.495 E49.47474
G1 X194.493 Y85.857 E49.51677
G1 X195.285 Y86.292 E49.55885
G1 X196.036 Y86.794 E49.60091
G1 X196.739 Y87.361 E49.64297
G1 X197.389 Y87.988 E49.68502
G1 X197.981 Y88.67 E49.72707
G1 X198.511 Y89.401 E49.76912
G1 X198.973 Y90.177 E49.81117
G1 X199.366 Y90.99 E49.85322
G1 X199.684 Y91.835 E49.89526
G1 X199.927 Y92.705 E49.93732
G1 X200.092 Y93.593 E49.97938
G1 X200.187 Y94.723 E50.03218
G1 X200.196 Y95.043 E50.04709
G1 X200.2 Y95.33 E50.06045
G1 X200.2 Y124.264 E51.40774
G1 X200.199 Y124.39 E51.41361
G1 X200.19 Y125.117 E51.44746
G1 X200.139 Y126.019 E51.48953
G1 X200.008 Y126.913 E51.5316
G1 X199.799 Y127.791 E51.57363
G1 X199.513 Y128.648 E51.6157
G1 X199.152 Y129.476 E51.65776
G1 X198.72 Y130.268 E51.69977
G1 X198.219 Y131.02 E51.74184
G1 X197.653 Y131.724 E51.7839
G1 X197.028 Y132.375 E51.82593
G1 X196.347 Y132.969 E51.868
G1 X195.616 Y133.5 E51.91007
G1 X194.842 Y133.964 E51.95209
G1 X194.029 Y134.358 E51.99416
G1 X193.185 Y134.678 E52.03619
G1 X192.315 Y134.923 E52.07828
G1 X191.428 Y135.089 E52.1203
G1 X190.277 Y135.187 E52.17409
G1 X189.956 Y135.196 E52.18904
G1 X189.67 Y135.2 E52.20236
G1 X141.973 Y135.199 E54.42333
G1 X30.707 Y135.2 E59.60434
G1 X30.561 Y135.199 E59.61114
G1 X29.863 Y135.189 E59.64365
G1 X28.961 Y135.136 E59.68572
G1 X28.068 Y135.004 E59.72775
G1 X27.19 Y134.793 E59.7698
G1 X26.334 Y134.505 E59.81186
G1 X25.507 Y134.143 E59.85389
G1 X24.715 Y133.708 E59.89597
G1 X23.964 Y133.206 E59.93803
G1 X23.261 Y132.639 E59.98008
G1 X22.611 Y132.012 E60.02214
G1 X22.019 Y131.33 E60.06419
G1 X21.489 Y130.599 E60.10623
G1 X21.027 Y129.823 E60.14829
G1 X20.634 Y129.01 E60.19033
G1 X20.316 Y128.165 E60.23238
G1 X20.073 Y127.295 E60.27444
G1 X19.908 Y126.407 E60.31649
G1 X19.813 Y125.266 E60.36981
G1 X19.804 Y124.934 E60.38527
G1 X19.8 Y124.658 E60.39812
G1 X19.8 Y95.674 E61.74774
G1 X19.801 Y95.536 E61.75417
G1 X19.81 Y94.871 E61.78514
G1 X19.862 Y93.969 E61.82721
G1 X19.994 Y93.076 E61.86924
G1 X20.204 Y92.198 E61.91128
G1 X20.491 Y91.341 E61.95336
G1 X20.853 Y90.514 E61.9954
G1 X21.286 Y89.722 E62.03743
G1 X21.788 Y88.971 E62.07949
G1 X22.355 Y88.267 E62.12158
G1 X22.981 Y87.617 E62.1636
G1 X23.662 Y87.024 E62.20565
G1 X24.394 Y86.494 E62.24773
G1 X25.169 Y86.031 E62.28977
G1 X25.982 Y85.638 E62.33181
G1 X26.827 Y85.318 E62.37389
G0 F6000 X37.875 Y101.556
G1 F1200 X40 Y100.493 E62.48453
G1 X42.125 Y101.556 E62.59517
G1 X42.125 Y103.446 E62.68317
G1 X40 Y104.508 E62.79379
G1 X37.875 Y103.446 E62.90441
G1 X37.875 Y101.556 E62.99241
G0 F6000 X38.275 Y101.804
G1 F1200 X40 Y100.941 E63.08223
G1 X41.725 Y101.803 E63.17202
G1 X41.725 Y103.198 E63.23698
G1 X40 Y104.061 E63.32679
G1 X38.275 Y103.198 E63.41661
G1 X38.275 Y101.804 E63.48152
G0 F6000 X38.675 Y102.05
G1 F1200 X39.999 Y101.388 E63.55045
G1 X41.325 Y102.051 E63.61948
G1 X41.325 Y102.952 E63.66143
G1 X40 Y103.614 E63.7304
G1 X38.675 Y102.952 E63.79937
G1 X38.675 Y102.05 E63.84137
G0 F6000 X39.075 Y102.298
G1 F1200 X40 Y101.835 E63.88954
G1 X40.925 Y102.297 E63.93768
G1 X40.925 Y102.704 E63.95664
G1 X40 Y103.167 E64.0048
G1 X39.075 Y102.704 E64.05297
G1 X39.075 Y102.298 E64.07187
G0 F6000 X39.564 Y102.501
G1 F1200 X40 Y102.282 E64.09459
G1 X40.437 Y102.501 E64.11735
G1 X40 Y102.719 E64.14009
G1 X39.564 Y102.501 E64.16279
G0 F6000 X51 Y97
G1 F1200 X110 Y97 E66.91008
G1 X110 Y123 E68.12075
G1 X51 Y123 E70.86804
G1 X51 Y97 E72.0787
G0 F6000 X51.4 Y97.4
G1 F1200 X109.6 Y97.4 E74.78874
G1 X109.6 Y122.6 E75.96216
G1 X51.4 Y122.6 E78.67219
G1 X51.4 Y97.4 E79.84561
G0 F6000 X51.8 Y97.8
G1 F1200 X109.2 Y97.8 E82.5184
G1 X109.2 Y122.2 E83.65456
G1 X51.8 Y122.2 E86.32735
G1 X51.8 Y97.8 E87.46351
G0 F6000 X52.2 Y98.2
G1 F1200 X108.8 Y98.2 E90.09905
G1 X108.8 Y121.8 E91.19796
G1 X52.2 Y121.8 E93.83349
G1 X52.2 Y98.2 E94.93241
G0 F6000 X52.6 Y98.6
G1 F1200 X108.4 Y98.6 E97.53069
G1 X108.4 Y121.4 E98.59235
G1 X52.6 Y121.4 E101.19064
G1 X52.6 Y98.6 E102.2523
G0 F6000 X53 Y99
G1 F1200 X108 Y99 E104.81333
G1 X108 Y121 E105.83774
G1 X53 Y121 E108.39877
G1 X53 Y99 E109.42318
G0 F6000 X53.4 Y99.4
G1 F1200 X107.6 Y99.4 E111.94696
G1 X107.6 Y120.6 E112.93412
G1 X53.4 Y120.6 E115.4579
G1 X53.4 Y99.4 E116.44506
G0 F6000 X53.8 Y99.8
G1 F1200 X107.2 Y99.8 E118.93159
G1 X107.2 Y120.2 E119.8815
G1 X53.8 Y120.2 E122.36803
G1 X53.8 Y99.8 E123.31794
G0 F6000 X54.2 Y100.2
G1 F1200 X106.8 Y100.2 E125.76721
G1 X106.8 Y119.8 E126.67987
G1 X54.2 Y119.8 E129.12915
G1 X54.2 Y100.2 E130.04181
G0 F6000 X54.6 Y100.6
G1 F1200 X106.4 Y100.6 E132.45383
G1 X106.4 Y119.4 E133.32924
G1 X54.6 Y119.4 E135.74126
G1 X54.6 Y100.6 E136.61667
G1 F1500 E130.11667
G0 F6000 X54.135 Y100.6
G0 X40 Y115.493
G1 F1500 E136.61667
G1 F1200 X42.125 Y116.556 E136.72731
G1 X42.125 Y118.444 E136.81522
G1 X40 Y119.507 E136.92586
G1 X37.875 Y118.444 E137.0365
G1 X37.875 Y116.556 E137.12441
G1 X40 Y115.493 E137.23505
G0 F6000 X40 Y115.941
G1 F1200 X41.725 Y116.803 E137.32484
G1 X41.725 Y118.196 E137.38971
G1 X40 Y119.059 E137.47952
G1 X38.275 Y118.197 E137.56932
G1 X38.275 Y116.804 E137.63418
G1 X40 Y115.941 E137.724
G0 F6000 X39.999 Y116.388
G1 F1200 X41.325 Y117.051 E137.79303
G1 X41.325 Y117.95 E137.83489
G1 X40.001 Y118.612 E137.90382
G1 X38.675 Y117.949 E137.97285
G1 X38.675 Y117.05 E138.01471
G1 X39.999 Y116.388 E138.08364
G0 F6000 X40 Y116.835
G1 F1200 X40.925 Y117.297 E138.13178
G1 X40.925 Y117.702 E138.15064
G1 X40 Y118.165 E138.19881
G1 X39.075 Y117.703 E138.24695
G1 X39.075 Y117.298 E138.26581
G1 X40 Y116.835 E138.31398
G0 F6000 X40 Y117.282
G1 F1200 X40.435 Y117.5 E138.33663
G1 X40 Y117.718 E138.35929
G1 X39.565 Y117.5 E138.38195
G1 X40 Y117.282 E138.4046
G1 F1500 E131.9046
G0 F6000 X50.586 Y114.63
G0 X50.653 Y96.653
G0 X110.347 Y96.653
G0 X110.413 Y99.648
G0 X117 Y98
G1 F1500 E138.4046
G1 F1200 X158 Y98 E140.31374
G1 X158 Y122 E141.43128
G1 X142.786 Y122 E142.1397
G1 X142.645 Y122.059 E142.14682
G1 X142.059 Y122.645 E142.18541
G1 X142 Y122.786 E142.19253
G1 X142 Y124.8 E142.28631
G1 X117 Y124.8 E143.45041
G1 X117 Y98 E144.69833
G0 F6000 X117.4 Y98.4
G1 F1200 X157.6 Y98.4 E146.57021
G1 X157.6 Y121.6 E147.6505
G1 X142.786 Y121.6 E148.3403
G1 X142.571 Y121.64 E148.35049
G1 X142.362 Y121.776 E148.3621
G1 X141.776 Y122.362 E148.40069
G1 X141.652 Y122.541 E148.41083
G1 X141.6 Y122.786 E148.42249
G1 X141.6 Y124.4 E148.49764
G1 X117.4 Y124.4 E149.6245
G1 X117.4 Y98.4 E150.83517
G0 F6000 X117.8 Y98.8
G1 F1200 X157.2 Y98.8 E152.6698
G1 X157.2 Y121.2 E153.71283
G1 X142.786 Y121.2 E154.38401
G1 X142.507 Y121.24 E154.39713
G1 X142.25 Y121.356 E154.41026
G1 X142.079 Y121.493 E154.42047
G1 X141.493 Y122.079 E154.45906
G1 X141.324 Y122.305 E154.4722
G1 X141.224 Y122.569 E154.48534
G1 X141.2 Y122.786 E154.49551
G1 X141.2 Y124 E154.55204
G1 X117.8 Y124 E155.64164
G1 X117.8 Y98.8 E156.81506
G0 F6000 X118.2 Y99.2
G1 F1200 X156.8 Y99.2 E158.61243
G1 X156.8 Y120.8 E159.61822
G1 X142.786 Y120.8 E160.27077
G1 X142.454 Y120.84 E160.28634
G1 X142.142 Y120.957 E160.30186
G1 X141.796 Y121.21 E160.32182
G1 X141.21 Y121.796 E160.36041
G1 X141.004 Y122.059 E160.37596
G1 X140.865 Y122.363 E160.39153
G1 X140.8 Y122.786 E160.41145
G1 X140.8 Y123.6 E160.44936
G1 X118.2 Y123.6 E161.50171
G1 X118.2 Y99.2 E162.63787
G0 F6000 X118.6 Y99.6
G1 F1200 X156.4 Y99.6 E164.398
G1 X156.4 Y120.4 E165.36654
G1 X142.786 Y120.4 E166.00046
G1 X142.409 Y120.44 E166.01811
G1 X142.049 Y120.558 E166.03575
G1 X141.722 Y120.748 E166.05336
G1 X141.513 Y120.927 E166.06618
G1 X140.927 Y121.513 E166.10477
G1 X140.689 Y121.808 E166.12242
G1 X140.518 Y122.146 E166.14005
G1 X140.421 Y122.512 E166.15769
G1 X140.4 Y122.786 E166.17048
G1 X140.4 Y123.2 E166.18976
G1 X118.6 Y123.2 E167.20486
G1 X118.6 Y99.6 E168.30377
G0 F6000 X119 Y100
G1 F1200 X156 Y100 E170.02665
G1 X156 Y120 E170.95793
G1 X142.786 Y120 E171.57323
G1 X142.369 Y120.04 E171.59274
G1 X141.967 Y120.158 E171.61225
G1 X141.595 Y120.351 E171.63176
G1 X141.23 Y120.644 E171.65356
G1 X140.644 Y121.23 E171.69214
G1 X140.378 Y121.554 E171.71166
G1 X140.177 Y121.921 E171.73115
G1 X140.05 Y122.321 E171.75069
G1 X140 Y122.786 E171.77247
G1 X140 Y122.8 E171.77312
G1 X119 Y122.8 E172.75097
G1 X119 Y100 E173.81263
G0 F6000 X119.4 Y100.4
G1 F1200 X155.6 Y100.4 E175.49825
G1 X155.6 Y119.6 E176.39229
G1 X142.786 Y119.6 E176.98896
G1 X142.332 Y119.64 E177.01018
G1 X141.892 Y119.758 E177.03139
G1 X141.48 Y119.952 E177.0526
G1 X140.948 Y120.362 E177.08388
G1 X140.362 Y120.948 E177.12246
G1 X140.069 Y121.297 E177.14368
G1 X139.842 Y121.692 E177.1649
G1 X139.687 Y122.12 E177.18609
G1 X139.65 Y122.4 E177.19924
G1 X119.4 Y122.4 E178.14217
G1 X119.4 Y100.4 E179.16658
G0 F6000 X119.8 Y100.8
G1 F1200 X155.2 Y100.8 E180.81495
G1 X155.2 Y119.2 E181.67173
G1 X142.786 Y119.2 E182.24978
G1 X142.298 Y119.24 E182.27258
G1 X141.823 Y119.359 E182.29538
G1 X141.374 Y119.553 E182.31816
G1 X140.962 Y119.818 E182.34097
G1 X140.665 Y120.079 E182.35938
G1 X140.079 Y120.665 E182.39797
G1 X139.762 Y121.038 E182.42076
G1 X139.51 Y121.458 E182.44357
G1 X139.33 Y121.913 E182.46635
G1 X139.311 Y122 E182.4705
G1 X119.8 Y122 E183.37901
G1 X119.8 Y100.8 E184.36618
G0 F6000 X120.2 Y101.2
G1 F1200 X154.8 Y101.2 E185.9773
G1 X154.8 Y118.8 E186.79683
G1 X142.786 Y118.8 E187.35625
G1 X142.266 Y118.84 E187.38053
G1 X141.759 Y118.959 E187.40478
