;FLAVOR:Marlin
;TIME:14125
;Filament used: 11.1266m
;Layer height: 0.28
;MINX:60.207
;MINY:51.23
;MINZ:0.28
;MAXX:149.47
;MAXY:163.995
;MAXZ:86.8
;Generated with Cura_SteamEngine 4.4.1
M140 S60
M105
M190 S60
M104 S210
M105
M109 S210
M82 ;absolute extrusion mode
M201 X500.00 Y500.00 Z100.00 E5000.00 ;Setup machine max acceleration
M203 X500.00 Y500.00 Z10.00 E50.00 ;Setup machine max feedrate
M204 P500.00 R1000.00 T500.00 ;Setup Print/Retract/Travel acceleration
M205 X8.00 Y8.00 Z0.40 E5.00 ;Setup Jerk
M220 S100 ;Reset Feedrate
M221 S100 ;Reset Flowrate

G28 ;Home

G92 E0 ;Reset Extruder
G1 Z2.0 F3000 ;Move Z Axis up
G1 X10.1 Y20 Z0.28 F5000.0 ;Move to start position
G1 X10.1 Y200.0 Z0.28 F1500.0 E15 ;Draw the first line
G1 X10.4 Y200.0 Z0.28 F5000.0 ;Move to side a little
G1 X10.4 Y20 Z0.28 F1500.0 E30 ;Draw the second line
G92 E0 ;Reset Extruder
G1 Z2.0 F3000 ;Move Z Axis up

G92 E0
G92 E0
G1 F1500 E-6.5
;LAYER_COUNT:310
;LAYER:0
M107
G0 F6000 X68.362 Y61.573 Z0.28
;TYPE:SKIRT
G1 F1500 E0
G1 F1200 X68.585 Y61.33 E0.01536
G1 X68.969 Y60.923 E0.04141
G1 X69.245 Y60.641 E0.05979
G1 X69.906 Y59.989 E0.10302
G1 X70.172 Y59.736 E0.12011
G1 X70.586 Y59.354 E0.14634
G1 X70.852 Y59.116 E0.16296
G1 X71.287 Y58.74 E0.18974
G1 X71.569 Y58.504 E0.20686
G1 X72.172 Y58.017 E0.24295
G1 X72.515 Y57.751 E0.26316
G1 X73.309 Y57.16 E0.30925
G1 X73.587 Y56.96 E0.3252
G1 X73.993 Y56.677 E0.34824
G1 X74.303 Y56.469 E0.36563
G1 X74.743 Y56.184 E0.39004
G1 X75.06 Y55.986 E0.40744
G1 X75.826 Y55.526 E0.44905
G1 X76.189 Y55.317 E0.46855
G1 X76.891 Y54.931 E0.50585
G1 X77.266 Y54.734 E0.52558
G1 X77.919 Y54.407 E0.55958
G1 X78.292 Y54.229 E0.57883
G1 X78.985 Y53.914 E0.61428
G1 X79.353 Y53.755 E0.63294
G1 X80.238 Y53.391 E0.6775
G1 X80.611 Y53.245 E0.69615
G1 X81.009 Y53.098 E0.71591
G1 X81.319 Y52.989 E0.73121
G1 X82.025 Y52.752 E0.76589
G1 X82.352 Y52.648 E0.78187
G1 X83.019 Y52.447 E0.8143
G1 X83.348 Y52.353 E0.83024
G1 X83.643 Y52.274 E0.84446
G1 X83.913 Y52.206 E0.85742
G1 X84.673 Y52.023 E0.89382
G1 X85.022 Y51.945 E0.91047
G1 X85.719 Y51.801 E0.94361
G1 X86.019 Y51.743 E0.95784
G1 X86.435 Y51.669 E0.97752
G1 X86.686 Y51.627 E0.98937
G1 X87.056 Y51.57 E1.0068
G1 X87.399 Y51.523 E1.02292
G1 X88.112 Y51.436 E1.05637
G1 X88.471 Y51.398 E1.07318
G1 X89.248 Y51.329 E1.1095
G1 X89.667 Y51.3 E1.12906
G1 X90.718 Y51.247 E1.17806
G1 X91.101 Y51.234 E1.1959
G1 X91.359 Y51.23 E1.20792
G1 X91.666 Y51.23 E1.22221
G1 X92.396 Y51.239 E1.25621
G1 X92.825 Y51.253 E1.27619
G1 X93.719 Y51.299 E1.31788
G1 X94.113 Y51.326 E1.33627
G1 X94.936 Y51.398 E1.37473
G1 X95.334 Y51.44 E1.39337
G1 X95.865 Y51.506 E1.41829
G1 X96.197 Y51.553 E1.4339
G1 X96.731 Y51.636 E1.45906
G1 X97.099 Y51.699 E1.47645
G1 X97.987 Y51.868 E1.51854
G1 X98.393 Y51.953 E1.53785
G1 X99.098 Y52.115 E1.57154
G1 X99.51 Y52.218 E1.59131
G1 X100.304 Y52.433 E1.62962
G1 X100.689 Y52.545 E1.64829
G1 X101.385 Y52.761 E1.68222
G1 X101.792 Y52.896 E1.70219
G1 X102.567 Y53.17 E1.74046
G1 X102.947 Y53.312 E1.75935
G1 X103.632 Y53.583 E1.79365
G1 X104.023 Y53.747 E1.8134
G1 X104.869 Y54.12 E1.85645
G1 X105.202 Y54.273 E1.87351
G1 X105.738 Y54.531 E1.90121
G1 X106.015 Y54.67 E1.91564
G1 X106.288 Y54.811 E1.92995
G1 X106.567 Y54.96 E1.94468
G1 X107.109 Y55.26 E1.97353
G1 X107.452 Y55.458 E1.99197
G1 X108.333 Y55.988 E2.03984
G1 X108.636 Y56.177 E2.05647
G1 X109.185 Y56.532 E2.08691
G1 X109.458 Y56.715 E2.10222
G1 X109.803 Y56.953 E2.12173
G1 X109.899 Y57.019 E2.12716
G1 X112.254 Y58.681 E2.26137
G1 X114.312 Y60.046 E2.37637
G1 X116.459 Y61.383 E2.49414
G1 X118.632 Y62.652 E2.61131
G1 X120.86 Y63.872 E2.72959
G1 X123.062 Y64.996 E2.84471
G1 X125.389 Y66.104 E2.96472
G1 X126.704 Y66.696 E3.03188
G1 X127.541 Y67.118 E3.07552
G1 X128.34 Y67.609 E3.11919
G1 X129.095 Y68.166 E3.16288
G1 X129.799 Y68.786 E3.20656
G1 X130.447 Y69.463 E3.2502
G1 X131.036 Y70.193 E3.29387
G1 X131.56 Y70.971 E3.33755
G1 X132.017 Y71.79 E3.38122
G1 X132.401 Y72.646 E3.42491
G1 X132.712 Y73.531 E3.46859
G1 X132.946 Y74.439 E3.51225
G1 X133.101 Y75.364 E3.55592
G1 X133.182 Y76.42 E3.60524
G1 X133.191 Y76.743 E3.62029
G1 X133.195 Y77.049 E3.63454
G1 X133.195 Y87.983 E4.14367
G1 X133.194 Y88.134 E4.1507
G1 X133.184 Y88.861 E4.18455
G1 X133.131 Y89.798 E4.22826
G1 X132.999 Y90.726 E4.2719
G1 X132.788 Y91.64 E4.31558
G1 X132.499 Y92.532 E4.35924
G1 X132.136 Y93.397 E4.40292
G1 X131.701 Y94.228 E4.4466
G1 X131.196 Y95.018 E4.49026
G1 X130.626 Y95.763 E4.53394
G1 X129.995 Y96.457 E4.57761
G1 X129.306 Y97.094 E4.62131
G1 X128.566 Y97.67 E4.66497
G1 X127.78 Y98.181 E4.70863
G1 X126.742 Y98.722 E4.76313
G1 X125.767 Y99.166 E4.81302
G1 X123.47 Y100.247 E4.93123
G1 X121.198 Y101.393 E5.04972
G1 X118.971 Y102.599 E5.16764
G1 X116.841 Y103.831 E5.28222
G1 X114.678 Y105.165 E5.40055
G1 X112.577 Y106.544 E5.51758
G1 X111.167 Y107.534 E5.5978
G1 X111.119 Y107.568 E5.60054
G1 X109.588 Y108.631 E5.68733
G1 X109.328 Y108.805 E5.7019
G1 X108.599 Y109.281 E5.74244
G1 X108.24 Y109.506 E5.76216
G1 X107.556 Y109.916 E5.7993
G1 X107.196 Y110.123 E5.81863
G1 X106.373 Y110.575 E5.86236
G1 X106.049 Y110.746 E5.87941
G1 X105.591 Y110.978 E5.90332
G1 X105.305 Y111.118 E5.91815
G1 X104.776 Y111.367 E5.94537
G1 X104.304 Y111.575 E5.96939
G1 X103.443 Y111.932 E6.01279
G1 X103.005 Y112.103 E6.03469
G1 X102.132 Y112.422 E6.07797
G1 X101.749 Y112.554 E6.09683
G1 X100.947 Y112.814 E6.13609
G1 X100.623 Y112.914 E6.15188
G1 X100.134 Y113.056 E6.17559
G1 X99.739 Y113.162 E6.19463
G1 X99.216 Y113.293 E6.21974
G1 X98.881 Y113.372 E6.23576
G1 X97.842 Y113.598 E6.28527
G1 X97.461 Y113.673 E6.30336
G1 X97.002 Y113.756 E6.32508
G1 X96.672 Y113.811 E6.34065
G1 X96.157 Y113.888 E6.3649
G1 X95.773 Y113.939 E6.38294
G1 X94.665 Y114.065 E6.43486
G1 X94.27 Y114.102 E6.45334
G1 X93.921 Y114.129 E6.46964
G1 X93.6 Y114.149 E6.48461
G1 X92.683 Y114.193 E6.52736
G1 X92.364 Y114.204 E6.54222
G1 X91.94 Y114.212 E6.56197
G1 X91.514 Y114.212 E6.58181
G1 X90.809 Y114.198 E6.61464
G1 X90.453 Y114.185 E6.63123
G1 X89.669 Y114.144 E6.66779
G1 X89.3 Y114.119 E6.68501
G1 X88.777 Y114.074 E6.70945
G1 X88.457 Y114.041 E6.72443
G1 X87.791 Y113.964 E6.75565
G1 X87.392 Y113.911 E6.77439
G1 X86.502 Y113.775 E6.81631
G1 X86.161 Y113.717 E6.83242
G1 X85.567 Y113.607 E6.86055
G1 X85.189 Y113.53 E6.87851
G1 X84.756 Y113.434 E6.89916
G1 X84.394 Y113.347 E6.9165
G1 X83.431 Y113.099 E6.96281
G1 X83.033 Y112.989 E6.98203
G1 X82.261 Y112.759 E7.01954
G1 X81.905 Y112.646 E7.03693
G1 X81.398 Y112.476 E7.06183
G1 X81.101 Y112.372 E7.07649
G1 X80.584 Y112.182 E7.10213
G1 X80.194 Y112.03 E7.12162
G1 X79.36 Y111.687 E7.16362
G1 X78.97 Y111.518 E7.18341
G1 X78.292 Y111.208 E7.21812
G1 X77.941 Y111.04 E7.23624
G1 X77.234 Y110.686 E7.27306
G1 X76.869 Y110.495 E7.29224
G1 X76.085 Y110.065 E7.33388
G1 X75.735 Y109.864 E7.35267
G1 X75.313 Y109.612 E7.37556
G1 X75.034 Y109.44 E7.39082
G1 X74.575 Y109.147 E7.41618
G1 X74.251 Y108.932 E7.43428
G1 X73.424 Y108.362 E7.48105
G1 X73.122 Y108.146 E7.49834
G1 X72.706 Y107.838 E7.52244
G1 X72.425 Y107.623 E7.53892
G1 X71.869 Y107.183 E7.57193
G1 X71.6 Y106.963 E7.58811
G1 X71.177 Y106.606 E7.61389
G1 X70.926 Y106.388 E7.62937
G1 X70.508 Y106.013 E7.65552
G1 X70.222 Y105.747 E7.6737
G1 X69.566 Y105.115 E7.71612
G1 X69.268 Y104.816 E7.73578
G1 X68.747 Y104.274 E7.77078
G1 X68.471 Y103.977 E7.78966
G1 X67.83 Y103.259 E7.83448
G1 X67.576 Y102.964 E7.85261
G1 X67.335 Y102.674 E7.87017
G1 X67.126 Y102.414 E7.8857
G1 X66.73 Y101.907 E7.91566
G1 X66.499 Y101.6 E7.93355
G1 X65.939 Y100.829 E7.97792
G1 X65.727 Y100.527 E7.9951
G1 X65.422 Y100.076 E8.02045
G1 X65.224 Y99.773 E8.0373
G1 X64.932 Y99.309 E8.06283
G1 X64.736 Y98.986 E8.08042
G1 X64.234 Y98.124 E8.12687
G1 X64.06 Y97.813 E8.14347
G1 X63.85 Y97.424 E8.16405
G1 X63.677 Y97.09 E8.18157
G1 X63.332 Y96.395 E8.2177
G1 X63.196 Y96.111 E8.23236
G1 X62.982 Y95.647 E8.25615
G1 X62.836 Y95.317 E8.27296
G1 X62.552 Y94.644 E8.30697
G1 X62.42 Y94.315 E8.32348
G1 X62.127 Y93.553 E8.36149
G1 X62.025 Y93.277 E8.37519
G1 X61.934 Y93.02 E8.38789
G1 X61.842 Y92.75 E8.40117
G1 X61.708 Y92.338 E8.42134
G1 X61.615 Y92.035 E8.4361
G1 X61.425 Y91.388 E8.4675
G1 X61.322 Y91.015 E8.48552
G1 X61.069 Y90.026 E8.53305
G1 X60.99 Y89.694 E8.54894
G1 X60.854 Y89.084 E8.57805
G1 X60.773 Y88.687 E8.59691
G1 X60.725 Y88.427 E8.60922
G1 X60.682 Y88.182 E8.62081
G1 X60.577 Y87.531 E8.65151
G1 X60.525 Y87.17 E8.66849
G1 X60.421 Y86.354 E8.7068
G1 X60.375 Y85.927 E8.7268
G1 X60.298 Y85.052 E8.7677
G1 X60.269 Y84.632 E8.7873
G1 X60.224 Y83.723 E8.82968
G1 X60.213 Y83.365 E8.84636
G1 X60.208 Y83.07 E8.8601
G1 X60.207 Y82.736 E8.87565
G1 X60.219 Y81.845 E8.91714
G1 X60.23 Y81.48 E8.93414
G1 X60.254 Y80.966 E8.9581
G1 X60.276 Y80.616 E8.97443
G1 X60.321 Y80.044 E9.00115
G1 X60.358 Y79.661 E9.01907
G1 X60.464 Y78.731 E9.06265
G1 X60.517 Y78.328 E9.08158
G1 X60.618 Y77.662 E9.11295
G1 X60.688 Y77.256 E9.13213
G1 X60.87 Y76.299 E9.17749
G1 X60.949 Y75.919 E9.19556
G1 X61.06 Y75.43 E9.21891
G1 X61.141 Y75.096 E9.23492
G1 X61.296 Y74.5 E9.26359
G1 X61.388 Y74.167 E9.27968
G1 X61.577 Y73.524 E9.31089
G1 X61.681 Y73.191 E9.32713
G1 X61.846 Y72.689 E9.35174
G1 X61.972 Y72.326 E9.36963
G1 X62.274 Y71.505 E9.41036
G1 X62.419 Y71.132 E9.429
G1 X62.721 Y70.395 E9.46608
G1 X62.893 Y70 E9.48614
G1 X63.248 Y69.222 E9.52596
G1 X63.407 Y68.888 E9.54319
G1 X63.711 Y68.277 E9.57497
G1 X63.861 Y67.985 E9.59025
G1 X63.967 Y67.787 E9.60071
G1 X64.108 Y67.532 E9.61428
G1 X64.503 Y66.839 E9.65142
G1 X64.683 Y66.536 E9.66783
G1 X65.027 Y65.975 E9.69847
G1 X65.208 Y65.688 E9.71427
G1 X65.487 Y65.263 E9.73795
G1 X65.707 Y64.942 E9.75607
G1 X66.217 Y64.222 E9.79715
G1 X66.455 Y63.898 E9.81587
G1 X66.946 Y63.256 E9.85351
G1 X67.21 Y62.925 E9.87322
G1 X67.738 Y62.287 E9.91178
G1 X67.988 Y61.994 E9.92972
G1 X68.362 Y61.573 E9.95594
G0 F6000 X68.661 Y61.839
G1 F1200 X68.876 Y61.605 E9.97074
G1 X69.26 Y61.198 E9.99679
G1 X69.526 Y60.925 E10.01454
G1 X70.187 Y60.273 E10.05777
G1 X70.443 Y60.03 E10.07421
G1 X70.857 Y59.648 E10.10044
G1 X71.113 Y59.419 E10.11643
G1 X71.548 Y59.043 E10.14321
G1 X71.82 Y58.816 E10.1597
G1 X72.423 Y58.329 E10.1958
G1 X72.754 Y58.072 E10.21531
G1 X73.548 Y57.481 E10.2614
G1 X73.816 Y57.288 E10.27678
G1 X74.222 Y57.005 E10.29982
G1 X74.52 Y56.804 E10.31656
G1 X74.96 Y56.519 E10.34097
G1 X75.266 Y56.329 E10.35774
G1 X76.032 Y55.869 E10.39935
G1 X76.382 Y55.668 E10.41814
G1 X77.084 Y55.282 E10.45544
G1 X77.445 Y55.092 E10.47444
G1 X78.098 Y54.765 E10.50845
G1 X78.458 Y54.593 E10.52702
G1 X79.151 Y54.278 E10.56247
G1 X79.505 Y54.125 E10.58043
G1 X80.39 Y53.761 E10.62499
G1 X80.749 Y53.621 E10.64293
G1 X81.147 Y53.474 E10.66269
G1 X81.447 Y53.368 E10.6775
G1 X82.153 Y53.131 E10.71218
G1 X82.468 Y53.031 E10.72757
G1 X83.135 Y52.83 E10.76001
G1 X83.451 Y52.74 E10.7753
G1 X83.746 Y52.661 E10.78953
G1 X84.007 Y52.595 E10.80206
G1 X84.767 Y52.412 E10.83846
G1 X85.103 Y52.336 E10.8545
G1 X85.8 Y52.192 E10.88764
G1 X86.089 Y52.137 E10.90134
G1 X86.505 Y52.063 E10.92102
G1 X86.747 Y52.023 E10.93244
G1 X87.117 Y51.966 E10.94987
G1 X87.447 Y51.92 E10.96538
G1 X88.16 Y51.833 E10.99883
G1 X88.506 Y51.797 E11.01503
G1 X89.283 Y51.728 E11.05135
G1 X89.687 Y51.699 E11.07021
G1 X90.738 Y51.646 E11.11921
G1 X91.108 Y51.634 E11.13645
G1 X91.366 Y51.63 E11.14847
G1 X91.661 Y51.63 E11.1622
G1 X92.391 Y51.639 E11.1962
G1 X92.805 Y51.652 E11.21548
G1 X93.699 Y51.698 E11.25717
G1 X94.078 Y51.724 E11.27486
G1 X94.901 Y51.796 E11.31333
G1 X95.284 Y51.837 E11.33126
G1 X95.815 Y51.903 E11.35618
G1 X96.136 Y51.948 E11.37127
G1 X96.67 Y52.031 E11.39643
G1 X97.024 Y52.092 E11.41316
G1 X97.912 Y52.261 E11.45525
G1 X98.304 Y52.343 E11.4739
G1 X99.009 Y52.505 E11.50758
G1 X99.406 Y52.604 E11.52664
G1 X100.2 Y52.819 E11.56494
G1 X100.571 Y52.927 E11.58293
G1 X101.267 Y53.143 E11.61686
G1 X101.658 Y53.273 E11.63605
G1 X102.433 Y53.547 E11.67433
G1 X102.799 Y53.684 E11.69253
G1 X103.484 Y53.955 E11.72683
G1 X103.861 Y54.113 E11.74586
G1 X104.707 Y54.486 E11.78891
G1 X105.028 Y54.634 E11.80537
G1 X105.564 Y54.892 E11.83307
G1 X105.831 Y55.025 E11.84696
G1 X106.104 Y55.166 E11.86127
G1 X106.373 Y55.31 E11.87548
G1 X106.915 Y55.61 E11.90432
G1 X107.246 Y55.801 E11.92212
G1 X108.127 Y56.331 E11.96999
G1 X108.419 Y56.513 E11.98601
G1 X108.968 Y56.868 E12.01646
G1 X109.231 Y57.044 E12.03119
G1 X109.576 Y57.282 E12.05071
G1 X109.668 Y57.346 E12.05593
G1 X112.008 Y58.997 E12.18928
G1 X114.086 Y60.375 E12.30538
G1 X116.267 Y61.734 E12.42504
G1 X118.459 Y63.014 E12.54323
G1 X120.65 Y64.213 E12.65953
G1 X122.915 Y65.37 E12.77797
G1 X125.211 Y66.463 E12.89637
G1 X126.539 Y67.061 E12.96419
G1 X127.361 Y67.475 E13.00705
G1 X128.145 Y67.959 E13.04995
G1 X128.883 Y68.509 E13.09281
G1 X129.571 Y69.122 E13.13571
G1 X130.203 Y69.791 E13.17857
G1 X130.774 Y70.513 E13.22143
G1 X131.281 Y71.281 E13.26428
G1 X131.719 Y72.091 E13.30716
G1 X132.085 Y72.936 E13.35004
G1 X132.377 Y73.809 E13.3929
G1 X132.591 Y74.704 E13.43575
G1 X132.728 Y75.615 E13.47865
G1 X132.782 Y76.431 E13.51673
G1 X132.791 Y76.754 E13.53178
G1 X132.795 Y77.049 E13.54551
G1 X132.795 Y87.983 E14.05465
G1 X132.794 Y88.129 E14.06144
G1 X132.784 Y88.856 E14.0953
G1 X132.731 Y89.775 E14.13816
G1 X132.599 Y90.686 E14.18103
G1 X132.388 Y91.582 E14.22389
G1 X132.101 Y92.457 E14.26677
G1 X131.738 Y93.303 E14.30964
G1 X131.304 Y94.115 E14.35251
G1 X130.8 Y94.886 E14.3954
G1 X130.232 Y95.61 E14.43825
G1 X129.603 Y96.282 E14.48111
G1 X128.918 Y96.897 E14.52397
G1 X128.182 Y97.45 E14.56684
G1 X127.401 Y97.938 E14.60972
G1 X126.576 Y98.358 E14.65283
G1 X125.609 Y98.798 E14.7023
G1 X123.298 Y99.885 E14.82122
G1 X120.992 Y101.049 E14.9415
G1 X118.802 Y102.236 E15.05749
G1 X116.627 Y103.494 E15.17449
G1 X114.464 Y104.827 E15.2928
G1 X112.364 Y106.205 E15.40975
G1 X110.937 Y107.207 E15.49095
G1 X110.89 Y107.239 E15.49359
G1 X109.359 Y108.302 E15.58038
G1 X109.109 Y108.471 E15.59443
G1 X108.38 Y108.947 E15.63497
G1 X108.035 Y109.163 E15.65393
G1 X107.351 Y109.573 E15.69106
G1 X107.004 Y109.772 E15.70969
G1 X106.181 Y110.224 E15.75341
G1 X105.868 Y110.389 E15.76988
G1 X105.41 Y110.621 E15.79379
G1 X105.134 Y110.756 E15.8081
G1 X104.605 Y111.005 E15.83532
G1 X104.151 Y111.206 E15.85844
G1 X103.29 Y111.563 E15.90184
G1 X102.868 Y111.727 E15.92293
G1 X101.995 Y112.046 E15.9662
G1 X101.626 Y112.173 E15.98438
G1 X100.824 Y112.433 E16.02363
G1 X100.511 Y112.529 E16.03888
G1 X100.022 Y112.671 E16.06259
G1 X99.642 Y112.774 E16.08092
G1 X99.119 Y112.905 E16.10603
G1 X98.796 Y112.981 E16.12148
G1 X97.757 Y113.207 E16.17099
G1 X97.39 Y113.28 E16.18841
G1 X96.931 Y113.363 E16.21013
G1 X96.612 Y113.415 E16.22518
G1 X96.097 Y113.492 E16.24943
G1 X95.728 Y113.541 E16.26676
G1 X94.62 Y113.667 E16.31869
G1 X94.24 Y113.703 E16.33646
G1 X93.891 Y113.73 E16.35276
G1 X93.581 Y113.75 E16.36723
G1 X92.664 Y113.794 E16.40998
G1 X92.356 Y113.804 E16.42432
G1 X91.932 Y113.812 E16.44407
G1 X91.522 Y113.812 E16.46316
G1 X90.817 Y113.798 E16.496
G1 X90.473 Y113.786 E16.51202
G1 X89.689 Y113.745 E16.54858
G1 X89.334 Y113.72 E16.56515
G1 X88.811 Y113.675 E16.5896
G1 X88.503 Y113.644 E16.60401
G1 X87.837 Y113.567 E16.63523
G1 X87.453 Y113.515 E16.65327
G1 X86.563 Y113.379 E16.69519
G1 X86.234 Y113.324 E16.71073
G1 X85.64 Y113.214 E16.73886
G1 X85.276 Y113.14 E16.75615
G1 X84.843 Y113.044 E16.7768
G1 X84.493 Y112.96 E16.79356
G1 X83.53 Y112.712 E16.83987
G1 X83.147 Y112.606 E16.85837
G1 X82.375 Y112.376 E16.89588
G1 X82.032 Y112.267 E16.91264
G1 X81.525 Y112.097 E16.93754
G1 X81.239 Y111.996 E16.95166
G1 X80.722 Y111.806 E16.97731
G1 X80.346 Y111.66 E16.99609
G1 X79.512 Y111.317 E17.03808
G1 X79.136 Y111.154 E17.05717
G1 X78.458 Y110.844 E17.09188
G1 X78.12 Y110.682 E17.10933
G1 X77.413 Y110.328 E17.14615
G1 X77.062 Y110.144 E17.1646
G1 X76.278 Y109.714 E17.20624
G1 X75.94 Y109.521 E17.22437
G1 X75.518 Y109.269 E17.24725
G1 X75.25 Y109.103 E17.26193
G1 X74.791 Y108.81 E17.28729
G1 X74.478 Y108.603 E17.30476
G1 X73.651 Y108.033 E17.35153
G1 X73.36 Y107.824 E17.36821
G1 X72.944 Y107.516 E17.39232
G1 X72.673 Y107.309 E17.40819
G1 X72.117 Y106.869 E17.44121
G1 X71.858 Y106.658 E17.45677
