;FLAVOR:Marlin
;TIME:18895
;Filament used: 17.3596m
;Layer height: 0.28
;MINX:54.5
;MINY:68.5
;MINZ:0.28
;MAXX:165.5
;MAXY:151.5
;MAXZ:60.76
;Generated with Cura_SteamEngine 4.4.1
M140 S50
M105
M190 S50
M104 S200
M105
M109 S200
M82 ;absolute extrusion mode
M201 X500.00 Y500.00 Z100.00 E5000.00 ;Setup machine max acceleration
M203 X500.00 Y500.00 Z10.00 E50.00 ;Setup machine max feedrate
M204 P500.00 R1000.00 T500.00 ;Setup Print/Retract/Travel acceleration
M205 X8.00 Y8.00 Z0.40 E5.00 ;Setup Jerk
M220 S100 ;Reset Feedrate
M221 S100 ;Reset Flowrate

G28 ;Home

G92 E0 ;Reset Extruder
G1 Z2.0 F3000 ;Move Z Axis up
G1 X10.1 Y20 Z0.28 F5000.0 ;Move to start position
G1 X10.1 Y200.0 Z0.28 F1500.0 E15 ;Draw the first line
G1 X10.4 Y200.0 Z0.28 F5000.0 ;Move to side a little
G1 X10.4 Y20 Z0.28 F1500.0 E30 ;Draw the second line
G92 E0 ;Reset Extruder
G1 Z2.0 F3000 ;Move Z Axis up

G92 E0
G92 E0
G1 F1500 E-6.5
;LAYER_COUNT:217
;LAYER:0
M107
G0 F6000 X59.494 Y71.779 Z0.28
;TYPE:SKIRT
G1 F1500 E0
G1 F1200 X59.744 Y71.583 E0.01479
G1 X60.661 Y70.937 E0.06702
G1 X60.932 Y70.766 E0.08194
G1 X62.124 Y70.113 E0.14523
G1 X62.639 Y69.871 E0.17173
G1 X63.712 Y69.434 E0.22568
G1 X63.983 Y69.34 E0.23903
G1 X64.657 Y69.131 E0.27189
G1 X65.026 Y69.029 E0.28972
G1 X66.023 Y68.802 E0.33733
G1 X66.247 Y68.762 E0.34793
G1 X66.694 Y68.692 E0.36899
G1 X67.163 Y68.628 E0.39103
G1 X68.262 Y68.534 E0.4424
G1 X69.027 Y68.507 E0.47804
G1 X69.415 Y68.5 E0.49611
G1 X150.186 Y68.5 E4.25714
G1 X150.335 Y68.501 E4.26408
G1 X151.074 Y68.511 E4.2985
G1 X151.383 Y68.52 E4.31289
G1 X151.647 Y68.531 E4.3252
G1 X151.975 Y68.549 E4.34049
G1 X152.352 Y68.576 E4.35809
G1 X153.313 Y68.688 E4.40314
G1 X153.543 Y68.725 E4.41399
G1 X154.067 Y68.822 E4.4388
G1 X154.484 Y68.91 E4.45865
G1 X155.667 Y69.229 E4.5157
G1 X156.054 Y69.357 E4.53468
G1 X156.33 Y69.453 E4.54829
G1 X156.527 Y69.524 E4.55804
G1 X157.759 Y70.055 E4.62051
G1 X158.224 Y70.29 E4.64477
G1 X159.042 Y70.748 E4.68842
G1 X159.602 Y71.118 E4.71968
G1 X160.06 Y71.441 E4.74577
G1 X160.802 Y72.013 E4.7894
G1 X161.552 Y72.706 E4.83695
G1 X161.765 Y72.922 E4.85107
G1 X162.395 Y73.618 E4.89479
G1 X162.796 Y74.13 E4.92507
G1 X163.143 Y74.602 E4.95235
G1 X163.665 Y75.381 E4.99601
G1 X164.12 Y76.201 E5.03968
G1 X164.648 Y77.444 E5.10256
G1 X164.822 Y77.935 E5.12682
G1 X165.098 Y78.831 E5.17047
G1 X165.295 Y79.748 E5.21415
G1 X165.404 Y80.56 E5.2523
G1 X165.443 Y80.967 E5.27134
G1 X165.487 Y81.656 E5.30348
G1 X165.494 Y81.87 E5.31345
G1 X165.5 Y82.23 E5.33022
G1 X165.5 Y137.381 E7.89828
G1 X165.499 Y137.529 E7.90517
G1 X165.49 Y138.199 E7.93637
G1 X165.437 Y139.135 E7.98003
G1 X165.358 Y139.755 E8.00913
G1 X165.276 Y140.278 E8.03378
G1 X165.092 Y141.197 E8.07742
G1 X164.829 Y142.098 E8.12113
G1 X164.582 Y142.758 E8.15394
G1 X164.48 Y143.006 E8.16643
G1 X164.016 Y143.993 E8.21721
G1 X163.91 Y144.192 E8.22771
G1 X163.434 Y145.001 E8.27142
G1 X162.911 Y145.739 E8.31354
G1 X162.658 Y146.067 E8.33283
G1 X162.054 Y146.785 E8.37652
G1 X161.477 Y147.368 E8.41471
G1 X161.248 Y147.583 E8.42934
G1 X160.538 Y148.196 E8.47301
G1 X160.042 Y148.565 E8.5018
G1 X159.521 Y148.931 E8.53145
G1 X158.731 Y149.437 E8.57513
G1 X157.891 Y149.879 E8.61933
G1 X157.378 Y150.121 E8.64574
G1 X156.3 Y150.561 E8.69996
G1 X156.027 Y150.656 E8.71342
G1 X155.343 Y150.869 E8.74678
G1 X154.974 Y150.971 E8.7646
G1 X153.977 Y151.198 E8.81222
G1 X153.753 Y151.238 E8.82281
G1 X153.306 Y151.308 E8.84388
G1 X152.837 Y151.372 E8.86592
G1 X151.738 Y151.466 E8.91728
G1 X150.973 Y151.493 E8.95293
G1 X150.585 Y151.5 E8.971
G1 X70.229 Y151.5 E12.71271
G1 X70.011 Y151.498 E12.72286
G1 X68.447 Y151.467 E12.7957
G1 X67.193 Y151.37 E12.85427
G1 X66.556 Y151.284 E12.8842
G1 X65.414 Y151.068 E12.93832
G1 X65.132 Y150.999 E12.95183
G1 X64.428 Y150.802 E12.98587
G1 X64.036 Y150.678 E13.00502
G1 X62.844 Y150.223 E13.06443
G1 X62.468 Y150.054 E13.08363
G1 X61.63 Y149.634 E13.12727
G1 X61.209 Y149.387 E13.15
G1 X60.631 Y149.031 E13.18161
G1 X59.854 Y148.506 E13.22528
G1 X58.972 Y147.778 E13.27853
G1 X58.605 Y147.442 E13.3017
G1 X57.941 Y146.78 E13.34536
G1 X57.292 Y146.008 E13.39232
G1 X57.075 Y145.724 E13.40896
G1 X56.538 Y144.955 E13.45264
G1 X56.131 Y144.26 E13.49014
G1 X56.012 Y144.039 E13.50183
G1 X55.603 Y143.195 E13.5455
G1 X55.325 Y142.489 E13.58083
G1 X55.172 Y142.056 E13.60221
G1 X54.898 Y141.159 E13.64589
G1 X54.701 Y140.242 E13.68956
G1 X54.59 Y139.397 E13.72925
G1 X54.554 Y139.005 E13.74758
G1 X54.509 Y138.138 E13.788
G1 X54.503 Y137.662 E13.81017
G1 X54.502 Y137.523 E13.81664
G1 X54.5 Y82.385 E16.3841
G1 X54.503 Y82.126 E16.39616
G1 X54.516 Y81.573 E16.42191
G1 X54.578 Y80.638 E16.46555
G1 X54.798 Y79.345 E16.52662
G1 X54.918 Y78.828 E16.55133
G1 X55.169 Y77.924 E16.59502
G1 X55.496 Y77.045 E16.63869
G1 X55.736 Y76.515 E16.66578
G1 X55.849 Y76.282 E16.67784
G1 X56.493 Y75.134 E16.73913
G1 X56.655 Y74.882 E16.75308
G1 X57.337 Y73.935 E16.80742
G1 X57.481 Y73.756 E16.81812
G1 X58.1 Y73.051 E16.86181
G1 X58.523 Y72.632 E16.88953
G1 X58.752 Y72.417 E16.90416
G1 X59.494 Y71.779 E16.94972
G0 F6000 X59.741 Y72.094
G1 F1200 X59.991 Y71.898 E16.96452
G1 X60.874 Y71.275 E17.01484
G1 X61.145 Y71.104 E17.02976
G1 X62.294 Y70.475 E17.09075
G1 X62.809 Y70.233 E17.11725
G1 X63.843 Y69.812 E17.16923
G1 X64.114 Y69.718 E17.18259
G1 X64.764 Y69.516 E17.21428
G1 X65.133 Y69.414 E17.23211
G1 X66.094 Y69.196 E17.278
G1 X66.318 Y69.156 E17.28859
G1 X66.748 Y69.088 E17.30886
G1 X67.217 Y69.024 E17.3309
G1 X68.276 Y68.934 E17.38039
G1 X69.041 Y68.907 E17.41604
G1 X69.415 Y68.9 E17.43345
G1 X150.186 Y68.9 E21.19449
G1 X150.329 Y68.901 E21.20115
G1 X151.068 Y68.911 E21.23556
G1 X151.366 Y68.919 E21.24944
G1 X151.63 Y68.93 E21.26175
G1 X151.946 Y68.948 E21.27649
G1 X152.323 Y68.975 E21.29409
G1 X153.25 Y69.083 E21.33754
G1 X153.48 Y69.12 E21.34839
G1 X153.985 Y69.213 E21.3723
G1 X154.402 Y69.301 E21.39215
G1 X155.542 Y69.609 E21.44713
G1 X155.929 Y69.737 E21.46611
G1 X156.194 Y69.829 E21.47917
G1 X156.391 Y69.9 E21.48892
G1 X157.578 Y70.412 E21.54912
G1 X158.043 Y70.647 E21.57338
G1 X158.846 Y71.097 E21.61624
G1 X159.371 Y71.445 E21.64557
G1 X159.829 Y71.768 E21.67167
G1 X160.558 Y72.33 E21.71453
G1 X161.268 Y72.987 E21.75957
G1 X161.481 Y73.203 E21.7737
G1 X162.098 Y73.886 E21.81656
G1 X162.473 Y74.367 E21.84496
G1 X162.82 Y74.839 E21.87223
G1 X163.333 Y75.604 E21.91512
G1 X163.777 Y76.41 E21.95797
G1 X164.271 Y77.577 E22.01698
G1 X164.445 Y78.068 E22.04124
G1 X164.715 Y78.949 E22.08414
G1 X164.907 Y79.849 E22.12699
G1 X165.006 Y80.598 E22.16217
G1 X165.045 Y81.005 E22.18121
G1 X165.087 Y81.669 E22.21219
G1 X165.094 Y81.883 E22.22216
G1 X165.1 Y82.23 E22.23832
G1 X165.1 Y137.381 E24.80638
G1 X165.099 Y137.523 E24.813
G1 X165.09 Y138.193 E24.8442
G1 X165.038 Y139.113 E24.88711
G1 X164.963 Y139.693 E24.91434
G1 X164.881 Y140.216 E24.93899
G1 X164.699 Y141.118 E24.98184
G1 X164.44 Y142.002 E25.02473
G1 X164.212 Y142.606 E25.05479
G1 X164.11 Y142.854 E25.06728
G1 X163.663 Y143.805 E25.11621
G1 X163.557 Y144.004 E25.12671
G1 X163.089 Y144.797 E25.16958
G1 X162.594 Y145.495 E25.20943
G1 X162.341 Y145.823 E25.22872
G1 X161.748 Y146.527 E25.27158
G1 X161.203 Y147.077 E25.30763
G1 X160.974 Y147.292 E25.32226
G1 X160.276 Y147.892 E25.36512
G1 X159.812 Y148.238 E25.39207
G1 X159.291 Y148.604 E25.42172
G1 X158.516 Y149.1 E25.46456
G1 X157.72 Y149.517 E25.5064
G1 X157.207 Y149.759 E25.53282
G1 X156.169 Y150.183 E25.58503
G1 X155.896 Y150.278 E25.59849
G1 X155.236 Y150.484 E25.63068
G1 X154.867 Y150.586 E25.64851
G1 X153.906 Y150.804 E25.69439
G1 X153.682 Y150.844 E25.70499
G1 X153.252 Y150.912 E25.72526
G1 X152.783 Y150.976 E25.7473
G1 X151.724 Y151.066 E25.79679
G1 X150.959 Y151.093 E25.83243
G1 X150.585 Y151.1 E25.84985
G1 X70.229 Y151.1 E29.59156
G1 X70.019 Y151.098 E29.60134
G1 X68.455 Y151.067 E29.67418
G1 X67.247 Y150.974 E29.7306
G1 X66.61 Y150.888 E29.76053
G1 X65.509 Y150.679 E29.81271
G1 X65.227 Y150.61 E29.82623
G1 X64.549 Y150.42 E29.85902
G1 X64.157 Y150.296 E29.87816
G1 X63.008 Y149.858 E29.93542
G1 X62.632 Y149.689 E29.95462
G1 X61.419 Y149.046 E30.01854
G1 X60.841 Y148.69 E30.05015
G1 X60.079 Y148.174 E30.093
G1 X59.242 Y147.483 E30.14354
G1 X58.875 Y147.147 E30.16671
G1 X58.224 Y146.497 E30.20955
G1 X57.61 Y145.765 E30.25404
G1 X57.393 Y145.481 E30.27068
G1 X56.867 Y144.726 E30.31353
G1 X56.483 Y144.07 E30.34892
G1 X56.364 Y143.849 E30.36061
G1 X55.963 Y143.021 E30.40345
G1 X55.703 Y142.356 E30.4367
G1 X55.55 Y141.923 E30.45808
G1 X55.281 Y141.042 E30.50097
G1 X55.09 Y140.141 E30.54386
G1 X54.988 Y139.36 E30.58054
G1 X54.952 Y138.968 E30.59887
G1 X54.909 Y138.133 E30.6378
G1 X54.903 Y137.657 E30.65996
G1 X54.902 Y137.523 E30.6662
G1 X54.9 Y82.385 E33.23366
G1 X54.903 Y82.136 E33.24526
G1 X54.916 Y81.583 E33.27101
G1 X54.978 Y80.664 E33.3139
G1 X55.187 Y79.435 E33.37195
G1 X55.307 Y78.918 E33.39666
G1 X55.554 Y78.031 E33.43954
G1 X55.877 Y77.169 E33.4824
G1 X56.095 Y76.689 E33.50695
G1 X56.208 Y76.456 E33.51901
G1 X56.83 Y75.35 E33.57809
G1 X56.992 Y75.098 E33.59204
G1 X57.649 Y74.186 E33.64438
G1 X57.793 Y74.007 E33.65508
G1 X58.401 Y73.315 E33.69797
G1 X58.797 Y72.923 E33.72392
G1 X59.026 Y72.708 E33.73854
G1 X59.741 Y72.094 E33.78243
G0 F6000 X59.988 Y72.409
G1 F1200 X60.238 Y72.213 E33.79722
G1 X61.088 Y71.614 E33.84564
G1 X61.359 Y71.443 E33.86056
G1 X62.464 Y70.837 E33.91925
G1 X62.979 Y70.595 E33.94574
G1 X63.974 Y70.19 E33.99576
G1 X64.245 Y70.096 E34.00912
G1 X64.87 Y69.902 E34.03959
G1 X65.239 Y69.8 E34.05742
G1 X66.164 Y69.59 E34.10159
G1 X66.388 Y69.55 E34.11218
G1 X66.802 Y69.485 E34.1317
G1 X67.271 Y69.421 E34.15374
G1 X68.29 Y69.333 E34.20136
G1 X69.055 Y69.306 E34.23701
G1 X69.415 Y69.3 E34.25377
G1 X150.186 Y69.3 E38.01481
G1 X150.324 Y69.301 E38.02123
G1 X151.063 Y69.311 E38.05565
G1 X151.35 Y69.319 E38.06902
G1 X151.614 Y69.33 E38.08132
G1 X151.918 Y69.347 E38.0955
G1 X152.295 Y69.374 E38.1131
G1 X153.186 Y69.477 E38.15486
G1 X153.416 Y69.514 E38.16571
G1 X153.902 Y69.605 E38.18873
G1 X154.319 Y69.693 E38.20858
G1 X155.416 Y69.989 E38.26149
G1 X155.803 Y70.117 E38.28047
G1 X156.058 Y70.205 E38.29303
G1 X156.255 Y70.276 E38.30278
G1 X157.398 Y70.769 E38.36074
G1 X157.863 Y71.004 E38.385
G1 X158.65 Y71.446 E38.42703
G1 X159.141 Y71.771 E38.45445
G1 X159.599 Y72.094 E38.48055
G1 X160.313 Y72.647 E38.5226
G1 X160.983 Y73.268 E38.56514
G1 X161.196 Y73.484 E38.57926
G1 X161.801 Y74.155 E38.62133
G1 X162.151 Y74.604 E38.64784
G1 X162.498 Y75.076 E38.67512
G1 X163 Y75.827 E38.71718
G1 X163.434 Y76.619 E38.75924
G1 X163.894 Y77.711 E38.81441
G1 X164.068 Y78.202 E38.83867
G1 X164.332 Y79.066 E38.88073
G1 X164.518 Y79.949 E38.92275
G1 X164.607 Y80.636 E38.95501
G1 X164.646 Y81.043 E38.97405
G1 X164.688 Y81.683 E39.00391
G1 X164.695 Y81.897 E39.01388
G1 X164.7 Y82.23 E39.02939
G1 X164.7 Y137.381 E41.59745
G1 X164.699 Y137.518 E41.60383
G1 X164.69 Y138.188 E41.63503
G1 X164.638 Y139.09 E41.6771
G1 X164.568 Y139.631 E41.7025
G1 X164.486 Y140.154 E41.72716
G1 X164.307 Y141.039 E41.7692
G1 X164.05 Y141.905 E41.81126
G1 X163.842 Y142.454 E41.8386
G1 X163.74 Y142.702 E41.85109
G1 X163.31 Y143.617 E41.89816
G1 X163.204 Y143.816 E41.90866
G1 X162.744 Y144.594 E41.95075
G1 X162.278 Y145.251 E41.98825
G1 X162.025 Y145.579 E42.00754
G1 X161.442 Y146.269 E42.0496
G1 X160.93 Y146.785 E42.08345
G1 X160.701 Y147 E42.09808
G1 X160.015 Y147.589 E42.14018
G1 X159.582 Y147.91 E42.16528
G1 X159.061 Y148.276 E42.19493
G1 X158.3 Y148.762 E42.23697
G1 X157.55 Y149.155 E42.2764
G1 X157.037 Y149.397 E42.30281
G1 X156.037 Y149.805 E42.3531
G1 X155.764 Y149.9 E42.36656
G1 X155.13 Y150.098 E42.39749
G1 X154.761 Y150.2 E42.41532
G1 X153.836 Y150.41 E42.45948
G1 X153.612 Y150.45 E42.47008
G1 X153.198 Y150.515 E42.48959
G1 X152.729 Y150.579 E42.51163
G1 X151.71 Y150.667 E42.55926
G1 X150.945 Y150.694 E42.5949
G1 X150.585 Y150.7 E42.61167
G1 X70.229 Y150.7 E46.35338
G1 X70.027 Y150.698 E46.36279
G1 X68.463 Y150.667 E46.43563
G1 X67.3 Y150.577 E46.48994
G1 X66.663 Y150.491 E46.51987
G1 X65.604 Y150.291 E46.57006
G1 X65.322 Y150.222 E46.58358
G1 X64.67 Y150.039 E46.61511
G1 X64.278 Y149.915 E46.63425
G1 X63.172 Y149.493 E46.68937
G1 X62.796 Y149.324 E46.70857
G1 X61.629 Y148.706 E46.77006
G1 X61.051 Y148.35 E46.80167
G1 X60.304 Y147.843 E46.84371
G1 X59.512 Y147.188 E46.89156
G1 X59.145 Y146.852 E46.91473
G1 X58.507 Y146.213 E46.95678
G1 X57.928 Y145.522 E46.99876
G1 X57.711 Y145.238 E47.0154
G1 X57.195 Y144.497 E47.05745
G1 X56.835 Y143.881 E47.09067
G1 X56.716 Y143.66 E47.10236
G1 X56.324 Y142.846 E47.14443
G1 X56.08 Y142.222 E47.17562
G1 X55.927 Y141.789 E47.19701
G1 X55.664 Y140.925 E47.23906
G1 X55.478 Y140.041 E47.28113
G1 X55.387 Y139.324 E47.31478
G1 X55.351 Y138.932 E47.33311
G1 X55.309 Y138.128 E47.3706
G1 X55.303 Y137.652 E47.39277
G1 X55.302 Y137.523 E47.39877
G1 X55.3 Y82.385 E49.96623
G1 X55.303 Y82.145 E49.97741
G1 X55.316 Y81.592 E50.00316
G1 X55.377 Y80.691 E50.04521
G1 X55.577 Y79.526 E50.10025
G1 X55.697 Y79.009 E50.12497
G1 X55.94 Y78.139 E50.16703
G1 X56.259 Y77.294 E50.20909
G1 X56.455 Y76.864 E50.23109
G1 X56.568 Y76.631 E50.24315
G1 X57.166 Y75.566 E50.30002
G1 X57.328 Y75.314 E50.31397
G1 X57.96 Y74.436 E50.36435
G1 X58.104 Y74.257 E50.37504
G1 X58.701 Y73.58 E50.41707
G1 X59.07 Y73.215 E50.44124
G1 X59.299 Y73 E50.45587
G1 X59.988 Y72.409 E50.49814
G1 F1500 E43.99814
;MESH:HeadLCDBlock_Join.stl
G0 F6000 X64.838 Y81.811
G0 X65.92 Y82.074
G0 X66.305 Y138.303
G0 X66.606 Y138.824
G0 X67.189 Y139.277
G0 X67.958 Y139.562
G0 X69.273 Y139.9
;TYPE:WALL-INNER
G1 F1500 E50.49814
G1 F1200 X68.559 Y139.872 E50.53141
G1 X68.101 Y139.797 E50.55302
G1 X67.53 Y139.626 E50.58077
G1 X67.1 Y139.424 E50.6029
G1 X66.727 Y139.175 E50.62378
G1 X66.477 Y138.937 E50.63985
G1 X66.305 Y138.713 E50.653
G1 X66.185 Y138.483 E50.66508
G1 X66.139 Y138.346 E50.67181
G1 X66.112 Y138.214 E50.67808
G1 X66.102 Y138.08 E50.68434
G1 X66.1 Y82.076 E53.29212
G1 X66.104 Y81.834 E53.30339
G1 X66.128 Y81.697 E53.30987
G1 X66.173 Y81.547 E53.31716
G1 X66.304 Y81.289 E53.33063
G1 X66.502 Y81.034 E53.34567
G1 X66.764 Y80.797 E53.36212
G1 X67.141 Y80.554 E53.383
G1 X67.586 Y80.355 E53.4057
G1 X68.085 Y80.208 E53.42992
G1 X68.699 Y80.117 E53.45883
G1 X69.086 Y80.1 E53.47687
G1 X150.878 Y80.1 E57.28544
G1 X151.491 Y80.134 E57.31403
G1 X152.076 Y80.247 E57.34177
G1 X152.622 Y80.438 E57.36871
G1 X153.033 Y80.654 E57.39033
G1 X153.335 Y80.879 E57.40787
G1 X153.609 Y81.167 E57.42638
G1 X153.755 Y81.389 E57.43875
G1 X153.809 Y81.504 E57.44466
G1 X153.861 Y81.652 E57.45197
G1 X153.887 Y81.783 E57.45819
G1 X153.898 Y81.905 E57.46389
G1 X153.9 Y82.166 E57.47604
G1 X153.9 Y137.995 E60.07568
G1 X153.891 Y138.197 E60.08509
G1 X153.851 Y138.382 E60.09391
G1 X153.82 Y138.472 E60.09834
G1 X153.695 Y138.711 E60.1109
G1 X153.494 Y138.969 E60.12613
G1 X153.236 Y139.203 E60.14234
G1 X152.859 Y139.446 E60.16323
G1 X152.414 Y139.645 E60.18593
G1 X151.915 Y139.792 E60.21015
G1 X151.301 Y139.883 E60.23905
G1 X150.914 Y139.9 E60.25709
G1 X69.273 Y139.9 E64.05864
G0 F6000 X69.257 Y140.3
;TYPE:WALL-OUTER
G1 F1200 X68.519 Y140.271 E64.09303
G1 X68.014 Y140.188 E64.11686
G1 X67.39 Y140.001 E64.14719
G1 X66.9 Y139.772 E64.17238
G1 X66.478 Y139.489 E64.19604
G1 X66.176 Y139.203 E64.21541
G1 X65.967 Y138.93 E64.23141
G1 X65.82 Y138.647 E64.24626
G1 X65.771 Y138.514 E64.25286
G1 X65.75 Y138.441 E64.2564
G1 X65.717 Y138.275 E64.26428
G1 X65.706 Y138.182 E64.26864
G1 X65.702 Y138.099 E64.27251
G1 X65.7 Y82.072 E66.88136
G1 X65.702 Y81.847 E66.89184
G1 X65.708 Y81.779 E66.89502
G1 X65.738 Y81.605 E66.90324
G1 X65.8 Y81.399 E66.91326
G1 X65.964 Y81.074 E66.93021
G1 X66.21 Y80.759 E66.94882
G1 X66.52 Y80.479 E66.96827
G1 X66.951 Y80.201 E66.99215
G1 X67.448 Y79.978 E67.01752
G1 X68 Y79.816 E67.04431
G1 X68.661 Y79.718 E67.07542
G1 X69.068 Y79.7 E67.09439
G1 X150.882 Y79.7 E70.90399
G1 X151.545 Y79.737 E70.93491
G1 X152.181 Y79.86 E70.96508
G1 X152.779 Y80.069 E70.99458
G1 X153.248 Y80.316 E71.01926
G1 X153.602 Y80.579 E71.03979
G1 X153.922 Y80.915 E71.0614
G1 X154.104 Y81.192 E71.07683
G1 X154.18 Y81.352 E71.08508
G1 X154.229 Y81.486 E71.09172
